;FLAVOR:Marlin
;TIME:4939
;Filament used: 2.27513m
;Layer height: 0.2
;MINX:85.499
;MINY:82.108
;MINZ:0.2
;MAXX:135.003
;MAXY:152.908
;MAXZ:25
;Generated with Cura_SteamEngine 4.13.1
M140 S60
M105
M190 S60
M104 S200
M105
M109 S200
M82 ;absolute extrusion mode
; Ender 3 Custom Start G-code
G92 E0 ; Reset Extruder
G28 ; Home all axes
G1 Z2.0 F3000 ; Move Z Axis up little to prevent scratching of Heat Bed
G1 X0.1 Y20 Z0.3 F5000.0 ; Move to start position
G1 X0.1 Y200.0 Z0.3 F1500.0 E15 ; Draw the first line
G1 X0.4 Y200.0 Z0.3 F5000.0 ; Move to side a little
G1 X0.4 Y20 Z0.3 F1500.0 E30 ; Draw the second line
G92 E0 ; Reset Extruder
G1 Z2.0 F3000 ; Move Z Axis up little to prevent scratching of Heat Bed
G1 X5 Y20 Z0.3 F5000.0 ; Move over to prevent blob squish
G92 E0
G92 E0
G1 F2700 E-5
;LAYER_COUNT:125
;LAYER:0
M107
G0 F6000 X88.711 Y85.36 Z0.2
;TYPE:SKIRT
G1 F2700 E0
G1 F1200 X89.4 Y84.724 E0.03119
G1 X90.141 Y84.149 E0.06238
G1 X90.928 Y83.639 E0.09357
G1 X91.756 Y83.198 E0.12478
G1 X92.618 Y82.829 E0.15596
G1 X93.509 Y82.535 E0.18717
G1 X94.421 Y82.317 E0.21836
G1 X95.348 Y82.179 E0.24953
G1 X96.202 Y82.121 E0.278
G1 X96.522 Y82.112 E0.28865
G1 X96.831 Y82.108 E0.29892
G1 X109.267 Y82.108 E0.71255
G1 X110.675 Y82.113 E0.75938
G1 X111.346 Y82.108 E0.7817
G1 X123.452 Y82.109 E1.18434
G1 X124.15 Y82.119 E1.20756
G1 X125.086 Y82.173 E1.23874
G1 X126.014 Y82.305 E1.26992
G1 X126.928 Y82.517 E1.30113
G1 X127.82 Y82.806 E1.33231
G1 X128.685 Y83.169 E1.36351
G1 X129.515 Y83.605 E1.3947
G1 X130.306 Y84.11 E1.42591
G1 X131.05 Y84.681 E1.4571
G1 X131.743 Y85.313 E1.4883
G1 X132.38 Y86.001 E1.51948
G1 X132.955 Y86.742 E1.55068
G1 X133.466 Y87.528 E1.58186
G1 X133.908 Y88.356 E1.61308
G1 X134.277 Y89.218 E1.64426
G1 X134.572 Y90.108 E1.67545
G1 X134.79 Y91.02 E1.70664
G1 X134.93 Y91.948 E1.73785
G1 X134.988 Y92.809 E1.76655
G1 X134.997 Y93.129 E1.7772
G1 X135.001 Y93.436 E1.78741
G1 X135.003 Y102.683 E2.09497
G1 X135.001 Y103.894 E2.13525
G1 X135 Y141.323 E3.38014
G1 X134.99 Y142.05 E3.40432
G1 X134.937 Y142.987 E3.43554
G1 X134.805 Y143.915 E3.46671
G1 X134.594 Y144.829 E3.49791
G1 X134.305 Y145.721 E3.5291
G1 X133.942 Y146.586 E3.5603
G1 X133.507 Y147.417 E3.5915
G1 X133.002 Y148.207 E3.62268
G1 X132.432 Y148.952 E3.65388
G1 X131.801 Y149.646 E3.68508
G1 X131.112 Y150.283 E3.71629
G1 X130.372 Y150.859 E3.74748
G1 X129.586 Y151.37 E3.77866
G1 X128.759 Y151.812 E3.80985
G1 X127.897 Y152.182 E3.84105
G1 X127.007 Y152.477 E3.87223
G1 X126.095 Y152.696 E3.90343
G1 X125.168 Y152.836 E3.93461
G1 X124.3 Y152.895 E3.96355
G1 X123.98 Y152.904 E3.9742
G1 X123.671 Y152.908 E3.98447
G1 X111.235 Y152.908 E4.3981
G1 X109.827 Y152.903 E4.44493
G1 X109.156 Y152.908 E4.46725
G1 X97.066 Y152.907 E4.86936
G1 X96.368 Y152.898 E4.89258
G1 X95.432 Y152.846 E4.92376
G1 X94.503 Y152.714 E4.95497
G1 X93.589 Y152.504 E4.98616
G1 X92.696 Y152.217 E5.01736
G1 X91.831 Y151.854 E5.04856
G1 X91 Y151.42 E5.07974
G1 X90.209 Y150.916 E5.11093
G1 X89.464 Y150.346 E5.14213
G1 X88.77 Y149.715 E5.17333
G1 X88.133 Y149.028 E5.20449
G1 X87.556 Y148.288 E5.2357
G1 X87.044 Y147.502 E5.2669
G1 X86.601 Y146.675 E5.2981
G1 X86.23 Y145.814 E5.32929
G1 X85.934 Y144.924 E5.36048
G1 X85.715 Y144.012 E5.39168
G1 X85.574 Y143.085 E5.42286
G1 X85.514 Y142.196 E5.4525
G1 X85.505 Y141.863 E5.46358
G1 X85.501 Y141.568 E5.47339
G1 X85.499 Y132.332 E5.78058
G1 X85.501 Y131.158 E5.81963
G1 X85.502 Y93.617 E7.06825
G1 X85.512 Y92.952 E7.09037
G1 X85.566 Y92.015 E7.12159
G1 X85.7 Y91.087 E7.15277
G1 X85.912 Y90.173 E7.18398
G1 X86.201 Y89.281 E7.21516
G1 X86.566 Y88.417 E7.24636
G1 X87.002 Y87.587 E7.27754
G1 X87.508 Y86.797 E7.30875
G1 X88.079 Y86.053 E7.33994
G1 X88.711 Y85.36 E7.37114
G0 F6000 X89.103 Y85.535
G1 F1200 X89.789 Y84.921 E7.40176
G1 X90.525 Y84.369 E7.43236
G1 X91.307 Y83.882 E7.463
G1 X92.128 Y83.466 E7.49361
G1 X92.982 Y83.122 E7.52423
G1 X93.862 Y82.853 E7.55484
G1 X94.763 Y82.662 E7.58547
G1 X95.677 Y82.55 E7.6161
G1 X96.213 Y82.521 E7.63395
G1 X96.533 Y82.512 E7.6446
G1 X96.831 Y82.508 E7.65451
G1 X109.266 Y82.508 E8.0681
G1 X110.677 Y82.513 E8.11503
G1 X111.349 Y82.508 E8.13738
G1 X123.446 Y82.509 E8.53973
G1 X124.144 Y82.519 E8.56295
G1 X125.063 Y82.572 E8.59356
G1 X125.974 Y82.705 E8.62418
G1 X126.87 Y82.916 E8.6548
G1 X127.744 Y83.204 E8.68541
G1 X128.591 Y83.567 E8.71606
G1 X129.402 Y84.002 E8.74667
G1 X130.172 Y84.506 E8.77728
G1 X130.896 Y85.075 E8.8079
G1 X131.568 Y85.705 E8.83854
G1 X132.183 Y86.39 E8.86916
G1 X132.736 Y87.126 E8.89978
G1 X133.223 Y87.907 E8.93039
G1 X133.64 Y88.728 E8.96102
G1 X133.985 Y89.582 E8.99165
G1 X134.254 Y90.462 E9.02226
G1 X134.446 Y91.363 E9.0529
G1 X134.559 Y92.276 E9.0835
G1 X134.588 Y92.82 E9.10161
G1 X134.597 Y93.14 E9.11226
G1 X134.601 Y93.436 E9.12211
G1 X134.603 Y102.683 E9.42966
G1 X134.601 Y103.894 E9.46994
G1 X134.6 Y141.318 E10.71467
G1 X134.59 Y142.045 E10.73885
G1 X134.537 Y142.964 E10.76947
G1 X134.405 Y143.875 E10.80009
G1 X134.194 Y144.771 E10.8307
G1 X133.907 Y145.646 E10.86133
G1 X133.544 Y146.492 E10.89195
G1 X133.11 Y147.304 E10.92257
G1 X132.606 Y148.075 E10.95321
G1 X132.038 Y148.799 E10.98381
G1 X131.409 Y149.471 E11.01443
G1 X130.724 Y150.086 E11.04505
G1 X129.988 Y150.639 E11.07567
G1 X129.207 Y151.127 E11.1063
G1 X128.387 Y151.545 E11.13691
G1 X127.533 Y151.89 E11.16754
G1 X126.653 Y152.159 E11.19815
G1 X125.752 Y152.352 E11.2288
G1 X124.839 Y152.465 E11.25939
G1 X124.289 Y152.495 E11.27771
G1 X123.969 Y152.504 E11.28836
G1 X123.671 Y152.508 E11.29827
G1 X111.236 Y152.508 E11.71186
G1 X109.825 Y152.503 E11.75879
G1 X109.153 Y152.508 E11.78115
G1 X97.071 Y152.507 E12.183
G1 X96.373 Y152.498 E12.20621
G1 X95.454 Y152.446 E12.23683
G1 X94.543 Y152.315 E12.26744
G1 X93.647 Y152.105 E12.29805
G1 X92.772 Y151.818 E12.32868
G1 X91.925 Y151.456 E12.35931
G1 X91.113 Y151.022 E12.38994
G1 X90.342 Y150.52 E12.42054
G1 X89.617 Y149.952 E12.45117
G1 X88.944 Y149.323 E12.48181
G1 X88.329 Y148.639 E12.5124
G1 X87.775 Y147.904 E12.54301
G1 X87.287 Y147.123 E12.57364
G1 X86.868 Y146.303 E12.60427
G1 X86.522 Y145.45 E12.63489
G1 X86.252 Y144.57 E12.6655
G1 X86.059 Y143.669 E12.69615
G1 X85.945 Y142.756 E12.72675
G1 X85.914 Y142.185 E12.74577
G1 X85.905 Y141.852 E12.75685
G1 X85.901 Y141.568 E12.7663
G1 X85.899 Y132.333 E13.07346
G1 X85.901 Y131.159 E13.1125
G1 X85.902 Y93.623 E14.36095
G1 X85.912 Y92.958 E14.38308
G1 X85.966 Y92.039 E14.41369
G1 X86.099 Y91.128 E14.44432
G1 X86.311 Y90.232 E14.47494
G1 X86.6 Y89.357 E14.50559
G1 X86.964 Y88.512 E14.53619
G1 X87.399 Y87.701 E14.5668
G1 X87.904 Y86.93 E14.59745
G1 X88.473 Y86.207 E14.62805
G1 X89.103 Y85.535 E14.65869
G0 F6000 X89.494 Y85.714
G1 F1200 X90.176 Y85.122 E14.68873
G1 X90.908 Y84.593 E14.71877
G1 X91.684 Y84.131 E14.74881
G1 X92.498 Y83.74 E14.77884
G1 X93.343 Y83.421 E14.80888
G1 X94.213 Y83.179 E14.83892
G1 X95.101 Y83.015 E14.86895
G1 X96.224 Y82.921 E14.90643
G1 X96.544 Y82.912 E14.91708
G1 X96.831 Y82.908 E14.92663
G1 X109.264 Y82.908 E15.34015
G1 X110.678 Y82.913 E15.38718
G1 X111.352 Y82.908 E15.4096
G1 X123.44 Y82.909 E15.81165
G1 X124.138 Y82.919 E15.83486
G1 X125.04 Y82.972 E15.86492
G1 X125.933 Y83.104 E15.89494
G1 X126.811 Y83.315 E15.92497
G1 X127.667 Y83.603 E15.95501
G1 X128.494 Y83.965 E15.98504
G1 X129.286 Y84.4 E16.01509
G1 X130.037 Y84.902 E16.04514
G1 X130.74 Y85.469 E16.07518
G1 X131.39 Y86.096 E16.10521
G1 X131.982 Y86.778 E16.13525
G1 X132.512 Y87.509 E16.16528
G1 X132.974 Y88.285 E16.19532
G1 X133.367 Y89.098 E16.22536
G1 X133.685 Y89.943 E16.25538
G1 X133.928 Y90.813 E16.28543
G1 X134.093 Y91.701 E16.31547
G1 X134.188 Y92.831 E16.35319
G1 X134.197 Y93.151 E16.36383
G1 X134.201 Y93.436 E16.37331
G1 X134.203 Y102.682 E16.68084
G1 X134.201 Y103.893 E16.72111
G1 X134.2 Y141.312 E17.96568
G1 X134.19 Y142.039 E17.98986
G1 X134.138 Y142.941 E18.01991
G1 X134.006 Y143.834 E18.04993
G1 X133.795 Y144.713 E18.08
G1 X133.508 Y145.569 E18.11003
G1 X133.146 Y146.396 E18.14005
G1 X132.712 Y147.188 E18.17009
G1 X132.21 Y147.939 E18.20013
G1 X131.644 Y148.642 E18.23015
G1 X131.017 Y149.293 E18.26022
G1 X130.336 Y149.885 E18.29023
G1 X129.605 Y150.415 E18.32026
G1 X128.829 Y150.878 E18.35031
G1 X128.016 Y151.271 E18.38035
G1 X127.171 Y151.591 E18.4104
G1 X126.302 Y151.834 E18.44041
G1 X125.414 Y151.999 E18.47045
G1 X124.278 Y152.095 E18.50837
G1 X123.958 Y152.104 E18.51902
G1 X123.671 Y152.108 E18.52856
G1 X111.238 Y152.108 E18.94209
G1 X109.824 Y152.103 E18.98912
G1 X109.15 Y152.108 E19.01154
G1 X97.076 Y152.107 E19.41312
G1 X96.378 Y152.098 E19.43634
G1 X95.477 Y152.047 E19.46635
G1 X94.583 Y151.915 E19.49641
G1 X93.705 Y151.706 E19.52643
G1 X92.848 Y151.419 E19.55649
G1 X92.021 Y151.058 E19.5865
G1 X91.228 Y150.625 E19.61655
G1 X90.477 Y150.124 E19.64658
G1 X89.773 Y149.558 E19.67662
G1 X89.122 Y148.932 E19.70666
G1 X88.529 Y148.251 E19.73669
G1 X87.999 Y147.52 E19.76672
G1 X87.535 Y146.745 E19.79677
G1 X87.141 Y145.932 E19.82682
G1 X86.821 Y145.088 E19.85684
G1 X86.577 Y144.218 E19.88689
G1 X86.411 Y143.33 E19.91694
G1 X86.314 Y142.175 E19.95549
G1 X86.305 Y141.842 E19.96657
G1 X86.301 Y141.568 E19.97568
G1 X86.299 Y132.334 E20.28281
G1 X86.301 Y131.16 E20.32185
G1 X86.302 Y93.629 E21.57014
G1 X86.312 Y92.964 E21.59226
G1 X86.366 Y92.062 E21.62231
G1 X86.499 Y91.169 E21.65234
G1 X86.71 Y90.291 E21.68238
G1 X86.999 Y89.435 E21.71243
G1 X87.362 Y88.608 E21.74247
G1 X87.796 Y87.817 E21.77247
G1 X88.299 Y87.066 E21.80254
G1 X88.867 Y86.364 E21.83257
G1 X89.494 Y85.714 E21.86261
G1 F2700 E16.86261
G0 F6000 X95.848 Y105.465
G0 X100.301 Y108.147
G0 X100.301 Y108.612
G1 F2700 E21.86261
G1 F1200 X105.701 Y108.613 E22.04222
G1 X105.701 Y126.405 E22.63398
G1 X100.301 Y126.405 E22.81358
G1 X100.301 Y108.612 E23.40538
G0 F6000 X99.901 Y108.212
G1 F1200 X105.161 Y108.212 E23.58033
G1 X106.101 Y108.214 E23.61159
G1 X106.101 Y126.805 E24.22993
G1 X99.901 Y126.805 E24.43615
G1 X99.901 Y108.212 E25.05455
G0 F6000 X99.501 Y107.812
G1 F1200 X105.162 Y107.812 E25.24284
G1 X106.501 Y107.814 E25.28737
G1 X106.501 Y127.205 E25.93232
G1 X99.501 Y127.205 E26.16514
G1 X99.501 Y107.812 E26.81016
G0 F6000 X99.101 Y107.412
G1 F1200 X106.901 Y107.413 E27.06958
G1 X106.901 Y127.605 E27.74117
G1 X99.101 Y127.605 E28.0006
G1 X99.101 Y107.412 E28.67222
G0 F6000 X98.701 Y107.012
G1 F1200 X105.163 Y107.012 E28.88715
G1 X106.364 Y107.014 E28.9271
G1 X107.301 Y107.013 E28.95826
G1 X107.301 Y128.005 E29.65646
G1 X98.701 Y128.005 E29.9425
G1 X98.701 Y107.012 E30.64073
G0 F6000 X98.301 Y106.612
G1 F1200 X105.164 Y106.612 E30.86899
G1 X106.364 Y106.614 E30.9089
G1 X107.701 Y106.613 E30.95337
G1 X107.701 Y128.405 E31.67818
G1 X98.301 Y128.405 E31.99082
G1 X98.301 Y106.612 E32.71566
G0 F6000 X97.901 Y106.212
G1 F1200 X105.165 Y106.212 E32.95726
G1 X106.363 Y106.214 E32.99711
G1 X108.101 Y106.212 E33.05491
G1 X108.101 Y128.805 E33.80636
G1 X97.901 Y128.805 E34.14561
G1 X97.901 Y106.212 E34.89706
G0 F6000 X97.501 Y105.812
G1 F1200 X105.165 Y105.812 E35.15196
G1 X106.36 Y105.814 E35.19171
G1 X108.501 Y105.812 E35.26292
G1 X108.501 Y129.205 E36.04097
G1 X97.501 Y129.205 E36.40684
G1 X97.501 Y105.812 E37.18489
G0 F6000 X97.101 Y105.412
G1 F1200 X105.166 Y105.412 E37.45313
G1 X106.361 Y105.414 E37.49288
G1 X108.901 Y105.412 E37.57736
G1 X108.901 Y129.605 E38.38202
G1 X97.101 Y129.605 E38.77449
G1 X97.101 Y105.412 E39.57915
G0 F6000 X96.701 Y105.012
G1 F1200 X105.167 Y105.012 E39.86073
G1 X106.362 Y105.014 E39.90048
G1 X109.301 Y105.011 E39.99823
G1 X109.301 Y130.005 E40.82954
G1 X96.701 Y130.005 E41.24861
G1 X96.701 Y105.012 E42.07988
G1 F2700 E37.07988
G0 F6000 X96.701 Y105.477
G0 X111.201 Y105.477
G0 X111.201 Y105.012
G1 F2700 E42.07988
G1 F1200 X119.667 Y105.012 E42.36146
G1 X120.862 Y105.014 E42.40121
G1 X123.801 Y105.011 E42.49896
G1 X123.801 Y130.005 E43.33027
G1 X111.201 Y130.005 E43.74934
G1 X111.201 Y105.012 E44.58061
G0 F6000 X111.601 Y105.412
G1 F1200 X119.666 Y105.412 E44.84886
G1 X120.861 Y105.414 E44.8886
G1 X123.401 Y105.412 E44.97308
G1 X123.401 Y129.605 E45.77775
G1 X111.601 Y129.605 E46.17022
G1 X111.601 Y105.412 E46.97488
G0 F6000 X112.001 Y105.812
G1 F1200 X119.665 Y105.812 E47.22978
G1 X120.86 Y105.814 E47.26953
G1 X123.001 Y105.812 E47.34074
G1 X123.001 Y129.205 E48.11879
G1 X112.001 Y129.205 E48.48466
G1 X112.001 Y105.812 E49.26271
G0 F6000 X112.401 Y106.212
G1 F1200 X119.665 Y106.212 E49.50431
G1 X120.863 Y106.214 E49.54416
G1 X122.601 Y106.212 E49.60196
G1 X122.601 Y128.805 E50.35341
G1 X112.401 Y128.805 E50.69266
G1 X112.401 Y106.212 E51.44411
G0 F6000 X112.801 Y106.612
G1 F1200 X119.664 Y106.612 E51.67237
G1 X120.864 Y106.614 E51.71229
G1 X122.201 Y106.613 E51.75675
G1 X122.201 Y128.405 E52.48156
G1 X112.801 Y128.405 E52.7942
G1 X112.801 Y106.612 E53.51904
G0 F6000 X113.201 Y107.012
G1 F1200 X119.663 Y107.012 E53.73397
G1 X120.864 Y107.014 E53.77392
G1 X121.801 Y107.013 E53.80508
G1 X121.801 Y128.005 E54.50328
G1 X113.201 Y128.005 E54.78931
G1 X113.201 Y107.012 E55.48754
G0 F6000 X113.601 Y107.412
G1 F1200 X121.401 Y107.413 E55.74697
G1 X121.401 Y127.605 E56.41856
G1 X113.601 Y127.605 E56.67799
G1 X113.601 Y107.412 E57.34961
G0 F6000 X114.001 Y107.812
G1 F1200 X119.662 Y107.812 E57.5379
G1 X121.001 Y107.814 E57.58243
G1 X121.001 Y127.205 E58.22738
G1 X114.001 Y127.205 E58.4602
G1 X114.001 Y107.812 E59.10522
G0 F6000 X114.401 Y108.212
G1 F1200 X119.661 Y108.212 E59.28016
G1 X120.601 Y108.214 E59.31143
G1 X120.601 Y126.805 E59.92977
G1 X114.401 Y126.805 E60.13598
G1 X114.401 Y108.212 E60.75439
G0 F6000 X114.801 Y108.612
G1 F1200 X120.201 Y108.613 E60.93399
G1 X120.201 Y126.405 E61.52576
G1 X114.801 Y126.405 E61.70536
G1 X114.801 Y108.612 E62.29716
G0 F6000 X115.201 Y109.012
;TYPE:SUPPORT
G1 F1200 X119.801 Y109.012 E62.45015
G1 X119.801 Y126.005 E63.01534
G1 X115.201 Y126.005 E63.16834
G1 X115.201 Y109.012 E63.73353
G0 F6000 X115.601 Y109.412
G1 F1200 X119.401 Y109.412 E63.85992
G1 X119.401 Y125.605 E64.3985
G1 X115.601 Y125.605 E64.52489
G1 X115.601 Y109.412 E65.06347
G0 F6000 X116 Y109.492
G1 F1200 X116 Y125.525 E65.59673
G0 F6000 X115.68 Y124
G1 F1200 X119.32 Y124 E65.7178
G0 F6000 X119.32 Y122
G1 F1200 X115.68 Y122 E65.83886
G0 F6000 X115.68 Y120
G1 F1200 X119.32 Y120 E65.95993
G0 F6000 X119.321 Y118
G1 F1200 X115.681 Y118 E66.081
G0 F6000 X115.681 Y116
G1 F1200 X119.321 Y116 E66.20206
G0 F6000 X119.321 Y114
G1 F1200 X115.681 Y114 E66.32313
G0 F6000 X115.681 Y112
G1 F1200 X119.321 Y112 E66.4442
G0 F6000 X119.321 Y110
G1 F1200 X115.681 Y110 E66.56526
G0 F6000 X118 Y109.492
G1 F1200 X118 Y125.525 E67.09852
G1 F2700 E62.09852
G0 F6000 X118 Y126.87
G0 X114.348 Y126.858
G0 X106.166 Y126.005
G0 X105.301 Y126.005
G1 F2700 E67.09852
G1 F1200 X100.701 Y126.005 E67.25152
G1 X100.701 Y109.012 E67.81671
G1 X105.301 Y109.012 E67.96971
G1 X105.301 Y126.005 E68.5349
G0 F6000 X104.901 Y125.605
G1 F1200 X101.101 Y125.605 E68.66128
G1 X101.101 Y109.412 E69.19987
G1 X104.901 Y109.412 E69.32625
G1 X104.901 Y125.605 E69.86484
G0 F6000 X104 Y125.525
G1 F1200 X104 Y109.492 E70.3981
G0 F6000 X104.821 Y110
G1 F1200 X101.181 Y110 E70.51916
G0 F6000 X102 Y109.492
G1 F1200 X102 Y125.525 E71.05242
G0 F6000 X101.18 Y124
G1 F1200 X104.82 Y124 E71.17349
G0 F6000 X104.82 Y122
G1 F1200 X101.18 Y122 E71.29456
G0 F6000 X101.18 Y120
G1 F1200 X104.82 Y120 E71.41562
G0 F6000 X104.821 Y118
G1 F1200 X101.181 Y118 E71.53669
G0 F6000 X101.181 Y116
G1 F1200 X104.821 Y116 E71.65776
G0 F6000 X104.821 Y114
G1 F1200 X101.181 Y114 E71.77882
G0 F6000 X101.181 Y112
G1 F1200 X104.821 Y112 E71.89989
G1 F2700 E66.89989
G0 F6000 X106.166 Y112
G0 X106.154 Y108.162
G0 X105.166 Y105.477
G0 X105.167 Y104.612
;TYPE:SUPPORT-INTERFACE
G1 F2700 E71.89989
G1 F1200 X96.701 Y104.612 E72.18147
G1 X96.701 Y103.666 E72.21294
G1 X105.169 Y103.668 E72.49458
G1 X109.301 Y103.665 E72.63201
G1 X109.301 Y104.611 E72.66348
G1 X106.362 Y104.614 E72.76123
G1 X105.167 Y104.612 E72.80097
G1 F2700 E67.80097
G0 F6000 X105.166 Y105.477
G0 X110.154 Y105.463
G0 X110.336 Y104.612
G0 X111.201 Y104.612
G1 F2700 E72.80097
G1 F1200 X111.201 Y103.666 E72.83244
G1 X119.669 Y103.668 E73.11409
G1 X123.801 Y103.665 E73.25152
