;FLAVOR:Marlin
;TIME:8174
;Filament used: 5.1308m
;Layer height: 0.2
;MINX:81.515
;MINY:81.515
;MINZ:0.2
;MAXX:153.485
;MAXY:153.485
;MAXZ:48.8
;Generated with Cura_SteamEngine 4.8.0
M140 S60
M105
M190 S60
M104 S200
M105
M109 S200
M82 ;absolute extrusion mode
; Ender 3 Custom Start G-code
G92 E0 ; Reset Extruder
G28 ; Home all axes
G1 Z2.0 F3000 ; Move Z Axis up little to prevent scratching of Heat Bed
G1 X0.1 Y20 Z0.3 F5000.0 ; Move to start position
G1 X0.1 Y200.0 Z0.3 F1500.0 E15 ; Draw the first line
G1 X0.4 Y200.0 Z0.3 F5000.0 ; Move to side a little
G1 X0.4 Y20 Z0.3 F1500.0 E30 ; Draw the second line
G92 E0 ; Reset Extruder
G1 Z2.0 F3000 ; Move Z Axis up little to prevent scratching of Heat Bed
G1 X5 Y20 Z0.3 F5000.0 ; Move over to prevent blob squish
G92 E0
G92 E0
G1 F2700 E-5
;LAYER_COUNT:245
;LAYER:0
M107
G0 F6000 X89.923 Y94.602 Z0.2
;TYPE:SKIRT
G1 F2700 E0
G1 F1200 X94.662 Y89.863 E0.22291
G1 X95.141 Y89.398 E0.24511
G1 X95.841 Y88.774 E0.2763
G1 X96.592 Y88.212 E0.3075
G1 X97.642 Y87.577 E0.34831
G1 X98.514 Y87.115 E0.38113
G1 X104.162 Y84.238 E0.59196
G1 X104.908 Y83.87 E0.61962
G1 X105.767 Y83.491 E0.65085
G1 X106.654 Y83.188 E0.68203
G1 X107.884 Y82.9 E0.72404
G1 X108.817 Y82.739 E0.75553
G1 X115.265 Y81.718 E0.97267
G1 X115.927 Y81.623 E0.99491
G1 X116.861 Y81.529 E1.02613
G1 X117.798 Y81.515 E1.0573
G1 X119.04 Y81.621 E1.09876
G1 X119.999 Y81.759 E1.13098
G1 X126.409 Y82.776 E1.34685
G1 X127.082 Y82.892 E1.36956
G1 X127.999 Y83.09 E1.40076
G1 X128.895 Y83.366 E1.43195
G1 X130.049 Y83.851 E1.47358
G1 X130.75 Y84.194 E1.49954
G1 X136.557 Y87.152 E1.71629
G1 X137.315 Y87.55 E1.74477
G1 X138.125 Y88.023 E1.77597
G1 X138.892 Y88.563 E1.80717
G1 X139.84 Y89.382 E1.84883
G1 X140.398 Y89.923 E1.87468
G1 X145.137 Y94.662 E2.09759
G1 X145.602 Y95.141 E2.11979
G1 X146.226 Y95.841 E2.15098
G1 X146.788 Y96.592 E2.18218
G1 X147.423 Y97.642 E2.223
G1 X147.885 Y98.514 E2.25582
G1 X150.762 Y104.162 E2.46664
G1 X151.13 Y104.908 E2.4943
G1 X151.509 Y105.767 E2.52553
G1 X151.812 Y106.654 E2.55671
G1 X152.1 Y107.884 E2.59872
G1 X152.261 Y108.817 E2.63021
G1 X153.282 Y115.261 E2.84722
G1 X153.377 Y115.921 E2.86939
G1 X153.471 Y116.854 E2.90058
G1 X153.485 Y117.792 E2.93178
G1 X153.38 Y119.034 E2.97324
G1 X153.268 Y119.823 E2.99975
G1 X152.248 Y126.263 E3.21661
G1 X152.108 Y127.082 E3.24425
G1 X151.91 Y127.999 E3.27545
G1 X151.634 Y128.895 E3.30663
G1 X151.149 Y130.049 E3.34827
G1 X150.806 Y130.75 E3.37422
G1 X147.848 Y136.557 E3.59098
G1 X147.45 Y137.315 E3.61945
G1 X146.977 Y138.125 E3.65065
G1 X146.437 Y138.892 E3.68185
G1 X145.618 Y139.84 E3.72352
G1 X145.077 Y140.398 E3.74937
G1 X140.338 Y145.137 E3.97228
G1 X139.859 Y145.602 E3.99448
G1 X139.159 Y146.226 E4.02567
G1 X138.408 Y146.788 E4.05687
G1 X137.358 Y147.423 E4.09768
G1 X136.486 Y147.885 E4.1305
G1 X130.838 Y150.762 E4.34132
G1 X130.092 Y151.13 E4.36899
G1 X129.233 Y151.509 E4.40022
G1 X128.346 Y151.812 E4.43139
G1 X127.116 Y152.1 E4.47341
G1 X126.183 Y152.261 E4.5049
G1 X119.735 Y153.282 E4.72203
G1 X119.073 Y153.377 E4.74428
G1 X118.139 Y153.471 E4.7755
G1 X117.202 Y153.485 E4.80667
G1 X115.96 Y153.379 E4.84813
G1 X115.001 Y153.241 E4.88035
G1 X108.591 Y152.224 E5.09622
G1 X107.918 Y152.108 E5.11893
G1 X107.001 Y151.91 E5.15013
G1 X106.105 Y151.634 E5.18132
G1 X104.951 Y151.149 E5.22295
G1 X104.25 Y150.806 E5.24891
G1 X98.443 Y147.848 E5.46566
G1 X97.685 Y147.45 E5.49414
G1 X96.875 Y146.977 E5.52533
G1 X96.108 Y146.437 E5.55653
G1 X95.16 Y145.618 E5.5982
G1 X94.602 Y145.077 E5.62405
G1 X89.978 Y140.454 E5.84153
G1 X89.398 Y139.858 E5.86919
G1 X88.774 Y139.158 E5.90038
G1 X88.211 Y138.407 E5.93159
G1 X87.573 Y137.352 E5.9726
G1 X87.115 Y136.486 E6.00518
G1 X84.238 Y130.838 E6.216
G1 X83.87 Y130.092 E6.24367
G1 X83.491 Y129.233 E6.2749
G1 X83.188 Y128.346 E6.30607
G1 X82.9 Y127.116 E6.34809
G1 X82.739 Y126.183 E6.37958
G1 X81.718 Y119.735 E6.59672
G1 X81.623 Y119.073 E6.61896
G1 X81.529 Y118.139 E6.65018
G1 X81.515 Y117.202 E6.68135
G1 X81.621 Y115.96 E6.72281
G1 X81.759 Y115.001 E6.75503
G1 X82.776 Y108.591 E6.9709
G1 X82.892 Y107.918 E6.99361
G1 X83.09 Y107.001 E7.02481
G1 X83.366 Y106.105 E7.056
G1 X83.851 Y104.951 E7.09763
G1 X84.194 Y104.25 E7.12359
G1 X87.152 Y98.443 E7.34034
G1 X87.55 Y97.685 E7.36882
G1 X88.023 Y96.875 E7.40002
G1 X88.563 Y96.108 E7.43122
G1 X89.382 Y95.16 E7.47288
G1 X89.923 Y94.602 E7.49873
G0 F6000 X90.211 Y94.88
G1 F1200 X94.941 Y90.15 E7.72122
G1 X95.42 Y89.685 E7.74342
G1 X96.107 Y89.073 E7.77402
G1 X96.846 Y88.523 E7.80466
G1 X97.83 Y87.93 E7.84287
G1 X98.534 Y87.556 E7.86939
G1 X104.344 Y84.595 E8.08628
G1 X104.47 Y84.531 E8.09098
G1 X105.085 Y84.228 E8.11378
G1 X105.928 Y83.858 E8.1444
G1 X106.8 Y83.562 E8.17503
G1 X107.953 Y83.294 E8.2144
G1 X108.88 Y83.134 E8.24569
G1 X115.322 Y82.113 E8.46262
G1 X115.984 Y82.018 E8.48487
G1 X116.9 Y81.927 E8.51548
G1 X117.821 Y81.916 E8.54612
G1 X118.983 Y82.017 E8.58491
G1 X119.937 Y82.154 E8.61697
G1 X126.341 Y83.17 E8.83263
G1 X127.014 Y83.286 E8.85535
G1 X127.914 Y83.482 E8.88598
G1 X128.793 Y83.755 E8.91659
G1 X129.873 Y84.211 E8.95559
G1 X130.728 Y84.63 E8.98725
G1 X136.376 Y87.508 E9.19809
G1 X137.128 Y87.904 E9.22636
G1 X137.923 Y88.369 E9.25699
G1 X138.675 Y88.9 E9.28761
G1 X139.562 Y89.67 E9.32668
G1 X140.12 Y90.211 E9.35253
G1 X144.85 Y94.941 E9.57501
G1 X145.315 Y95.42 E9.59721
G1 X145.927 Y96.107 E9.62782
G1 X146.477 Y96.846 E9.65846
G1 X147.07 Y97.83 E9.69667
G1 X147.444 Y98.534 E9.72318
G1 X150.405 Y104.344 E9.94007
G1 X150.469 Y104.47 E9.94477
G1 X150.772 Y105.085 E9.96757
G1 X151.142 Y105.928 E9.99819
G1 X151.438 Y106.8 E10.02882
G1 X151.706 Y107.953 E10.06819
G1 X151.866 Y108.88 E10.09948
G1 X152.886 Y115.318 E10.31628
G1 X152.981 Y115.978 E10.33846
G1 X153.072 Y116.894 E10.36908
G1 X153.084 Y117.814 E10.39968
G1 X152.984 Y118.978 E10.43853
G1 X152.872 Y119.767 E10.46504
G1 X151.853 Y126.201 E10.6817
G1 X151.714 Y127.014 E10.70914
G1 X151.518 Y127.914 E10.73977
G1 X151.245 Y128.793 E10.77038
G1 X150.789 Y129.873 E10.80938
G1 X150.37 Y130.728 E10.84105
G1 X147.492 Y136.376 E11.05188
G1 X147.096 Y137.128 E11.08015
G1 X146.631 Y137.923 E11.11078
G1 X146.1 Y138.675 E11.1414
G1 X145.33 Y139.562 E11.18047
G1 X144.789 Y140.12 E11.20632
G1 X140.059 Y144.85 E11.4288
G1 X139.58 Y145.315 E11.45101
G1 X138.893 Y145.927 E11.48161
G1 X138.154 Y146.477 E11.51225
G1 X137.17 Y147.07 E11.55046
G1 X136.466 Y147.444 E11.57697
G1 X130.656 Y150.405 E11.79386
G1 X130.53 Y150.469 E11.79856
G1 X129.915 Y150.772 E11.82136
G1 X129.072 Y151.142 E11.85198
G1 X128.2 Y151.438 E11.88261
G1 X127.047 Y151.706 E11.92198
G1 X126.12 Y151.866 E11.95327
G1 X119.678 Y152.887 E12.17021
G1 X119.016 Y152.982 E12.19245
G1 X118.1 Y153.073 E12.22307
G1 X117.179 Y153.084 E12.2537
G1 X116.017 Y152.983 E12.2925
G1 X115.063 Y152.846 E12.32455
G1 X108.659 Y151.83 E12.54021
G1 X107.986 Y151.714 E12.56293
G1 X107.086 Y151.518 E12.59356
G1 X106.207 Y151.245 E12.62418
G1 X105.127 Y150.789 E12.66317
G1 X104.272 Y150.37 E12.69484
G1 X98.624 Y147.492 E12.90567
G1 X97.872 Y147.096 E12.93394
G1 X97.077 Y146.631 E12.96457
G1 X96.325 Y146.1 E12.99519
G1 X95.438 Y145.33 E13.03426
G1 X94.88 Y144.789 E13.06011
G1 X90.151 Y140.06 E13.28255
G1 X89.685 Y139.58 E13.3048
G1 X89.073 Y138.892 E13.33542
G1 X88.523 Y138.154 E13.36604
G1 X87.926 Y137.164 E13.40449
G1 X87.553 Y136.461 E13.43096
G1 X84.531 Y130.53 E13.65235
G1 X84.228 Y129.915 E13.67516
G1 X83.858 Y129.072 E13.70578
G1 X83.562 Y128.2 E13.73641
G1 X83.294 Y127.047 E13.77578
G1 X83.134 Y126.12 E13.80706
G1 X82.113 Y119.678 E14.024
G1 X82.018 Y119.016 E14.04624
G1 X81.927 Y118.1 E14.07686
G1 X81.916 Y117.179 E14.1075
G1 X82.017 Y116.017 E14.14629
G1 X82.154 Y115.063 E14.17835
G1 X83.17 Y108.659 E14.39401
G1 X83.286 Y107.986 E14.41672
G1 X83.482 Y107.086 E14.44736
G1 X83.755 Y106.207 E14.47797
G1 X84.211 Y105.127 E14.51696
G1 X84.63 Y104.272 E14.54863
G1 X87.508 Y98.624 E14.75947
G1 X87.904 Y97.872 E14.78773
G1 X88.369 Y97.077 E14.81837
G1 X88.9 Y96.325 E14.84899
G1 X89.67 Y95.438 E14.88805
G1 X90.211 Y94.88 E14.9139
G0 F6000 X90.498 Y95.159
G1 F1200 X95.219 Y90.437 E15.13599
G1 X95.698 Y89.972 E15.15819
G1 X96.373 Y89.373 E15.18821
G1 X97.099 Y88.835 E15.21826
G1 X98.018 Y88.283 E15.25392
G1 X98.877 Y87.828 E15.28625
G1 X104.647 Y84.89 E15.50161
G1 X105.262 Y84.587 E15.52441
G1 X106.089 Y84.224 E15.55445
G1 X106.945 Y83.936 E15.58449
G1 X108.021 Y83.688 E15.62121
G1 X108.943 Y83.529 E15.65233
G1 X115.379 Y82.509 E15.86906
G1 X116.041 Y82.414 E15.89131
G1 X116.94 Y82.326 E15.92135
G1 X117.843 Y82.317 E15.95139
G1 X118.927 Y82.413 E15.98758
G1 X119.874 Y82.549 E16.0194
G1 X126.274 Y83.564 E16.23493
G1 X126.947 Y83.68 E16.25764
G1 X127.829 Y83.873 E16.28767
G1 X128.691 Y84.143 E16.31772
G1 X129.697 Y84.57 E16.35406
G1 X130.546 Y84.987 E16.38553
G1 X136.321 Y87.931 E16.60112
G1 X136.941 Y88.258 E16.62443
G1 X137.721 Y88.714 E16.65449
G1 X138.457 Y89.238 E16.68454
G1 X139.283 Y89.957 E16.72096
G1 X139.841 Y90.498 E16.74681
G1 X144.563 Y95.219 E16.96889
G1 X145.028 Y95.698 E16.9911
G1 X145.627 Y96.373 E17.02111
G1 X146.165 Y97.099 E17.05117
G1 X146.717 Y98.018 E17.08682
G1 X147.172 Y98.877 E17.11915
G1 X150.11 Y104.647 E17.33451
G1 X150.413 Y105.262 E17.35731
G1 X150.776 Y106.089 E17.38735
G1 X151.064 Y106.945 E17.41739
G1 X151.312 Y108.021 E17.45412
G1 X151.471 Y108.943 E17.48524
G1 X152.49 Y115.375 E17.70183
G1 X152.585 Y116.035 E17.72401
G1 X152.674 Y116.934 E17.75406
G1 X152.683 Y117.837 E17.78409
G1 X152.588 Y118.922 E17.82032
G1 X152.476 Y119.711 E17.84683
G1 X151.436 Y126.274 E18.06784
G1 X151.32 Y126.947 E18.09055
G1 X151.127 Y127.829 E18.12058
G1 X150.857 Y128.691 E18.15062
G1 X150.43 Y129.697 E18.18697
G1 X150.013 Y130.546 E18.21843
G1 X147.069 Y136.321 E18.43403
G1 X146.742 Y136.941 E18.45734
G1 X146.286 Y137.721 E18.48739
G1 X145.762 Y138.457 E18.51744
G1 X145.043 Y139.283 E18.55387
G1 X144.502 Y139.841 E18.57972
G1 X139.781 Y144.563 E18.8018
G1 X139.302 Y145.028 E18.824
G1 X138.627 Y145.627 E18.85402
G1 X137.901 Y146.165 E18.88407
G1 X136.982 Y146.717 E18.91973
G1 X136.123 Y147.172 E18.95206
G1 X130.353 Y150.11 E19.16742
G1 X129.738 Y150.413 E19.19022
G1 X128.911 Y150.776 E19.22026
G1 X128.055 Y151.064 E19.2503
G1 X126.979 Y151.312 E19.28703
G1 X126.057 Y151.471 E19.31814
G1 X119.621 Y152.491 E19.53488
G1 X118.959 Y152.586 E19.55712
G1 X118.06 Y152.674 E19.58717
G1 X117.157 Y152.683 E19.6172
G1 X116.073 Y152.587 E19.6534
G1 X115.126 Y152.451 E19.68522
G1 X108.726 Y151.436 E19.90074
G1 X108.053 Y151.32 E19.92346
G1 X107.171 Y151.127 E19.95349
G1 X106.309 Y150.857 E19.98353
G1 X105.303 Y150.43 E20.01988
G1 X104.454 Y150.013 E20.05134
G1 X98.679 Y147.069 E20.26693
G1 X98.059 Y146.742 E20.29025
G1 X97.279 Y146.286 E20.3203
G1 X96.543 Y145.762 E20.35035
G1 X95.717 Y145.043 E20.38677
G1 X95.159 Y144.502 E20.41262
G1 X90.438 Y139.781 E20.63468
G1 X89.972 Y139.301 E20.65693
G1 X89.372 Y138.626 E20.68697
G1 X88.834 Y137.9 E20.71703
G1 X88.28 Y136.977 E20.75283
G1 X87.828 Y136.123 E20.78497
G1 X84.89 Y130.353 E21.00032
G1 X84.587 Y129.738 E21.02313
G1 X84.224 Y128.911 E21.05317
G1 X83.936 Y128.055 E21.08321
G1 X83.688 Y126.979 E21.11993
G1 X83.529 Y126.057 E21.15105
G1 X82.509 Y119.621 E21.36778
G1 X82.414 Y118.959 E21.39003
G1 X82.326 Y118.06 E21.42007
G1 X82.317 Y117.157 E21.45011
G1 X82.413 Y116.073 E21.4863
G1 X82.549 Y115.126 E21.51812
G1 X83.564 Y108.726 E21.73365
G1 X83.68 Y108.053 E21.75636
G1 X83.873 Y107.171 E21.78639
G1 X84.143 Y106.309 E21.81644
G1 X84.57 Y105.303 E21.85278
G1 X84.987 Y104.454 E21.88424
G1 X87.931 Y98.679 E22.09984
G1 X88.258 Y98.059 E22.12315
G1 X88.714 Y97.279 E22.1532
G1 X89.238 Y96.543 E22.18325
G1 X89.957 Y95.717 E22.21968
G1 X90.498 Y95.159 E22.24553
G1 F2700 E17.24553
;MESH:Pawnavi.stl
G0 F6000 X96.853 Y102.286
G0 X97.62 Y103.052
G0 X94.466 Y110.015
G0 X93.28 Y117.5
G0 X94.466 Y124.985
G0 X97.906 Y131.737
G0 X103.263 Y137.094
G0 X110.015 Y140.534
G0 X117.5 Y141.892
;TYPE:WALL-INNER
G1 F2700 E22.24553
G1 F1200 X109.961 Y140.698 E22.4994
G1 X103.162 Y137.234 E22.75319
G1 X97.766 Y131.838 E23.00701
G1 X94.302 Y125.039 E23.2608
G1 X93.108 Y117.5 E23.51467
G1 X94.302 Y109.961 E23.76855
G1 X97.766 Y103.162 E24.02234
G1 X103.162 Y97.766 E24.27615
G1 X109.961 Y94.302 E24.52995
G1 X117.5 Y93.108 E24.78382
G1 X125.039 Y94.302 E25.03769
G1 X131.838 Y97.766 E25.29149
G1 X137.234 Y103.162 E25.5453
G1 X140.698 Y109.961 E25.79909
G1 X141.892 Y117.5 E26.05297
G1 X140.698 Y125.039 E26.30684
G1 X137.234 Y131.838 E26.56063
G1 X131.838 Y137.234 E26.81444
G1 X125.039 Y140.698 E27.06824
G1 X117.5 Y141.892 E27.32211
G0 F6000 X117.5 Y142.297
;TYPE:WALL-OUTER
G1 F1200 X109.836 Y141.083 E27.5802
G1 X102.923 Y137.561 E27.83824
G1 X97.439 Y132.077 E28.09619
G1 X93.917 Y125.164 E28.35424
G1 X92.703 Y117.5 E28.61233
G1 X93.917 Y109.836 E28.87041
G1 X97.439 Y102.923 E29.12846
G1 X102.923 Y97.439 E29.38641
G1 X109.836 Y93.917 E29.64446
G1 X117.5 Y92.703 E29.90254
G1 X125.164 Y93.917 E30.16063
G1 X132.077 Y97.439 E30.41867
G1 X137.561 Y102.923 E30.67662
G1 X141.083 Y109.836 E30.93467
G1 X142.297 Y117.5 E31.19276
G1 X141.083 Y125.164 E31.45084
G1 X137.561 Y132.077 E31.70889
G1 X132.077 Y137.561 E31.96684
G1 X125.164 Y141.083 E32.22489
G1 X117.5 Y142.297 E32.48297
G0 F6000 X117.5 Y141.857
G0 X117.5 Y141.496
;TYPE:SKIN
G1 F1200 X110.079 Y140.321 E32.73287
G1 X103.393 Y136.915 E32.98244
G1 X98.085 Y131.607 E33.23211
G1 X94.679 Y124.921 E33.48168
G1 X93.504 Y117.5 E33.73158
G1 X94.679 Y110.079 E33.98148
G1 X98.085 Y103.393 E34.23105
G1 X103.393 Y98.085 E34.48072
G1 X110.079 Y94.679 E34.73029
G1 X117.5 Y93.504 E34.98019
G1 X124.921 Y94.679 E35.23008
G1 X131.607 Y98.085 E35.47965
G1 X136.915 Y103.393 E35.72933
G1 X140.321 Y110.079 E35.97889
G1 X141.496 Y117.5 E36.22879
G1 X140.321 Y124.921 E36.47869
G1 X136.915 Y131.607 E36.72826
G1 X131.607 Y136.915 E36.97793
G1 X124.921 Y140.321 E37.2275
G1 X117.5 Y141.496 E37.4774
G0 F6000 X117.456 Y141.773
G0 X110.015 Y140.534
G0 X104.277 Y137.678
G0 X104.477 Y137.286
G1 F1200 X97.711 Y130.521 E37.79563
G0 F6000 X97.319 Y130.719
G0 X96.731 Y129.565
G0 X97.123 Y129.367
G1 F1200 X105.631 Y137.875 E38.19582
G0 F6000 X105.431 Y138.266
G0 X106.584 Y138.854
G0 X106.784 Y138.462
G1 F1200 X96.535 Y128.214 E38.67788
G0 F6000 X96.144 Y128.412
G0 X95.556 Y127.259
G0 X95.948 Y127.06
G1 F1200 X107.937 Y139.05 E39.24183
G0 F6000 X107.737 Y139.441
G0 X108.891 Y140.029
G0 X109.091 Y139.638
G1 F1200 X95.36 Y125.907 E39.88769
G0 F6000 X94.969 Y126.105
G0 X94.387 Y124.87
G0 X94.821 Y124.802
G1 F1200 X110.195 Y140.176 E40.61084
G0 F6000 X110.867 Y140.282
G1 F1200 X94.715 Y124.131 E41.37055
G0 F6000 X94.609 Y123.459
G1 F1200 X111.539 Y140.388 E42.16687
G0 F6000 X112.211 Y140.495
G1 F1200 X94.502 Y122.786 E42.99984
G0 F6000 X94.396 Y122.115
G1 F1200 X112.883 Y140.601 E43.86939
G0 F6000 X113.554 Y140.707
G1 F1200 X94.29 Y121.443 E44.77551
G0 F6000 X94.183 Y120.771
G1 F1200 X114.227 Y140.814 E45.71829
G0 F6000 X114.899 Y140.92
G1 F1200 X94.077 Y120.099 E46.69767
G0 F6000 X93.971 Y119.427
G1 F1200 X115.57 Y141.026 E47.71362
G0 F6000 X116.242 Y141.132
G1 F1200 X93.865 Y118.755 E48.76617
G0 F6000 X93.758 Y118.083
G1 F1200 X116.915 Y141.239 E49.85538
G0 F6000 X117.562 Y141.321
G1 F1200 X93.676 Y117.435 E50.97891
G0 F6000 X93.753 Y116.946
G1 F1200 X118.051 Y141.244 E52.12181
G0 F6000 X118.54 Y141.167
G1 F1200 X93.83 Y116.458 E53.28407
G0 F6000 X93.908 Y115.969
G1 F1200 X119.028 Y141.09 E54.46566
G0 F6000 X119.516 Y141.012
G1 F1200 X93.985 Y115.481 E55.66656
G0 F6000 X94.062 Y114.993
G1 F1200 X120.005 Y140.935 E56.88681
G0 F6000 X120.493 Y140.858
G1 F1200 X94.139 Y114.504 E58.12643
G0 F6000 X94.217 Y114.016
G1 F1200 X120.982 Y140.781 E59.38537
G0 F6000 X121.47 Y140.703
G1 F1200 X94.294 Y113.528 E60.66362
G0 F6000 X94.371 Y113.039
G1 F1200 X121.958 Y140.626 E61.96123
G0 F6000 X122.447 Y140.549
G1 F1200 X94.448 Y112.55 E63.27822
G0 F6000 X94.526 Y112.062
G1 F1200 X122.936 Y140.472 E64.61454
G0 F6000 X123.424 Y140.394
G1 F1200 X94.603 Y111.574 E65.97016
G0 F6000 X94.68 Y111.085
G1 F1200 X123.912 Y140.317 E67.34515
G0 F6000 X124.401 Y140.24
