;FLAVOR:Marlin
;TIME:8866
;Filament used: 4.83436m
;Layer height: 0.2
;MINX:60.497
;MINY:52.209
;MINZ:0.2
;MAXX:173.488
;MAXY:171.252
;MAXZ:12
;Generated with Cura_SteamEngine 4.13.1
M140 S60
M105
M190 S60
M104 S200
M105
M109 S200
M82 ;absolute extrusion mode
; Ender 3 Custom Start G-code
G92 E0 ; Reset Extruder
G28 ; Home all axes
G1 Z2.0 F3000 ; Move Z Axis up little to prevent scratching of Heat Bed
G1 X0.1 Y20 Z0.3 F5000.0 ; Move to start position
G1 X0.1 Y200.0 Z0.3 F1500.0 E15 ; Draw the first line
G1 X0.4 Y200.0 Z0.3 F5000.0 ; Move to side a little
G1 X0.4 Y20 Z0.3 F1500.0 E30 ; Draw the second line
G92 E0 ; Reset Extruder
G1 Z2.0 F3000 ; Move Z Axis up little to prevent scratching of Heat Bed
G1 X5 Y20 Z0.3 F5000.0 ; Move over to prevent blob squish
G92 E0
G92 E0
G1 F2700 E-5
;LAYER_COUNT:60
;LAYER:0
M107
G0 F6000 X69.775 Y75.775 Z0.2
;TYPE:SKIRT
G1 F2700 E0
G1 F1200 X70.097 Y75.487 E0.01437
G1 X70.332 Y75.285 E0.02468
G1 X70.841 Y74.873 E0.04646
G1 X71.669 Y74.243 E0.08106
G1 X71.954 Y74.033 E0.09283
G1 X72.342 Y73.757 E0.10867
G1 X72.88 Y73.398 E0.13018
G1 X73.177 Y73.212 E0.14184
G1 X73.436 Y73.055 E0.15191
G1 X73.875 Y72.798 E0.16883
G1 X74.359 Y72.523 E0.18735
G1 X74.967 Y72.202 E0.21021
G1 X75.856 Y71.768 E0.24312
G1 X76.223 Y71.597 E0.25658
G1 X76.541 Y71.456 E0.26815
G1 X77.139 Y71.212 E0.28964
G1 X78.214 Y70.809 E0.32782
G1 X78.658 Y70.65 E0.34351
G1 X81.058 Y69.769 E0.42854
G1 X83.429 Y68.82 E0.51348
G1 X85.704 Y67.835 E0.59594
G1 X88.029 Y66.748 E0.6813
G1 X89.594 Y65.972 E0.7394
G1 X90.7 Y65.41 E0.78066
G1 X92.743 Y64.393 E0.85657
G1 X94.96 Y63.211 E0.94013
G1 X97.136 Y61.969 E1.02346
G1 X99.289 Y60.658 E1.1073
G1 X101.392 Y59.295 E1.19065
G1 X103.491 Y57.848 E1.27545
G1 X105.477 Y56.397 E1.35726
G1 X106.714 Y55.426 E1.40956
G1 X106.866 Y55.317 E1.41578
G1 X107.896 Y54.52 E1.4591
G1 X108.661 Y53.978 E1.49028
G1 X109.47 Y53.504 E1.52147
G1 X110.317 Y53.1 E1.55268
G1 X111.194 Y52.769 E1.58385
G1 X112.097 Y52.515 E1.61505
G1 X113.018 Y52.338 E1.64625
G1 X114.261 Y52.226 E1.68776
G1 X114.644 Y52.216 E1.7005
G1 X115.189 Y52.21 E1.71863
G1 X119.666 Y52.209 E1.86753
G1 X120.536 Y52.22 E1.89647
G1 X121.472 Y52.273 E1.92765
G1 X122.401 Y52.406 E1.95887
G1 X123.315 Y52.617 E1.99007
G1 X124.207 Y52.905 E2.02124
G1 X125.072 Y53.269 E2.05246
G1 X125.902 Y53.704 E2.08362
G1 X126.693 Y54.209 E2.11484
G1 X127.172 Y54.565 E2.13469
G1 X128.183 Y55.358 E2.17742
G1 X130.223 Y56.91 E2.26268
G1 X132.294 Y58.393 E2.3474
G1 X134.348 Y59.781 E2.42985
G1 X136.511 Y61.152 E2.51503
G1 X138.648 Y62.425 E2.59776
G1 X140.831 Y63.642 E2.68089
G1 X144.161 Y65.351 E2.80538
G1 X145.199 Y65.859 E2.84381
G1 X146.773 Y66.655 E2.90248
G1 X149.029 Y67.716 E2.9854
G1 X151.34 Y68.725 E3.06927
G1 X153.693 Y69.675 E3.15367
G1 X156.35 Y70.654 E3.24785
G1 X157.025 Y70.893 E3.27166
G1 X157.494 Y71.065 E3.28828
G1 X158.143 Y71.326 E3.31154
G1 X159.062 Y71.731 E3.34495
G1 X159.378 Y71.876 E3.35651
G1 X159.687 Y72.024 E3.36791
G1 X160.331 Y72.359 E3.39205
G1 X161.269 Y72.887 E3.42785
G1 X161.592 Y73.077 E3.44032
G1 X161.868 Y73.245 E3.45106
G1 X162.449 Y73.624 E3.47413
G1 X163.262 Y74.192 E3.50712
G1 X163.555 Y74.404 E3.51915
G1 X163.969 Y74.714 E3.53635
G1 X164.476 Y75.117 E3.55789
G1 X164.747 Y75.346 E3.56969
G1 X164.963 Y75.534 E3.57922
G1 X165.344 Y75.875 E3.59622
G1 X165.734 Y76.234 E3.61385
G1 X166.212 Y76.702 E3.6361
G1 X166.916 Y77.434 E3.66988
G1 X167.188 Y77.726 E3.68316
G1 X167.391 Y77.953 E3.69328
G1 X167.826 Y78.472 E3.71581
G1 X168.496 Y79.321 E3.75178
G1 X168.739 Y79.641 E3.76514
G1 X169.006 Y80.006 E3.78018
G1 X169.341 Y80.489 E3.79974
G1 X169.54 Y80.794 E3.81185
G1 X169.732 Y81.1 E3.82386
G1 X169.924 Y81.417 E3.83619
G1 X170.303 Y82.058 E3.86096
G1 X170.6 Y82.595 E3.88137
G1 X170.77 Y82.923 E3.89366
G1 X170.904 Y83.191 E3.90362
G1 X171.114 Y83.627 E3.91972
G1 X171.416 Y84.281 E3.94368
G1 X171.663 Y84.859 E3.96458
G1 X171.812 Y85.237 E3.9781
G1 X171.956 Y85.624 E3.99183
G1 X172.208 Y86.341 E4.01711
G1 X172.432 Y87.056 E4.04203
G1 X172.716 Y88.083 E4.07747
G1 X172.812 Y88.455 E4.09025
G1 X172.918 Y88.898 E4.1054
G1 X173.043 Y89.493 E4.12562
G1 X173.112 Y89.873 E4.13846
G1 X173.168 Y90.212 E4.14989
G1 X173.226 Y90.605 E4.1631
G1 X173.321 Y91.298 E4.18637
G1 X173.387 Y91.908 E4.20678
G1 X173.414 Y92.243 E4.21796
G1 X173.437 Y92.583 E4.22929
G1 X173.46 Y93.073 E4.2456
G1 X173.484 Y93.772 E4.26887
G1 X173.488 Y94.356 E4.28829
G1 X173.482 Y94.675 E4.2989
G1 X173.469 Y95.036 E4.31092
G1 X173.445 Y95.497 E4.32627
G1 X173.401 Y96.187 E4.34927
G1 X173.342 Y96.817 E4.37031
G1 X173.299 Y97.17 E4.38214
G1 X173.254 Y97.498 E4.39315
G1 X173.189 Y97.923 E4.40745
G1 X173.074 Y98.616 E4.43082
G1 X172.954 Y99.228 E4.45156
G1 X172.686 Y100.419 E4.49216
G1 X172.158 Y102.936 E4.5777
G1 X171.714 Y105.398 E4.66091
G1 X171.33 Y107.928 E4.74602
G1 X171.029 Y110.391 E4.82855
G1 X170.791 Y112.928 E4.9133
G1 X170.627 Y115.418 E4.9963
G1 X170.534 Y117.915 E5.07941
G1 X170.511 Y120.468 E5.16432
G1 X170.56 Y122.991 E5.24825
G1 X170.679 Y125.474 E5.33093
G1 X170.872 Y128.004 E5.41533
G1 X171.13 Y130.469 E5.49776
G1 X171.469 Y133.013 E5.58312
G1 X171.947 Y135.92 E5.68111
G1 X172.095 Y136.738 E5.70876
G1 X172.15 Y137.069 E5.71992
G1 X172.211 Y137.482 E5.7338
G1 X172.306 Y138.175 E5.75707
G1 X172.372 Y138.785 E5.77747
G1 X172.399 Y139.12 E5.78865
G1 X172.421 Y139.458 E5.79992
G1 X172.445 Y139.949 E5.81627
G1 X172.469 Y140.649 E5.83956
G1 X172.473 Y141.232 E5.85895
G1 X172.467 Y141.552 E5.8696
G1 X172.454 Y141.914 E5.88165
G1 X172.43 Y142.375 E5.897
G1 X172.386 Y143.065 E5.92
G1 X172.327 Y143.699 E5.94118
G1 X172.284 Y144.051 E5.95297
G1 X172.242 Y144.358 E5.96328
G1 X172.182 Y144.75 E5.97647
G1 X172.06 Y145.485 E6.00125
G1 X171.942 Y146.088 E6.02168
G1 X171.858 Y146.463 E6.03446
G1 X171.781 Y146.786 E6.04551
G1 X171.668 Y147.222 E6.06049
G1 X171.495 Y147.863 E6.08257
G1 X171.32 Y148.447 E6.10285
G1 X171.211 Y148.777 E6.11441
G1 X171.099 Y149.099 E6.12575
G1 X170.962 Y149.472 E6.13896
G1 X170.699 Y150.167 E6.16368
G1 X170.431 Y150.813 E6.18694
G1 X170.267 Y151.175 E6.20016
G1 X170.045 Y151.643 E6.21739
G1 X169.681 Y152.378 E6.24467
G1 X169.381 Y152.94 E6.26586
G1 X169.19 Y153.274 E6.27865
G1 X169.025 Y153.552 E6.28941
G1 X168.817 Y153.89 E6.30261
G1 X168.433 Y154.501 E6.32661
G1 X168.075 Y155.036 E6.34802
G1 X167.866 Y155.329 E6.35999
G1 X167.683 Y155.578 E6.37027
G1 X167.396 Y155.956 E6.38605
G1 X167.107 Y156.328 E6.40172
G1 X166.656 Y156.872 E6.42522
G1 X165.953 Y157.666 E6.46049
G1 X165.684 Y157.958 E6.4737
G1 X165.466 Y158.187 E6.48422
G1 X164.984 Y158.664 E6.50677
G1 X164.214 Y159.379 E6.54172
G1 X163.922 Y159.64 E6.55474
G1 X163.686 Y159.844 E6.56512
G1 X163.16 Y160.271 E6.58765
G1 X162.307 Y160.921 E6.62332
G1 X162.015 Y161.136 E6.63538
G1 X161.783 Y161.301 E6.64485
G1 X161.172 Y161.706 E6.66923
G1 X160.27 Y162.261 E6.70446
G1 X159.96 Y162.445 E6.71645
G1 X159.685 Y162.602 E6.72698
G1 X159.061 Y162.932 E6.75046
G1 X158.126 Y163.389 E6.78507
G1 X157.784 Y163.549 E6.79763
G1 X157.473 Y163.688 E6.80896
G1 X156.848 Y163.944 E6.83142
G1 X155.795 Y164.339 E6.86883
G1 X155.342 Y164.501 E6.88483
G1 X152.956 Y165.378 E6.96938
G1 X150.579 Y166.328 E7.05452
G1 X148.27 Y167.328 E7.13821
G1 X145.994 Y168.39 E7.22175
G1 X144.625 Y169.067 E7.27254
G1 X143.633 Y169.568 E7.30951
G1 X143.192 Y169.778 E7.32575
G1 X143.021 Y169.855 E7.33199
G1 X142.394 Y170.114 E7.35455
G1 X141.812 Y170.334 E7.37525
G1 X140.666 Y170.698 E7.41524
G1 X140.332 Y170.784 E7.42671
G1 X139.386 Y170.983 E7.45886
G1 X138.77 Y171.085 E7.47963
G1 X137.808 Y171.201 E7.51186
G1 X137.624 Y171.215 E7.518
G1 X137.115 Y171.242 E7.53495
G1 X136.778 Y171.252 E7.54616
G1 X135.947 Y171.245 E7.5738
G1 X135.664 Y171.232 E7.58323
G1 X134.758 Y171.153 E7.61347
G1 X134.039 Y171.06 E7.63759
G1 X133.503 Y170.977 E7.65563
G1 X131.017 Y170.53 E7.73964
G1 X128.5 Y170.15 E7.8243
G1 X126.015 Y169.848 E7.90756
G1 X123.522 Y169.615 E7.99084
G1 X121.006 Y169.452 E8.0747
G1 X118.485 Y169.36 E8.1586
G1 X115.962 Y169.339 E8.24252
G1 X113.43 Y169.39 E8.32675
G1 X110.958 Y169.509 E8.40907
G1 X108.423 Y169.704 E8.49363
G1 X105.894 Y169.97 E8.57821
G1 X103.448 Y170.299 E8.6603
G1 X100.92 Y170.71 E8.74548
G1 X100.46 Y170.798 E8.76106
G1 X100.231 Y170.839 E8.7688
G1 X98.8 Y171.08 E8.81706
G1 X97.808 Y171.201 E8.8503
G1 X97.624 Y171.215 E8.85644
G1 X97.115 Y171.242 E8.87339
G1 X96.778 Y171.252 E8.88461
G1 X95.947 Y171.245 E8.91225
G1 X95.664 Y171.232 E8.92167
G1 X94.783 Y171.156 E8.95108
G1 X94.216 Y171.084 E8.97009
G1 X93.098 Y170.883 E9.00787
G1 X92.512 Y170.746 E9.02789
G1 X91.36 Y170.41 E9.0678
G1 X91.062 Y170.305 E9.07831
G1 X90.207 Y169.962 E9.10895
G1 X89.611 Y169.694 E9.13068
G1 X89.271 Y169.535 E9.14317
G1 X88.385 Y169.098 E9.17603
G1 X87.434 Y168.614 E9.21152
G1 X85.129 Y167.522 E9.29635
G1 X82.863 Y166.526 E9.37868
G1 X80.487 Y165.558 E9.46401
G1 X77.633 Y164.504 E9.5652
G1 X77.02 Y164.286 E9.58684
G1 X76.491 Y164.092 E9.60558
G1 X75.842 Y163.831 E9.62885
G1 X74.923 Y163.426 E9.66225
G1 X74.586 Y163.271 E9.67459
G1 X74.26 Y163.114 E9.68662
G1 X73.645 Y162.793 E9.70969
G1 X72.755 Y162.293 E9.74365
G1 X72.445 Y162.112 E9.75559
G1 X72.156 Y161.937 E9.76682
G1 X71.556 Y161.547 E9.79062
G1 X70.704 Y160.952 E9.82519
G1 X70.402 Y160.733 E9.8376
G1 X70.158 Y160.55 E9.84774
G1 X69.616 Y160.116 E9.87083
G1 X68.816 Y159.433 E9.90582
G1 X68.534 Y159.184 E9.91833
G1 X68.288 Y158.959 E9.92942
G1 X67.775 Y158.459 E9.95325
G1 X67.061 Y157.715 E9.98754
G1 X66.834 Y157.471 E9.99863
G1 X66.629 Y157.244 E10.0088
G1 X66.154 Y156.68 E10.03333
G1 X65.484 Y155.83 E10.06933
G1 X65.245 Y155.516 E10.08245
G1 X64.967 Y155.136 E10.09811
G1 X64.624 Y154.639 E10.11819
G1 X64.436 Y154.35 E10.12966
G1 X64.244 Y154.043 E10.14171
G1 X64.058 Y153.735 E10.15367
G1 X63.678 Y153.093 E10.17849
G1 X63.355 Y152.508 E10.20071
G1 X63.192 Y152.19 E10.2126
G1 X63.067 Y151.938 E10.22195
G1 X62.857 Y151.498 E10.23817
G1 X62.568 Y150.872 E10.2611
G1 X62.329 Y150.314 E10.28129
G1 X62.199 Y149.986 E10.29303
G1 X62.093 Y149.707 E10.30295
G1 X61.93 Y149.257 E10.31887
G1 X61.702 Y148.6 E10.342
G1 X61.516 Y148.012 E10.36251
G1 X61.425 Y147.693 E10.37355
G1 X61.342 Y147.385 E10.38416
G1 X61.229 Y146.934 E10.39962
G1 X61.07 Y146.269 E10.42236
G1 X60.954 Y145.725 E10.44086
G1 X60.889 Y145.376 E10.45267
G1 X60.828 Y145.015 E10.46485
G1 X60.754 Y144.518 E10.48156
G1 X60.663 Y143.85 E10.50398
G1 X60.598 Y143.249 E10.52409
G1 X60.571 Y142.914 E10.53527
G1 X60.548 Y142.559 E10.5471
G1 X60.524 Y142.055 E10.56388
G1 X60.501 Y141.386 E10.58614
G1 X60.497 Y140.802 E10.60557
G1 X60.503 Y140.482 E10.61621
G1 X60.516 Y140.12 E10.62826
G1 X60.54 Y139.658 E10.64365
G1 X60.584 Y138.969 E10.66661
G1 X60.643 Y138.34 E10.68762
G1 X60.686 Y137.987 E10.69945
G1 X60.731 Y137.659 E10.71046
G1 X60.799 Y137.219 E10.72527
G1 X60.916 Y136.52 E10.74884
G1 X61.034 Y135.92 E10.76918
G1 X61.293 Y134.768 E10.80845
G1 X61.825 Y132.235 E10.89454
G1 X62.278 Y129.734 E10.97908
G1 X62.65 Y127.259 E11.06232
G1 X62.955 Y124.772 E11.14566
G1 X63.195 Y122.223 E11.23081
G1 X63.358 Y119.745 E11.31341
G1 X63.45 Y117.258 E11.39619
G1 X63.474 Y114.695 E11.48143
G1 X63.425 Y112.175 E11.56527
G1 X63.305 Y109.68 E11.64835
G1 X63.115 Y107.167 E11.73217
G1 X62.853 Y104.665 E11.81584
G1 X62.525 Y102.207 E11.89832
G1 X62.036 Y99.228 E11.99873
G1 X61.886 Y98.397 E12.02681
G1 X61.832 Y98.068 E12.0379
G1 X61.772 Y97.663 E12.05152
G1 X61.676 Y96.957 E12.07522
G1 X61.612 Y96.36 E12.09519
G1 X61.586 Y96.038 E12.10593
G1 X61.563 Y95.684 E12.11773
G1 X61.539 Y95.178 E12.13458
G1 X61.516 Y94.508 E12.15687
G1 X61.512 Y93.925 E12.17627
G1 X61.518 Y93.605 E12.18691
G1 X61.531 Y93.243 E12.19896
G1 X61.555 Y92.782 E12.21431
G1 X61.599 Y92.092 E12.23731
G1 X61.658 Y91.458 E12.25849
G1 X61.701 Y91.106 E12.27028
G1 X61.746 Y90.783 E12.28113
G1 X61.82 Y90.301 E12.29735
G1 X61.932 Y89.635 E12.31981
G1 X62.053 Y89.022 E12.34059
G1 X62.135 Y88.661 E12.3529
G1 X62.202 Y88.384 E12.36238
G1 X62.326 Y87.904 E12.37887
G1 X62.494 Y87.282 E12.4003
G1 X62.671 Y86.691 E12.42082
G1 X62.777 Y86.371 E12.43203
G1 X62.882 Y86.068 E12.4427
G1 X63.047 Y85.619 E12.45861
G1 X63.31 Y84.931 E12.48311
G1 X63.564 Y84.323 E12.50502
G1 X63.717 Y83.985 E12.51736
G1 X63.822 Y83.76 E12.52562
G1 X64.014 Y83.363 E12.54029
G1 X64.311 Y82.767 E12.56244
G1 X64.605 Y82.215 E12.58324
G1 X64.793 Y81.886 E12.59584
G1 X64.96 Y81.605 E12.60671
G1 X65.168 Y81.267 E12.61991
G1 X65.552 Y80.656 E12.64391
G1 X65.91 Y80.121 E12.66533
G1 X66.119 Y79.828 E12.6773
G1 X66.307 Y79.572 E12.68786
G1 X66.607 Y79.177 E12.70436
G1 X66.879 Y78.827 E12.7191
G1 X67.332 Y78.282 E12.74267
G1 X68.048 Y77.474 E12.77858
G1 X68.332 Y77.166 E12.79251
G1 X68.53 Y76.959 E12.80204
G1 X68.987 Y76.508 E12.8234
G1 X69.775 Y75.775 E12.85919
G0 F6000 X70.047 Y76.068
G1 F1200 X70.357 Y75.791 E12.87302
G1 X70.592 Y75.589 E12.88332
G1 X71.083 Y75.191 E12.90435
G1 X71.911 Y74.561 E12.93895
G1 X72.186 Y74.359 E12.9503
G1 X72.574 Y74.083 E12.96614
G1 X73.092 Y73.737 E12.98686
G1 X73.389 Y73.551 E12.99851
G1 X73.639 Y73.399 E13.00824
G1 X74.073 Y73.146 E13.02495
G1 X74.557 Y72.871 E13.04347
G1 X75.143 Y72.561 E13.06552
G1 X76.032 Y72.127 E13.09842
G1 X76.385 Y71.963 E13.11136
G1 X76.703 Y71.822 E13.12293
G1 X77.279 Y71.587 E13.14363
G1 X78.556 Y71.11 E13.18897
G1 X78.781 Y71.031 E13.1969
G1 X81.239 Y70.128 E13.28399
G1 X83.558 Y69.201 E13.36706
G1 X85.896 Y68.188 E13.4518
G1 X88.198 Y67.112 E13.53632
G1 X89.703 Y66.365 E13.5922
G1 X90.878 Y65.768 E13.63604
G1 X92.931 Y64.746 E13.71232
G1 X95.14 Y63.568 E13.79558
G1 X97.336 Y62.314 E13.87969
G1 X99.51 Y60.992 E13.96432
G1 X101.64 Y59.611 E14.04875
G1 X103.708 Y58.185 E14.1323
G1 X105.725 Y56.711 E14.21539
G1 X106.961 Y55.741 E14.26764
G1 X107.101 Y55.641 E14.27337
G1 X108.141 Y54.836 E14.31711
G1 X108.892 Y54.305 E14.3477
G1 X109.688 Y53.841 E14.37835
G1 X110.52 Y53.448 E14.40895
G1 X111.384 Y53.128 E14.43959
G1 X112.271 Y52.885 E14.47018
G1 X113.177 Y52.72 E14.50081
G1 X114.274 Y52.626 E14.53743
G1 X114.649 Y52.616 E14.54991
G1 X115.189 Y52.61 E14.56787
G1 X119.666 Y52.609 E14.71678
G1 X120.53 Y52.62 E14.74552
G1 X121.45 Y52.673 E14.77617
G1 X122.361 Y52.805 E14.80678
G1 X123.257 Y53.016 E14.8374
G1 X124.131 Y53.304 E14.86801
G1 X124.977 Y53.667 E14.89862
G1 X125.789 Y54.102 E14.92926
G1 X126.925 Y54.88 E14.97506
G1 X127.903 Y55.647 E15.0164
G1 X130.016 Y57.254 E15.10469
G1 X132.035 Y58.7 E15.18729
G1 X134.14 Y60.123 E15.2718
G1 X136.287 Y61.484 E15.35635
G1 X138.454 Y62.774 E15.44023
G1 X140.655 Y64.002 E15.52405
G1 X143.982 Y65.709 E15.64843
G1 X145.019 Y66.216 E15.68682
G1 X146.601 Y67.016 E15.74578
G1 X148.848 Y68.073 E15.82837
G1 X151.197 Y69.098 E15.91361
G1 X153.553 Y70.05 E15.99813
G1 X156.265 Y71.049 E16.09426
G1 X156.888 Y71.268 E16.11622
G1 X157.357 Y71.44 E16.13284
G1 X157.982 Y71.692 E16.15525
G1 X158.901 Y72.097 E16.18865
G1 X159.205 Y72.237 E16.19978
G1 X159.514 Y72.385 E16.21118
G1 X160.135 Y72.708 E16.23446
G1 X161.073 Y73.236 E16.27026
G1 X161.384 Y73.418 E16.28225
G1 X161.66 Y73.586 E16.29299
G1 X162.22 Y73.952 E16.31524
G1 X163.033 Y74.52 E16.34823
G1 X163.315 Y74.724 E16.35981
G1 X163.729 Y75.034 E16.37701
G1 X164.218 Y75.423 E16.39779
G1 X164.489 Y75.652 E16.40959
G1 X164.697 Y75.833 E16.41876
G1 X165.073 Y76.169 E16.43553
G1 X165.463 Y76.528 E16.45317
G1 X165.924 Y76.979 E16.47462
G1 X166.628 Y77.711 E16.50839
G1 X166.889 Y77.993 E16.52117
G1 X167.092 Y78.22 E16.5313
G1 X167.512 Y78.719 E16.553
G1 X168.182 Y79.568 E16.58897
G1 X168.416 Y79.877 E16.60186
G1 X168.683 Y80.242 E16.6169
G1 X169.006 Y80.708 E16.63576
G1 X169.205 Y81.013 E16.64787
G1 X169.39 Y81.307 E16.65943
G1 X169.579 Y81.621 E16.67161
G1 X169.958 Y82.262 E16.69638
G1 X170.245 Y82.779 E16.71605
G1 X170.415 Y83.107 E16.72834
G1 X170.544 Y83.365 E16.73793
G1 X170.751 Y83.795 E16.7538
G1 X171.053 Y84.449 E16.77776
G1 X171.291 Y85.006 E16.79791
G1 X171.44 Y85.384 E16.81142
G1 X171.578 Y85.756 E16.82462
G1 X171.83 Y86.473 E16.8499
G1 X172.047 Y87.163 E16.87396
G1 X172.331 Y88.19 E16.9094
G1 X172.423 Y88.548 E16.92169
G1 X172.529 Y88.991 E16.93684
G1 X172.649 Y89.564 E16.95631
