;FLAVOR:Marlin
;TIME:4337
;Filament used: 2.236m
;Layer height: 0.2
;MINX:60.417
;MINY:69.346
;MINZ:0.2
;MAXX:152.9
;MAXY:157.9
;MAXZ:13
;Generated with Cura_SteamEngine 4.13.1
M140 S60
M105
M190 S60
M104 S200
M105
M109 S200
M82 ;absolute extrusion mode
; Ender 3 Custom Start G-code
G92 E0 ; Reset Extruder
G28 ; Home all axes
G1 Z2.0 F3000 ; Move Z Axis up little to prevent scratching of Heat Bed
G1 X0.1 Y20 Z0.3 F5000.0 ; Move to start position
G1 X0.1 Y200.0 Z0.3 F1500.0 E15 ; Draw the first line
G1 X0.4 Y200.0 Z0.3 F5000.0 ; Move to side a little
G1 X0.4 Y20 Z0.3 F1500.0 E30 ; Draw the second line
G92 E0 ; Reset Extruder
G1 Z2.0 F3000 ; Move Z Axis up little to prevent scratching of Heat Bed
G1 X5 Y20 Z0.3 F5000.0 ; Move over to prevent blob squish
G92 E0
G92 E0
G1 F2700 E-5
;LAYER_COUNT:65
;LAYER:0
M107
G0 F6000 X65.824 Y96.732 Z0.2
;TYPE:SKIRT
G1 F2700 E0
G1 F1200 X66.532 Y96.285 E0.02785
G1 X66.762 Y96.152 E0.03669
G1 X67.717 Y95.661 E0.0724
G1 X67.816 Y95.616 E0.07602
G1 X68.361 Y95.386 E0.09569
G1 X69.462 Y94.956 E0.13501
G1 X69.689 Y94.858 E0.14323
G1 X70.663 Y94.48 E0.17798
G1 X73 Y93.495 E0.26233
G1 X75.285 Y92.457 E0.3458
G1 X77.543 Y91.353 E0.4294
G1 X79.765 Y90.185 E0.51289
G1 X81.972 Y88.947 E0.59706
G1 X84.124 Y87.658 E0.68049
G1 X86.25 Y86.3 E0.7644
G1 X88.335 Y84.884 E0.84823
G1 X90.375 Y83.414 E0.93186
G1 X92.368 Y81.889 E1.01532
G1 X94.34 Y80.29 E1.09976
G1 X96.224 Y78.672 E1.18236
G1 X97.97 Y77.089 E1.26075
G1 X98.385 Y76.703 E1.2796
G1 X98.692 Y76.428 E1.29331
G1 X99.104 Y76.072 E1.31142
G1 X99.392 Y75.832 E1.32389
G1 X99.903 Y75.42 E1.34572
G1 X100.223 Y75.171 E1.35921
G1 X100.658 Y74.846 E1.37727
G1 X100.984 Y74.612 E1.39061
G1 X101.581 Y74.199 E1.41476
G1 X101.886 Y73.995 E1.42696
G1 X102.405 Y73.661 E1.44749
G1 X102.754 Y73.445 E1.46114
G1 X103.205 Y73.178 E1.47857
G1 X103.529 Y72.994 E1.49097
G1 X104.112 Y72.675 E1.51307
G1 X104.465 Y72.49 E1.52633
G1 X105.006 Y72.219 E1.54645
G1 X105.372 Y72.044 E1.55994
G1 X106.004 Y71.756 E1.58304
G1 X106.381 Y71.593 E1.5967
G1 X106.911 Y71.375 E1.61576
G1 X107.235 Y71.248 E1.62734
G1 X107.79 Y71.04 E1.64705
G1 X108.197 Y70.896 E1.66141
G1 X108.823 Y70.689 E1.68334
G1 X109.176 Y70.579 E1.69564
G1 X109.731 Y70.416 E1.71488
G1 X110.125 Y70.308 E1.72847
G1 X110.854 Y70.123 E1.75348
G1 X111.204 Y70.04 E1.76545
G1 X111.619 Y69.949 E1.77958
G1 X112.025 Y69.868 E1.79335
G1 X112.719 Y69.743 E1.8168
G1 X113.113 Y69.68 E1.83007
G1 X113.841 Y69.576 E1.85453
G1 X114.225 Y69.528 E1.8674
G1 X114.645 Y69.483 E1.88145
G1 X115.038 Y69.448 E1.89457
G1 X115.77 Y69.396 E1.91898
G1 X116.153 Y69.375 E1.93174
G1 X116.763 Y69.353 E1.95204
G1 X117.159 Y69.346 E1.96521
G1 X117.774 Y69.346 E1.98567
G1 X118.16 Y69.353 E1.99851
G1 X118.73 Y69.373 E2.01748
G1 X119.149 Y69.395 E2.03143
G1 X119.926 Y69.452 E2.05735
G1 X120.287 Y69.485 E2.0694
G1 X120.728 Y69.532 E2.08415
G1 X121.134 Y69.583 E2.09776
G1 X121.785 Y69.677 E2.11964
G1 X122.166 Y69.739 E2.13248
G1 X122.859 Y69.864 E2.1559
G1 X123.241 Y69.94 E2.16886
G1 X123.752 Y70.051 E2.18625
G1 X124.151 Y70.145 E2.19988
G1 X124.829 Y70.319 E2.22316
G1 X125.19 Y70.418 E2.23561
G1 X125.705 Y70.569 E2.25346
G1 X126.089 Y70.689 E2.26684
G1 X126.746 Y70.908 E2.28988
G1 X127.114 Y71.039 E2.30287
G1 X127.69 Y71.254 E2.32332
G1 X128.067 Y71.402 E2.33679
G1 X128.608 Y71.627 E2.35628
G1 X128.951 Y71.777 E2.36873
G1 X129.536 Y72.044 E2.39012
G1 X129.881 Y72.208 E2.40282
G1 X130.398 Y72.466 E2.42204
G1 X130.756 Y72.653 E2.43547
G1 X131.379 Y72.993 E2.45908
G1 X131.754 Y73.208 E2.47346
G1 X132.224 Y73.489 E2.49167
G1 X132.517 Y73.67 E2.50313
G1 X133.041 Y74.006 E2.52383
G1 X133.391 Y74.241 E2.53785
G1 X133.968 Y74.643 E2.56124
G1 X134.28 Y74.868 E2.57403
G1 X134.664 Y75.156 E2.59
G1 X134.966 Y75.391 E2.60273
G1 X135.553 Y75.864 E2.6278
G1 X135.873 Y76.131 E2.64166
G1 X136.274 Y76.48 E2.65934
G1 X136.533 Y76.714 E2.67095
G1 X137.031 Y77.176 E2.69355
G1 X137.349 Y77.483 E2.70825
G1 X137.724 Y77.86 E2.72593
G1 X137.963 Y78.108 E2.73739
G1 X138.474 Y78.655 E2.76228
G1 X138.773 Y78.988 E2.77717
G1 X139.119 Y79.39 E2.79481
G1 X139.341 Y79.657 E2.80636
G1 X139.768 Y80.186 E2.82897
G1 X140.016 Y80.505 E2.84241
G1 X140.34 Y80.938 E2.8604
G1 X140.571 Y81.258 E2.87352
G1 X140.963 Y81.823 E2.8964
G1 X141.18 Y82.147 E2.90937
G1 X142.012 Y83.442 E2.96056
G1 X142.348 Y83.988 E2.98188
G1 X143.732 Y86.11 E3.06615
G1 X145.175 Y88.188 E3.15029
G1 X146.657 Y90.201 E3.23343
G1 X148.2 Y92.177 E3.31682
G1 X149.998 Y94.343 E3.41045
G1 X150.221 Y94.605 E3.42189
G1 X150.797 Y95.345 E3.45308
G1 X151.309 Y96.131 E3.48428
G1 X151.752 Y96.957 E3.51545
G1 X152.123 Y97.819 E3.54667
G1 X152.419 Y98.709 E3.57786
G1 X152.639 Y99.62 E3.60903
G1 X152.78 Y100.548 E3.64025
G1 X152.839 Y101.397 E3.66856
G1 X152.849 Y101.722 E3.67937
G1 X152.854 Y102.06 E3.69062
G1 X152.853 Y103.581 E3.7412
G1 X152.843 Y104.278 E3.76439
G1 X152.791 Y105.194 E3.7949
G1 X152.66 Y106.53 E3.83955
G1 X152.44 Y109.116 E3.92587
G1 X152.297 Y111.656 E4.01049
G1 X152.226 Y114.181 E4.0945
G1 X152.226 Y116.705 E4.17845
G1 X152.298 Y119.201 E4.2615
G1 X152.439 Y121.703 E4.34485
G1 X152.657 Y124.251 E4.42991
G1 X152.793 Y125.526 E4.47256
G1 X152.817 Y125.733 E4.47949
G1 X152.885 Y126.667 E4.51064
G1 X152.895 Y126.997 E4.52162
G1 X152.9 Y127.33 E4.53269
G1 X152.899 Y128.849 E4.58322
G1 X152.889 Y129.553 E4.60663
G1 X152.836 Y130.49 E4.63785
G1 X152.703 Y131.418 E4.66903
G1 X152.491 Y132.332 E4.70024
G1 X152.203 Y133.224 E4.73141
G1 X151.839 Y134.089 E4.76262
G1 X151.403 Y134.919 E4.79381
G1 X150.898 Y135.709 E4.82499
G1 X150.54 Y136.193 E4.84502
G1 X150.305 Y136.492 E4.85766
G1 X148.755 Y138.529 E4.9428
G1 X147.275 Y140.592 E5.02725
G1 X145.886 Y142.649 E5.1098
G1 X144.528 Y144.789 E5.1941
G1 X143.23 Y146.966 E5.2784
G1 X142.01 Y149.152 E5.36166
G1 X141.365 Y150.39 E5.40809
G1 X140.877 Y151.298 E5.44238
G1 X140.376 Y152.14 E5.47496
G1 X140.218 Y152.38 E5.48452
G1 X139.669 Y153.14 E5.5157
G1 X138.915 Y154.001 E5.55377
G1 X138.736 Y154.185 E5.56231
G1 X137.817 Y155.029 E5.60381
G1 X137.696 Y155.128 E5.60901
G1 X136.945 Y155.69 E5.64021
G1 X136.197 Y156.159 E5.66957
G1 X135.97 Y156.289 E5.67827
G1 X135.137 Y156.72 E5.70947
G1 X134.168 Y157.115 E5.74427
G1 X133.902 Y157.209 E5.75365
G1 X133.005 Y157.484 E5.78486
G1 X132.472 Y157.608 E5.80306
G1 X132.26 Y157.652 E5.81026
G1 X130.88 Y157.849 E5.85662
G1 X130.803 Y157.855 E5.85919
G1 X130.261 Y157.884 E5.87725
G1 X129.84 Y157.896 E5.89125
G1 X129.527 Y157.9 E5.90167
G1 X112.069 Y157.899 E6.48232
G1 X111.758 Y157.896 E6.49267
G1 X111.399 Y157.887 E6.50461
G1 X110.667 Y157.856 E6.52898
G1 X110.237 Y157.83 E6.54331
G1 X109.71 Y157.787 E6.56089
G1 X108.791 Y157.672 E6.5917
G1 X108.492 Y157.622 E6.60178
G1 X108.101 Y157.55 E6.615
G1 X107.446 Y157.416 E6.63724
G1 X106.563 Y157.197 E6.6675
G1 X106.016 Y157.037 E6.68645
G1 X105.191 Y156.76 E6.7154
G1 X104.81 Y156.615 E6.72896
G1 X104.387 Y156.443 E6.74415
G1 X104 Y156.277 E6.75815
G1 X103.616 Y156.104 E6.77216
G1 X103.296 Y155.952 E6.78394
G1 X102.886 Y155.747 E6.79919
G1 X102.647 Y155.621 E6.80817
G1 X102.253 Y155.402 E6.82317
G1 X101.931 Y155.215 E6.83555
G1 X101.566 Y154.994 E6.84974
G1 X101.17 Y154.743 E6.86534
G1 X100.431 Y154.231 E6.89524
G1 X99.937 Y153.858 E6.91583
G1 X99.259 Y153.302 E6.94499
G1 X98.999 Y153.071 E6.95656
G1 X98.673 Y152.769 E6.97134
G1 X98.317 Y152.426 E6.98778
G1 X98.098 Y152.21 E6.99801
G1 X96.29 Y150.368 E7.08386
G1 X94.5 Y148.646 E7.16647
G1 X92.621 Y146.936 E7.25097
G1 X90.72 Y145.304 E7.3343
G1 X88.76 Y143.714 E7.41825
G1 X86.765 Y142.189 E7.50177
G1 X84.721 Y140.714 E7.5856
G1 X82.652 Y139.308 E7.6688
G1 X80.501 Y137.935 E7.75368
G1 X78.37 Y136.657 E7.83632
G1 X76.154 Y135.412 E7.92086
G1 X73.968 Y134.265 E8.00297
G1 X71.659 Y133.135 E8.08847
G1 X69.359 Y132.089 E8.17251
G1 X67.865 Y131.449 E8.22657
G1 X67.019 Y131.043 E8.25778
G1 X66.124 Y130.51 E8.29243
G1 X65.917 Y130.373 E8.30068
G1 X65.158 Y129.822 E8.33188
G1 X64.377 Y129.142 E8.36632
G1 X64.137 Y128.912 E8.37738
G1 X63.488 Y128.235 E8.40857
G1 X62.786 Y127.348 E8.44619
G1 X62.67 Y127.185 E8.45285
G1 X62.159 Y126.398 E8.48406
G1 X61.778 Y125.695 E8.51065
G1 X61.652 Y125.441 E8.52008
G1 X61.271 Y124.584 E8.55127
G1 X61.053 Y123.98 E8.57263
G1 X61.013 Y123.858 E8.5769
G1 X60.76 Y122.955 E8.60809
G1 X60.601 Y122.149 E8.63542
G1 X60.555 Y121.858 E8.64522
G1 X60.448 Y120.926 E8.67642
G1 X60.423 Y120.377 E8.6947
G1 X60.417 Y120.099 E8.70395
G1 X60.432 Y119.226 E8.73299
G1 X60.462 Y118.7 E8.75051
G1 X60.575 Y116.105 E8.8369
G1 X60.614 Y113.581 E8.92086
G1 X60.581 Y111.087 E9.00382
G1 X60.46 Y108.254 E9.09813
G1 X60.427 Y107.681 E9.11722
G1 X60.421 Y106.53 E9.1555
G1 X60.431 Y106.318 E9.16256
G1 X60.515 Y105.384 E9.19375
G1 X60.666 Y104.519 E9.22296
G1 X60.719 Y104.273 E9.23133
G1 X60.955 Y103.366 E9.2625
G1 X61.228 Y102.584 E9.29005
G1 X61.307 Y102.382 E9.29726
G1 X61.876 Y101.154 E9.34228
G1 X61.909 Y101.093 E9.34458
G1 X62.39 Y100.288 E9.37577
G1 X62.545 Y100.052 E9.38516
G1 X63.093 Y99.291 E9.41635
G1 X63.854 Y98.421 E9.4548
G1 X64.033 Y98.237 E9.46334
G1 X64.952 Y97.393 E9.50484
G1 X65.073 Y97.294 E9.51004
G1 X65.824 Y96.732 E9.54123
G0 F6000 X66.064 Y97.053
G1 F1200 X66.733 Y96.632 E9.56752
G1 X66.963 Y96.499 E9.57636
G1 X67.883 Y96.025 E9.61078
G1 X67.982 Y95.98 E9.6144
G1 X68.507 Y95.758 E9.63336
G1 X69.724 Y95.282 E9.67682
G1 X69.834 Y95.231 E9.68085
G1 X70.827 Y94.845 E9.71629
G1 X73.129 Y93.876 E9.79936
G1 X75.461 Y92.816 E9.88456
G1 X77.726 Y91.708 E9.96843
G1 X79.971 Y90.529 E10.05277
G1 X82.168 Y89.296 E10.13656
G1 X84.349 Y87.989 E10.22113
G1 X86.46 Y86.642 E10.30442
G1 X88.548 Y85.224 E10.38836
G1 X90.606 Y83.74 E10.47275
G1 X92.622 Y82.198 E10.55717
G1 X94.585 Y80.606 E10.64123
G1 X96.539 Y78.928 E10.7269
G1 X98.229 Y77.396 E10.80277
G1 X98.658 Y76.996 E10.82227
G1 X98.954 Y76.73 E10.83551
G1 X99.366 Y76.374 E10.85362
G1 X99.643 Y76.143 E10.86562
G1 X100.154 Y75.731 E10.88745
G1 X100.463 Y75.491 E10.90046
G1 X100.898 Y75.166 E10.91852
G1 X101.211 Y74.941 E10.93134
G1 X101.808 Y74.528 E10.95549
G1 X102.103 Y74.331 E10.96729
G1 X102.622 Y73.997 E10.98781
G1 X102.958 Y73.79 E11.00094
G1 X103.409 Y73.523 E11.01837
G1 X103.721 Y73.345 E11.03032
G1 X104.304 Y73.026 E11.05242
G1 X104.645 Y72.848 E11.06522
G1 X105.186 Y72.577 E11.08534
G1 X105.537 Y72.408 E11.0983
G1 X106.169 Y72.12 E11.1214
G1 X106.533 Y71.963 E11.13458
G1 X107.063 Y71.745 E11.15364
G1 X107.375 Y71.622 E11.1648
G1 X107.93 Y71.414 E11.18451
G1 X108.322 Y71.276 E11.19833
G1 X108.948 Y71.069 E11.22026
G1 X109.289 Y70.963 E11.23214
G1 X109.844 Y70.8 E11.25138
G1 X110.224 Y70.696 E11.26448
G1 X110.953 Y70.511 E11.2895
G1 X111.29 Y70.431 E11.30102
G1 X111.705 Y70.34 E11.31515
G1 X112.096 Y70.262 E11.32841
G1 X112.79 Y70.137 E11.35187
G1 X113.17 Y70.076 E11.36467
G1 X113.898 Y69.972 E11.38912
G1 X114.268 Y69.925 E11.40153
G1 X114.688 Y69.88 E11.41558
G1 X115.066 Y69.847 E11.4282
G1 X115.798 Y69.795 E11.45261
G1 X116.167 Y69.775 E11.4649
G1 X116.777 Y69.753 E11.4852
G1 X117.159 Y69.746 E11.49791
G1 X117.774 Y69.746 E11.51836
G1 X118.146 Y69.753 E11.53074
G1 X118.716 Y69.773 E11.54971
G1 X119.12 Y69.794 E11.56316
G1 X119.897 Y69.851 E11.58908
G1 X120.244 Y69.883 E11.60067
G1 X120.685 Y69.93 E11.61542
G1 X121.077 Y69.979 E11.62856
G1 X121.728 Y70.073 E11.65043
G1 X122.095 Y70.132 E11.6628
G1 X122.788 Y70.257 E11.68622
G1 X123.156 Y70.331 E11.6987
G1 X123.667 Y70.442 E11.71609
G1 X124.052 Y70.533 E11.72925
G1 X124.73 Y70.707 E11.75253
G1 X125.077 Y70.802 E11.7645
G1 X125.592 Y70.953 E11.78235
G1 X125.962 Y71.069 E11.79525
G1 X126.619 Y71.288 E11.81828
G1 X126.974 Y71.413 E11.8308
G1 X127.55 Y71.628 E11.85125
G1 X127.913 Y71.772 E11.86424
G1 X128.454 Y71.997 E11.88372
G1 X128.785 Y72.141 E11.89573
G1 X129.37 Y72.408 E11.91712
G1 X129.702 Y72.566 E11.92935
G1 X130.219 Y72.824 E11.94856
G1 X130.564 Y73.004 E11.96151
G1 X131.187 Y73.344 E11.98511
G1 X131.548 Y73.551 E11.99895
G1 X132.018 Y73.832 E12.01717
G1 X132.301 Y74.007 E12.02823
G1 X132.825 Y74.343 E12.04894
G1 X133.162 Y74.569 E12.06243
G1 X133.739 Y74.971 E12.08582
G1 X134.04 Y75.188 E12.09816
G1 X134.424 Y75.476 E12.11413
G1 X134.715 Y75.702 E12.12638
G1 X135.302 Y76.175 E12.15146
G1 X135.61 Y76.433 E12.16482
G1 X136.011 Y76.782 E12.1825
G1 X136.261 Y77.007 E12.19369
G1 X136.759 Y77.469 E12.21628
G1 X137.065 Y77.765 E12.23044
G1 X137.44 Y78.142 E12.24813
G1 X137.671 Y78.381 E12.25918
G1 X138.182 Y78.928 E12.28408
G1 X138.47 Y79.249 E12.29842
G1 X138.816 Y79.651 E12.31606
G1 X139.03 Y79.908 E12.32719
G1 X139.457 Y80.437 E12.3498
G1 X139.696 Y80.744 E12.36274
G1 X140.02 Y81.177 E12.38073
G1 X140.242 Y81.486 E12.39338
G1 X140.634 Y82.051 E12.41625
G1 X140.843 Y82.363 E12.42874
G1 X141.675 Y83.658 E12.47994
G1 X141.801 Y83.859 E12.48783
G1 X142.025 Y84.225 E12.5021
G1 X143.401 Y86.335 E12.58588
G1 X144.839 Y88.408 E12.6698
G1 X146.335 Y90.439 E12.7537
G1 X147.906 Y92.449 E12.83855
G1 X149.726 Y94.641 E12.93331
G1 X149.916 Y94.865 E12.94308
G1 X150.482 Y95.591 E12.97369
G1 X150.982 Y96.364 E13.00431
G1 X151.414 Y97.177 E13.03493
G1 X151.773 Y98.024 E13.06553
G1 X152.058 Y98.9 E13.09617
G1 X152.265 Y99.797 E13.12679
G1 X152.394 Y100.709 E13.15742
G1 X152.439 Y101.409 E13.18075
G1 X152.449 Y101.734 E13.19157
G1 X152.454 Y102.06 E13.20241
G1 X152.453 Y103.575 E13.2528
G1 X152.443 Y104.272 E13.27599
G1 X152.393 Y105.155 E13.3054
G1 X152.266 Y106.446 E13.34855
G1 X152.038 Y109.128 E13.43807
G1 X151.897 Y111.623 E13.52119
G1 X151.826 Y114.17 E13.60594
G1 X151.826 Y116.682 E13.68949
G1 X151.899 Y119.233 E13.77437
G1 X152.042 Y121.76 E13.85855
G1 X152.258 Y124.279 E13.94264
G1 X152.419 Y125.779 E13.99282
G1 X152.485 Y126.679 E14.02283
G1 X152.495 Y127.009 E14.03381
G1 X152.5 Y127.33 E14.04449
G1 X152.499 Y128.844 E14.09485
G1 X152.489 Y129.548 E14.11826
G1 X152.436 Y130.467 E14.14888
G1 X152.303 Y131.378 E14.1795
G1 X152.092 Y132.274 E14.21012
G1 X151.804 Y133.148 E14.24073
G1 X151.441 Y133.994 E14.27134
G1 X151.006 Y134.806 E14.30198
G1 X150.502 Y135.576 E14.33259
G1 X150.225 Y135.946 E14.34796
G1 X150.003 Y136.228 E14.3599
G1 X148.432 Y138.293 E14.4462
G1 X146.946 Y140.364 E14.53098
G1 X145.549 Y142.432 E14.61398
G1 X144.189 Y144.575 E14.6984
G1 X142.88 Y146.772 E14.78346
G1 X141.67 Y148.939 E14.86601
G1 X141.013 Y150.201 E14.91333
G1 X140.525 Y151.109 E14.94762
G1 X140.042 Y151.92 E14.97901
G1 X139.884 Y152.16 E14.98857
G1 X139.344 Y152.906 E15.0192
G1 X138.628 Y153.722 E15.05531
G1 X138.449 Y153.906 E15.06385
G1 X137.563 Y154.719 E15.10384
G1 X137.442 Y154.818 E15.10904
G1 X136.705 Y155.369 E15.13965
G1 X135.998 Y155.812 E15.1674
G1 X135.771 Y155.942 E15.1761
G1 X134.953 Y156.365 E15.20673
G1 X134.035 Y156.738 E15.23968
G1 X133.769 Y156.832 E15.24907
G1 X132.888 Y157.101 E15.2797
G1 X132.391 Y157.217 E15.29668
G1 X132.179 Y157.261 E15.30388
G1 X130.848 Y157.45 E15.34859
G1 X130.771 Y157.456 E15.35116
G1 X130.25 Y157.484 E15.36852
G1 X129.829 Y157.496 E15.38252
G1 X129.527 Y157.5 E15.39257
G1 X112.073 Y157.5 E15.97309
G1 X111.762 Y157.497 E15.98344
G1 X111.415 Y157.488 E15.99498
G1 X110.683 Y157.457 E16.01935
G1 X110.27 Y157.431 E16.03311
G1 X109.743 Y157.388 E16.0507
G1 X108.857 Y157.278 E16.08039
G1 X108.558 Y157.228 E16.09048
G1 X108.181 Y157.158 E16.10323
G1 X107.526 Y157.024 E16.12547
G1 X106.675 Y156.813 E16.15463
G1 X106.128 Y156.653 E16.17358
G1 X105.334 Y156.386 E16.20145
G1 X104.953 Y156.241 E16.21501
G1 X104.544 Y156.076 E16.22967
G1 X104.157 Y155.91 E16.24368
G1 X103.788 Y155.743 E16.25715
G1 X103.468 Y155.591 E16.26893
G1 X103.073 Y155.393 E16.28363
G1 X102.834 Y155.267 E16.29262
G1 X102.454 Y155.056 E16.30707
G1 X102.132 Y154.869 E16.31946
G1 X101.78 Y154.656 E16.33314
G1 X101.384 Y154.405 E16.34874
G1 X100.672 Y153.911 E16.37756
G1 X100.178 Y153.538 E16.39815
G1 X99.525 Y153.003 E16.42622
G1 X99.265 Y152.772 E16.43779
G1 X98.95 Y152.481 E16.45206
G1 X98.594 Y152.138 E16.4685
G1 X98.384 Y151.93 E16.47833
G1 X96.588 Y150.1 E16.56361
G1 X94.764 Y148.345 E16.6478
G1 X92.904 Y146.653 E16.73143
G1 X90.952 Y144.977 E16.817
G1 X89.006 Y143.398 E16.90035
G1 X87.02 Y141.88 E16.98349
G1 X84.951 Y140.387 E17.06835
