;FLAVOR:Marlin
;TIME:4230
;Filament used: 2.67638m
;Layer height: 0.2
;MINX:87.642
;MINY:86.029
;MINZ:0.2
;MAXX:171.946
;MAXY:162.489
;MAXZ:14
;Generated with Cura_SteamEngine 4.13.1
M140 S60
M105
M190 S60
M104 S200
M105
M109 S200
M82 ;absolute extrusion mode
; Ender 3 Custom Start G-code
G92 E0 ; Reset Extruder
G28 ; Home all axes
G1 Z2.0 F3000 ; Move Z Axis up little to prevent scratching of Heat Bed
G1 X0.1 Y20 Z0.3 F5000.0 ; Move to start position
G1 X0.1 Y200.0 Z0.3 F1500.0 E15 ; Draw the first line
G1 X0.4 Y200.0 Z0.3 F5000.0 ; Move to side a little
G1 X0.4 Y20 Z0.3 F1500.0 E30 ; Draw the second line
G92 E0 ; Reset Extruder
G1 Z2.0 F3000 ; Move Z Axis up little to prevent scratching of Heat Bed
G1 X5 Y20 Z0.3 F5000.0 ; Move over to prevent blob squish
G92 E0
G92 E0
G1 F2700 E-5
;LAYER_COUNT:70
;LAYER:0
M107
G0 F6000 X94.648 Y89.18 Z0.2
;TYPE:SKIRT
G1 F2700 E0
G1 F1200 X95.346 Y88.554 E0.03118
G1 X96.095 Y87.989 E0.06239
G1 X96.89 Y87.491 E0.09359
G1 X97.724 Y87.062 E0.12478
G1 X98.592 Y86.706 E0.15599
G1 X99.486 Y86.425 E0.18716
G1 X100.402 Y86.221 E0.21837
G1 X100.925 Y86.14 E0.23597
G1 X101.111 Y86.116 E0.24221
G1 X102.046 Y86.036 E0.27342
G1 X102.984 Y86.036 E0.30462
G1 X103.892 Y86.112 E0.33493
G1 X104.346 Y86.17 E0.35015
G1 X106.403 Y86.458 E0.41923
G1 X108.89 Y86.734 E0.50246
G1 X111.419 Y86.943 E0.58686
G1 X113.938 Y87.079 E0.67076
G1 X116.426 Y87.144 E0.75354
G1 X118.95 Y87.137 E0.83749
G1 X121.484 Y87.059 E0.92181
G1 X123.982 Y86.913 E1.00504
G1 X126.476 Y86.694 E1.08831
G1 X130.045 Y86.259 E1.20789
G1 X130.958 Y86.131 E1.23856
G1 X131.891 Y86.04 E1.26973
G1 X132.829 Y86.029 E1.30093
G1 X133.764 Y86.098 E1.33212
G1 X134.556 Y86.22 E1.35877
G1 X134.739 Y86.255 E1.36497
G1 X135.652 Y86.47 E1.39616
G1 X136.543 Y86.762 E1.42735
G1 X137.406 Y87.13 E1.45855
G1 X138.235 Y87.569 E1.48975
G1 X139.023 Y88.077 E1.52094
G1 X139.765 Y88.651 E1.55214
G1 X140.456 Y89.285 E1.58333
G1 X141.09 Y89.977 E1.61454
G1 X141.677 Y90.74 E1.64656
G1 X141.969 Y91.156 E1.66347
G1 X143.501 Y93.283 E1.75065
G1 X145.037 Y95.295 E1.83484
G1 X146.602 Y97.226 E1.91751
G1 X148.244 Y99.138 E2.00134
G1 X149.963 Y101.032 E2.08641
G1 X151.662 Y102.799 E2.16794
G1 X152.361 Y103.479 E2.20038
G1 X152.562 Y103.692 E2.21012
G1 X153.385 Y104.508 E2.24866
G1 X154.245 Y105.466 E2.29148
G1 X154.773 Y106.129 E2.31967
G1 X154.973 Y106.389 E2.33058
G1 X155.283 Y106.803 E2.34778
G1 X156.014 Y107.913 E2.39199
G1 X156.532 Y108.814 E2.42656
G1 X156.63 Y108.988 E2.4332
G1 X167.964 Y129.557 E3.21431
G1 X168.306 Y130.2 E3.23854
G1 X168.697 Y131.014 E3.26857
G1 X169.015 Y131.754 E3.29536
G1 X170.478 Y135.288 E3.42257
G1 X170.726 Y135.909 E3.44482
G1 X171.036 Y136.794 E3.476
G1 X171.27 Y137.703 E3.50722
G1 X171.389 Y138.364 E3.52956
G1 X171.553 Y139.472 E3.56682
G1 X171.79 Y141.284 E3.6276
G1 X171.876 Y142.018 E3.65218
G1 X171.946 Y142.953 E3.68336
G1 X171.935 Y143.891 E3.71456
G1 X171.807 Y145.074 E3.75414
G1 X171.763 Y145.343 E3.7632
G1 X171.696 Y145.712 E3.77568
G1 X171.303 Y147.682 E3.84249
G1 X171.158 Y148.356 E3.86542
G1 X170.922 Y149.263 E3.89659
G1 X170.609 Y150.147 E3.92778
G1 X170.094 Y151.248 E3.96821
G1 X169.993 Y151.436 E3.97531
G1 X169.844 Y151.704 E3.98551
G1 X169.607 Y152.118 E4.00137
G1 X167.05 Y156.521 E4.17072
G1 X166.7 Y157.107 E4.19342
G1 X166.185 Y157.891 E4.22462
G1 X165.605 Y158.629 E4.25584
G1 X164.965 Y159.314 E4.28702
G1 X164.268 Y159.942 E4.31823
G1 X163.521 Y160.509 E4.34942
G1 X162.728 Y161.009 E4.3806
G1 X161.895 Y161.441 E4.41181
G1 X161.029 Y161.8 E4.44299
G1 X160.135 Y162.084 E4.47419
G1 X159.22 Y162.29 E4.50538
G1 X158.656 Y162.378 E4.52437
G1 X158.469 Y162.402 E4.53064
G1 X157.535 Y162.481 E4.56181
G1 X156.597 Y162.481 E4.59301
G1 X155.692 Y162.404 E4.62322
G1 X155.224 Y162.345 E4.63891
G1 X153.161 Y162.057 E4.70819
G1 X150.682 Y161.782 E4.79115
G1 X148.153 Y161.573 E4.87555
G1 X145.632 Y161.437 E4.95952
G1 X143.151 Y161.373 E5.04207
G1 X140.622 Y161.38 E5.12618
G1 X138.101 Y161.457 E5.21007
G1 X135.58 Y161.606 E5.29407
G1 X133.119 Y161.822 E5.37623
G1 X129.42 Y162.274 E5.50018
G1 X128.635 Y162.385 E5.52655
G1 X127.702 Y162.477 E5.55773
G1 X126.764 Y162.489 E5.58893
G1 X125.829 Y162.421 E5.62011
G1 X124.912 Y162.276 E5.65099
G1 X124.734 Y162.24 E5.65703
G1 X123.824 Y162.015 E5.68821
G1 X122.936 Y161.713 E5.7194
G1 X122.077 Y161.337 E5.75059
G1 X121.253 Y160.889 E5.78179
G1 X120.47 Y160.372 E5.81299
G1 X119.734 Y159.791 E5.84418
G1 X119.05 Y159.149 E5.87538
G1 X118.424 Y158.451 E5.90657
G1 X117.905 Y157.769 E5.93507
G1 X117.601 Y157.335 E5.95269
G1 X116.08 Y155.223 E6.03926
G1 X114.571 Y153.248 E6.12193
G1 X112.965 Y151.266 E6.20678
G1 X111.337 Y149.369 E6.28992
G1 X109.642 Y147.502 E6.37379
G1 X107.92 Y145.712 E6.4564
G1 X107.227 Y145.037 E6.48858
G1 X107.057 Y144.857 E6.49681
G1 X106.185 Y143.991 E6.53769
G1 X105.332 Y143.04 E6.58018
G1 X104.834 Y142.415 E6.60676
G1 X104.62 Y142.137 E6.61843
G1 X104.294 Y141.7 E6.63656
G1 X103.581 Y140.616 E6.67971
G1 X103.06 Y139.712 E6.71442
G1 X102.956 Y139.528 E6.72145
G1 X91.623 Y118.96 E7.50251
G1 X91.281 Y118.317 E7.52674
G1 X90.894 Y117.512 E7.55644
G1 X90.576 Y116.772 E7.58323
G1 X89.102 Y113.207 E7.71154
G1 X88.857 Y112.591 E7.73359
G1 X88.548 Y111.706 E7.76477
G1 X88.315 Y110.797 E7.79598
G1 X88.2 Y110.16 E7.81751
G1 X88.066 Y109.268 E7.84751
G1 X88.038 Y109.068 E7.85423
G1 X87.798 Y107.233 E7.91578
G1 X87.712 Y106.499 E7.94036
G1 X87.642 Y105.564 E7.97154
G1 X87.662 Y104.472 E8.00787
G1 X87.792 Y103.369 E8.04481
G1 X87.87 Y102.917 E8.06007
G1 X87.921 Y102.649 E8.06914
G1 X88.28 Y100.855 E8.12999
G1 X88.427 Y100.169 E8.15333
G1 X88.663 Y99.261 E8.18453
G1 X88.975 Y98.377 E8.21571
G1 X89.472 Y97.307 E8.25495
G1 X89.555 Y97.151 E8.26083
G1 X89.723 Y96.848 E8.27235
G1 X89.98 Y96.4 E8.28953
G1 X92.562 Y91.953 E8.46056
G1 X92.906 Y91.381 E8.48276
G1 X93.424 Y90.598 E8.51398
G1 X94.006 Y89.863 E8.54517
G1 X94.648 Y89.18 E8.57634
G0 F6000 X94.964 Y89.431
G1 F1200 X95.653 Y88.82 E8.60697
G1 X96.392 Y88.271 E8.63759
G1 X97.176 Y87.789 E8.6682
G1 X97.999 Y87.376 E8.69883
G1 X98.855 Y87.037 E8.72945
G1 X99.737 Y86.773 E8.76007
G1 X100.977 Y86.537 E8.80205
G1 X101.163 Y86.513 E8.80829
G1 X102.08 Y86.435 E8.8389
G1 X103 Y86.437 E8.8695
G1 X103.842 Y86.509 E8.89761
G1 X104.29 Y86.566 E8.91263
G1 X106.37 Y86.857 E8.98248
G1 X108.849 Y87.132 E9.06544
G1 X111.4 Y87.343 E9.15058
G1 X113.905 Y87.479 E9.23402
G1 X116.417 Y87.544 E9.31759
G1 X118.963 Y87.537 E9.40228
G1 X121.483 Y87.46 E9.48613
G1 X124.042 Y87.309 E9.57139
G1 X126.498 Y87.094 E9.65339
G1 X130.092 Y86.657 E9.77381
G1 X131.013 Y86.527 E9.80474
G1 X131.93 Y86.439 E9.83538
G1 X132.85 Y86.43 E9.86598
G1 X133.768 Y86.501 E9.89661
G1 X134.481 Y86.613 E9.92061
G1 X134.664 Y86.648 E9.92681
G1 X135.56 Y86.86 E9.95743
G1 X136.434 Y87.149 E9.98805
G1 X137.28 Y87.513 E10.01868
G1 X138.091 Y87.948 E10.04929
G1 X138.861 Y88.453 E10.07992
G1 X139.585 Y89.022 E10.11055
G1 X140.256 Y89.652 E10.14116
G1 X140.87 Y90.338 E10.17178
G1 X141.349 Y90.969 E10.19813
G1 X141.664 Y91.418 E10.21637
G1 X143.174 Y93.515 E10.30232
G1 X144.708 Y95.522 E10.38634
G1 X146.304 Y97.493 E10.47069
G1 X147.963 Y99.425 E10.55539
G1 X149.644 Y101.277 E10.63858
G1 X151.393 Y103.095 E10.72248
G1 X152.082 Y103.766 E10.75447
G1 X152.261 Y103.956 E10.76315
G1 X153.104 Y104.792 E10.80264
G1 X153.932 Y105.716 E10.84391
G1 X154.46 Y106.379 E10.8721
G1 X154.653 Y106.629 E10.8826
G1 X154.963 Y107.043 E10.8998
G1 X155.668 Y108.113 E10.94242
G1 X156.186 Y109.014 E10.97699
G1 X156.28 Y109.181 E10.98336
G1 X167.611 Y129.744 E11.76425
G1 X167.953 Y130.387 E11.78848
G1 X168.329 Y131.172 E11.81743
G1 X168.645 Y131.908 E11.84407
G1 X170.106 Y135.437 E11.9711
G1 X170.354 Y136.058 E11.99334
G1 X170.658 Y136.927 E12.02396
G1 X170.885 Y137.819 E12.05458
G1 X170.994 Y138.423 E12.07499
G1 X171.157 Y139.524 E12.11201
G1 X171.393 Y141.33 E12.17259
G1 X171.479 Y142.064 E12.19717
G1 X171.546 Y142.983 E12.22782
G1 X171.534 Y143.903 E12.25842
G1 X171.412 Y145.009 E12.29543
G1 X171.368 Y145.278 E12.30449
G1 X171.304 Y145.634 E12.31652
G1 X170.946 Y147.435 E12.3776
G1 X170.767 Y148.271 E12.40603
G1 X170.534 Y149.162 E12.43666
G1 X170.225 Y150.029 E12.46728
G1 X169.742 Y151.059 E12.50511
G1 X169.641 Y151.247 E12.51221
G1 X169.497 Y151.505 E12.52204
G1 X169.261 Y151.917 E12.53783
G1 X166.774 Y156.202 E12.70262
G1 X166.356 Y156.902 E12.72973
G1 X165.85 Y157.672 E12.76038
G1 X165.28 Y158.394 E12.79097
G1 X164.648 Y159.064 E12.82161
G1 X163.961 Y159.677 E12.85223
G1 X163.224 Y160.228 E12.88284
G1 X162.441 Y160.712 E12.91345
G1 X161.619 Y161.127 E12.94408
G1 X160.764 Y161.47 E12.97472
G1 X159.883 Y161.736 E13.00533
G1 X158.605 Y161.981 E13.04861
G1 X158.418 Y162.005 E13.05488
G1 X157.501 Y162.082 E13.08549
G1 X156.58 Y162.08 E13.11612
G1 X155.742 Y162.008 E13.14409
G1 X155.28 Y161.948 E13.15959
G1 X153.228 Y161.662 E13.2285
G1 X150.723 Y161.384 E13.31233
G1 X148.172 Y161.173 E13.39746
G1 X145.699 Y161.039 E13.47984
G1 X143.125 Y160.973 E13.56548
G1 X140.61 Y160.98 E13.64913
G1 X138.064 Y161.058 E13.73385
G1 X135.593 Y161.204 E13.81618
G1 X133.063 Y161.426 E13.90065
G1 X129.371 Y161.877 E14.02436
G1 X128.579 Y161.989 E14.05096
G1 X127.663 Y162.079 E14.08157
G1 X126.742 Y162.088 E14.11221
G1 X125.824 Y162.018 E14.14283
G1 X124.992 Y161.884 E14.17086
G1 X124.814 Y161.848 E14.1769
G1 X123.92 Y161.626 E14.20754
G1 X123.049 Y161.328 E14.23815
G1 X122.207 Y160.955 E14.26878
G1 X121.401 Y160.511 E14.29939
G1 X120.636 Y159.998 E14.33003
G1 X119.919 Y159.421 E14.36064
G1 X119.254 Y158.784 E14.39126
G1 X118.647 Y158.092 E14.42188
G1 X118.233 Y157.539 E14.44486
G1 X117.933 Y157.111 E14.46224
G1 X116.423 Y155.014 E14.54819
G1 X114.866 Y152.977 E14.63346
G1 X113.278 Y151.017 E14.71736
G1 X111.638 Y149.106 E14.80112
G1 X109.943 Y147.239 E14.88499
G1 X108.192 Y145.418 E14.96902
G1 X107.506 Y144.75 E15.00086
G1 X107.34 Y144.574 E15.00891
G1 X106.467 Y143.707 E15.04983
G1 X105.645 Y142.791 E15.09077
G1 X105.147 Y142.166 E15.11735
G1 X104.941 Y141.898 E15.12859
G1 X104.615 Y141.461 E15.14672
G1 X103.927 Y140.416 E15.18834
G1 X103.406 Y139.512 E15.22304
G1 X103.306 Y139.335 E15.2298
G1 X91.976 Y118.773 E16.01064
G1 X91.634 Y118.13 E16.03487
G1 X91.261 Y117.354 E16.0635
G1 X91.008 Y116.768 E16.08473
G1 X89.473 Y113.059 E16.21824
G1 X89.228 Y112.443 E16.24029
G1 X88.926 Y111.574 E16.27089
G1 X88.699 Y110.682 E16.3015
G1 X88.596 Y110.101 E16.32113
G1 X88.434 Y109.016 E16.35762
G1 X88.195 Y107.187 E16.41897
G1 X88.109 Y106.453 E16.44355
G1 X88.042 Y105.534 E16.47419
G1 X88.061 Y104.499 E16.50862
G1 X88.187 Y103.435 E16.54426
G1 X88.264 Y102.991 E16.55925
G1 X88.314 Y102.727 E16.56819
G1 X88.671 Y100.939 E16.62883
G1 X88.818 Y100.253 E16.65216
G1 X89.05 Y99.362 E16.68279
G1 X89.358 Y98.494 E16.71342
G1 X89.825 Y97.495 E16.7501
G1 X89.908 Y97.339 E16.75597
G1 X90.07 Y97.046 E16.76711
G1 X90.326 Y96.601 E16.78419
G1 X92.905 Y92.159 E16.95502
G1 X93.249 Y91.587 E16.97722
G1 X93.757 Y90.819 E17.00785
G1 X94.33 Y90.099 E17.03845
G1 X94.964 Y89.431 E17.06909
G0 F6000 X95.279 Y89.682
G1 F1200 X95.958 Y89.087 E17.09911
G1 X96.688 Y88.555 E17.12916
G1 X97.461 Y88.089 E17.15918
G1 X98.273 Y87.693 E17.18922
G1 X99.117 Y87.37 E17.21928
G1 X99.985 Y87.124 E17.24929
G1 X101.028 Y86.934 E17.28455
G1 X101.214 Y86.91 E17.29079
G1 X102.114 Y86.834 E17.32083
G1 X103.017 Y86.838 E17.35086
G1 X103.792 Y86.906 E17.37674
G1 X104.235 Y86.962 E17.39159
G1 X106.307 Y87.252 E17.46118
G1 X108.843 Y87.534 E17.54604
G1 X111.345 Y87.74 E17.62954
G1 X113.875 Y87.877 E17.71381
G1 X116.443 Y87.944 E17.79925
G1 X118.976 Y87.937 E17.8835
G1 X121.518 Y87.859 E17.96809
G1 X124.032 Y87.711 E18.05185
G1 X126.551 Y87.491 E18.13595
G1 X130.147 Y87.053 E18.25644
G1 X131.069 Y86.923 E18.28741
G1 X131.968 Y86.837 E18.31745
G1 X132.871 Y86.831 E18.34748
G1 X133.771 Y86.905 E18.37752
G1 X134.406 Y87.006 E18.3989
G1 X134.589 Y87.041 E18.4051
G1 X135.468 Y87.249 E18.43514
G1 X136.324 Y87.535 E18.46516
G1 X137.153 Y87.895 E18.49522
G1 X137.946 Y88.327 E18.52525
G1 X138.697 Y88.828 E18.55528
G1 X139.402 Y89.393 E18.58533
G1 X140.053 Y90.018 E18.61535
G1 X140.647 Y90.699 E18.6454
G1 X141.022 Y91.199 E18.66619
G1 X141.333 Y91.641 E18.68416
G1 X142.865 Y93.769 E18.77138
G1 X144.394 Y95.771 E18.85516
G1 X146.005 Y97.76 E18.94029
G1 X147.646 Y99.671 E19.02407
G1 X149.343 Y101.54 E19.10804
G1 X151.108 Y103.376 E19.19274
G1 X151.803 Y104.052 E19.22499
G1 X151.992 Y104.253 E19.23417
G1 X152.822 Y105.076 E19.27304
G1 X153.619 Y105.965 E19.31275
G1 X154.147 Y106.628 E19.34094
G1 X154.333 Y106.868 E19.35104
G1 X154.643 Y107.282 E19.36825
G1 X155.321 Y108.312 E19.40926
G1 X155.839 Y109.213 E19.44383
G1 X167.185 Y129.799 E20.22563
G1 X167.599 Y130.575 E20.25488
G1 X167.962 Y131.33 E20.28274
G1 X168.276 Y132.061 E20.3092
G1 X169.735 Y135.585 E20.43606
G1 X169.983 Y136.206 E20.4583
G1 X170.28 Y137.059 E20.48834
G1 X170.501 Y137.934 E20.51836
G1 X170.598 Y138.482 E20.53687
G1 X170.76 Y139.576 E20.57365
G1 X170.996 Y141.377 E20.63407
G1 X171.082 Y142.111 E20.65865
G1 X171.147 Y143.012 E20.68869
G1 X171.132 Y143.915 E20.71873
G1 X171.017 Y144.945 E20.7532
G1 X170.973 Y145.214 E20.76227
G1 X170.911 Y145.556 E20.77383
G1 X170.521 Y147.513 E20.8402
G1 X170.376 Y148.187 E20.86313
G1 X170.147 Y149.061 E20.89318
G1 X169.842 Y149.911 E20.92321
G1 X169.389 Y150.869 E20.95846
G1 X169.288 Y151.057 E20.96556
G1 X169.15 Y151.306 E20.97503
G1 X168.915 Y151.716 E20.99074
G1 X166.363 Y156.111 E21.15978
G1 X166.013 Y156.697 E21.18248
G1 X165.516 Y157.451 E21.21252
G1 X164.954 Y158.159 E21.24258
G1 X164.332 Y158.813 E21.2726
G1 X163.655 Y159.41 E21.30262
G1 X162.927 Y159.945 E21.33267
G1 X162.155 Y160.414 E21.36272
G1 X161.344 Y160.812 E21.39276
G1 X160.502 Y161.137 E21.42278
G1 X159.634 Y161.386 E21.45282
G1 X158.554 Y161.584 E21.48933
G1 X158.367 Y161.608 E21.49561
G1 X157.467 Y161.683 E21.52564
G1 X156.564 Y161.679 E21.55568
G1 X155.792 Y161.611 E21.58145
G1 X155.335 Y161.552 E21.59678
G1 X153.291 Y161.267 E21.66542
G1 X150.729 Y160.982 E21.75116
G1 X148.227 Y160.776 E21.83466
G1 X145.695 Y160.639 E21.919
G1 X143.134 Y160.573 E22.0042
G1 X140.597 Y160.58 E22.08858
G1 X138.064 Y160.658 E22.17287
G1 X135.533 Y160.807 E22.2572
G1 X133.04 Y161.026 E22.34044
G1 X129.316 Y161.481 E22.46522
G1 X128.523 Y161.593 E22.49186
G1 X127.624 Y161.68 E22.5219
G1 X126.721 Y161.687 E22.55193
G1 X125.821 Y161.614 E22.58196
G1 X125.071 Y161.492 E22.60724
G1 X124.893 Y161.456 E22.61328
G1 X124.017 Y161.238 E22.6433
G1 X123.163 Y160.943 E22.67335
G1 X122.339 Y160.574 E22.70338
G1 X121.55 Y160.133 E22.73344
G1 X120.804 Y159.625 E22.76346
G1 X120.106 Y159.052 E22.7935
G1 X119.461 Y158.42 E22.82353
G1 X118.874 Y157.733 E22.85359
G1 X118.56 Y157.31 E22.87111
G1 X118.239 Y156.852 E22.88971
G1 X116.733 Y154.76 E22.97545
G1 X115.18 Y152.728 E23.06051
G1 X113.594 Y150.771 E23.14429
G1 X111.936 Y148.839 E23.22897
G1 X110.244 Y146.976 E23.31267
G1 X108.476 Y145.137 E23.39752
G1 X107.785 Y144.464 E23.4296
G1 X107.616 Y144.284 E23.43781
G1 X106.749 Y143.423 E23.47845
G1 X105.958 Y142.541 E23.51786
G1 X105.46 Y141.916 E23.54444
G1 X105.261 Y141.659 E23.55525
G1 X104.935 Y141.222 E23.57338
G1 X104.274 Y140.216 E23.61342
G1 X103.753 Y139.312 E23.64812
G1 X103.657 Y139.142 E23.65462
G1 X92.33 Y118.585 E24.43527
G1 X91.988 Y117.942 E24.45949
G1 X91.628 Y117.195 E24.48707
G1 X91.315 Y116.466 E24.51346
G1 X89.845 Y112.912 E24.64138
G1 X89.6 Y112.296 E24.66342
G1 X89.304 Y111.442 E24.69349
G1 X89.084 Y110.567 E24.72349
G1 X88.991 Y110.041 E24.74126
G1 X88.857 Y109.149 E24.77126
G1 X88.831 Y108.964 E24.77748
G1 X88.592 Y107.14 E24.83866
G1 X88.506 Y106.406 E24.86324
G1 X88.441 Y105.505 E24.89329
G1 X88.461 Y104.526 E24.92585
G1 X88.581 Y103.502 E24.96015
G1 X88.657 Y103.064 E24.97493
G1 X88.706 Y102.805 E24.9837
G1 X89.062 Y101.023 E25.04414
G1 X89.209 Y100.337 E25.06747
G1 X89.438 Y99.463 E25.09752
G1 X89.742 Y98.613 E25.12755
G1 X90.178 Y97.683 E25.16171
G1 X90.261 Y97.527 E25.16759
G1 X90.417 Y97.245 E25.17831
G1 X90.671 Y96.801 E25.19532
G1 X93.167 Y92.501 E25.36069
G1 X93.592 Y91.793 E25.38815
G1 X94.091 Y91.041 E25.41817
