;FLAVOR:Marlin
;TIME:1812
;Filament used: 0.913629m
;Layer height: 0.2
;MINX:82.1
;MINY:94
;MINZ:0.2
;MAXX:152.9
;MAXY:140.989
;MAXZ:13
;Generated with Cura_SteamEngine 4.13.1
M140 S60
M105
M190 S60
M104 S200
M105
M109 S200
M82 ;absolute extrusion mode
; Ender 3 Custom Start G-code
G92 E0 ; Reset Extruder
G28 ; Home all axes
G1 Z2.0 F3000 ; Move Z Axis up little to prevent scratching of Heat Bed
G1 X0.1 Y20 Z0.3 F5000.0 ; Move to start position
G1 X0.1 Y200.0 Z0.3 F1500.0 E15 ; Draw the first line
G1 X0.4 Y200.0 Z0.3 F5000.0 ; Move to side a little
G1 X0.4 Y20 Z0.3 F1500.0 E30 ; Draw the second line
G92 E0 ; Reset Extruder
G1 Z2.0 F3000 ; Move Z Axis up little to prevent scratching of Heat Bed
G1 X5 Y20 Z0.3 F5000.0 ; Move over to prevent blob squish
G92 E0
G92 E0
G1 F2700 E-5
;LAYER_COUNT:65
;LAYER:0
M107
G0 F6000 X85.986 Y96.627 Z0.2
;TYPE:SKIRT
G1 F2700 E0
G1 F1200 X86.726 Y96.051 E0.03119
G1 X87.512 Y95.539 E0.06239
G1 X88.339 Y95.097 E0.09358
G1 X89.201 Y94.727 E0.12478
G1 X90.091 Y94.431 E0.15597
G1 X91.003 Y94.213 E0.18716
G1 X91.93 Y94.072 E0.21835
G1 X92.801 Y94.013 E0.24738
G1 X93.122 Y94.004 E0.25806
G1 X93.43 Y94 E0.26831
G1 X100.829 Y94 E0.5144
G1 X101.05 Y94.002 E0.52175
G1 X102.392 Y94.029 E0.5664
G1 X103.595 Y94.12 E0.60652
G1 X104.602 Y94.252 E0.6403
G1 X105.991 Y94.454 E0.68699
G1 X108.506 Y94.746 E0.7712
G1 X111.001 Y94.964 E0.8545
G1 X113.505 Y95.112 E0.93793
G1 X116.036 Y95.189 E1.02215
G1 X118.561 Y95.196 E1.10613
G1 X121.048 Y95.131 E1.18887
G1 X123.567 Y94.995 E1.27278
G1 X126.096 Y94.786 E1.35718
G1 X128.59 Y94.509 E1.44064
G1 X130.839 Y94.199 E1.51615
G1 X131.074 Y94.163 E1.52406
G1 X131.668 Y94.089 E1.54397
G1 X131.875 Y94.069 E1.55088
G1 X132.759 Y94.019 E1.58033
G1 X133.895 Y94.001 E1.61812
G1 X141.193 Y94 E1.86085
G1 X142.049 Y94.011 E1.88933
G1 X142.985 Y94.065 E1.92051
G1 X143.913 Y94.197 E1.95169
G1 X144.827 Y94.409 E1.98289
G1 X145.719 Y94.698 E2.01408
G1 X146.584 Y95.061 E2.04528
G1 X147.414 Y95.497 E2.07646
G1 X148.205 Y96.002 E2.10768
G1 X148.949 Y96.573 E2.13887
G1 X149.642 Y97.205 E2.17006
G1 X150.279 Y97.893 E2.20125
G1 X150.854 Y98.634 E2.23245
G1 X151.365 Y99.42 E2.26363
G1 X151.807 Y100.248 E2.29484
G1 X152.176 Y101.11 E2.32603
G1 X152.471 Y102 E2.35722
G1 X152.689 Y102.912 E2.3884
G1 X152.829 Y103.84 E2.41962
G1 X152.887 Y104.701 E2.44832
G1 X152.896 Y105.021 E2.45897
G1 X152.9 Y105.33 E2.46925
G1 X152.899 Y106.827 E2.51904
G1 X152.889 Y107.548 E2.54302
G1 X152.836 Y108.484 E2.5742
G1 X152.703 Y109.412 E2.60538
G1 X152.492 Y110.326 E2.63658
G1 X152.204 Y111.219 E2.66779
G1 X151.841 Y112.083 E2.69896
G1 X151.405 Y112.914 E2.73017
G1 X150.901 Y113.704 E2.76134
G1 X150.33 Y114.449 E2.79256
G1 X149.699 Y115.142 E2.82373
G1 X148.803 Y115.951 E2.86388
G1 X147.851 Y116.72 E2.90459
G1 X145.862 Y118.374 E2.99062
G1 X143.938 Y120.07 E3.07593
G1 X142.127 Y121.757 E3.15825
G1 X140.337 Y123.525 E3.24193
G1 X138.579 Y125.357 E3.32638
G1 X136.881 Y127.233 E3.41054
G1 X135.278 Y129.109 E3.49261
G1 X133.696 Y131.069 E3.57639
G1 X131.798 Y133.593 E3.68142
G1 X131.246 Y134.311 E3.71154
G1 X130.98 Y134.643 E3.72569
G1 X130.856 Y134.792 E3.73214
G1 X130.543 Y135.153 E3.74803
G1 X130.394 Y135.317 E3.7554
G1 X130.145 Y135.582 E3.7675
G1 X129.946 Y135.787 E3.777
G1 X129.537 Y136.187 E3.79603
G1 X129.272 Y136.433 E3.80805
G1 X128.906 Y136.758 E3.82433
G1 X128.668 Y136.96 E3.83472
G1 X128.252 Y137.296 E3.8525
G1 X127.89 Y137.567 E3.86754
G1 X127.534 Y137.823 E3.88213
G1 X127.011 Y138.177 E3.90313
G1 X126.745 Y138.346 E3.91361
G1 X126.348 Y138.587 E3.92906
G1 X126.016 Y138.776 E3.94177
G1 X125.789 Y138.9 E3.95037
G1 X125.326 Y139.139 E3.9677
G1 X124.964 Y139.315 E3.98109
G1 X124.426 Y139.559 E4.00073
G1 X124.165 Y139.669 E4.01016
G1 X123.831 Y139.803 E4.02212
G1 X123.698 Y139.854 E4.02686
G1 X123.394 Y139.965 E4.03763
G1 X123.134 Y140.056 E4.04679
G1 X122.784 Y140.173 E4.05906
G1 X122.393 Y140.291 E4.07265
G1 X122.141 Y140.362 E4.08135
G1 X121.76 Y140.462 E4.09446
G1 X121.444 Y140.537 E4.10526
G1 X121.14 Y140.605 E4.11562
G1 X120.609 Y140.71 E4.13362
G1 X120.325 Y140.759 E4.14321
G1 X119.89 Y140.825 E4.15784
G1 X119.44 Y140.88 E4.17292
G1 X119.161 Y140.909 E4.18225
G1 X118.729 Y140.946 E4.19667
G1 X118.404 Y140.965 E4.2075
G1 X118.134 Y140.977 E4.21649
G1 X117.73 Y140.988 E4.22993
G1 X117.365 Y140.989 E4.24207
G1 X117.104 Y140.985 E4.25075
G1 X116.715 Y140.972 E4.2637
G1 X116.376 Y140.953 E4.27499
G1 X116.075 Y140.931 E4.28503
G1 X115.683 Y140.895 E4.29812
G1 X115.367 Y140.858 E4.3087
G1 X115.072 Y140.819 E4.3186
G1 X114.604 Y140.747 E4.33435
G1 X114.275 Y140.689 E4.34546
G1 X113.802 Y140.595 E4.3615
G1 X113.375 Y140.495 E4.37609
G1 X113.061 Y140.415 E4.38686
G1 X112.718 Y140.322 E4.39868
G1 X112.4 Y140.228 E4.40971
G1 X112.165 Y140.155 E4.4179
G1 X111.777 Y140.026 E4.4315
G1 X111.414 Y139.895 E4.44433
G1 X111.156 Y139.797 E4.45351
G1 X110.826 Y139.665 E4.46533
G1 X110.443 Y139.502 E4.47918
G1 X110.253 Y139.417 E4.4861
G1 X109.925 Y139.264 E4.49814
G1 X109.568 Y139.086 E4.51141
G1 X109.252 Y138.921 E4.52326
G1 X108.815 Y138.68 E4.53986
G1 X108.569 Y138.537 E4.54933
G1 X108.204 Y138.315 E4.56353
G1 X107.835 Y138.075 E4.57817
G1 X107.556 Y137.886 E4.58938
G1 X107.041 Y137.515 E4.61049
G1 X106.709 Y137.261 E4.6244
G1 X106.34 Y136.967 E4.64009
G1 X106.182 Y136.835 E4.64694
G1 X105.833 Y136.53 E4.66235
G1 X105.678 Y136.389 E4.66932
G1 X105.414 Y136.141 E4.68137
G1 X105.202 Y135.935 E4.6912
G1 X104.784 Y135.506 E4.71112
G1 X104.545 Y135.247 E4.72284
G1 X104.26 Y134.926 E4.73712
G1 X104.051 Y134.681 E4.74783
G1 X103.597 Y134.111 E4.77207
G1 X101.87 Y131.792 E4.86824
G1 X100.305 Y129.811 E4.95221
G1 X98.696 Y127.89 E5.03555
G1 X97.005 Y125.984 E5.1203
G1 X95.297 Y124.163 E5.20334
G1 X93.529 Y122.382 E5.2868
G1 X91.704 Y120.646 E5.37058
G1 X89.835 Y118.966 E5.45417
G1 X87.89 Y117.315 E5.53902
G1 X86.344 Y116.073 E5.60498
G1 X86.051 Y115.83 E5.61764
G1 X85.928 Y115.724 E5.62304
G1 X85.244 Y115.082 E5.65424
G1 X84.618 Y114.384 E5.68542
G1 X84.053 Y113.635 E5.71663
G1 X83.554 Y112.841 E5.74782
G1 X83.124 Y112.007 E5.77903
G1 X82.768 Y111.14 E5.8102
G1 X82.486 Y110.245 E5.84141
G1 X82.281 Y109.33 E5.8726
G1 X82.155 Y108.401 E5.90378
G1 X82.113 Y107.699 E5.92717
G1 X82.104 Y107.378 E5.93785
G1 X82.1 Y107.07 E5.9481
G1 X82.101 Y105.525 E5.99948
G1 X82.11 Y104.86 E6.0216
G1 X82.163 Y103.924 E6.05279
G1 X82.295 Y102.995 E6.084
G1 X82.506 Y102.081 E6.11519
G1 X82.794 Y101.189 E6.14637
G1 X83.157 Y100.324 E6.17757
G1 X83.592 Y99.493 E6.20877
G1 X84.096 Y98.703 E6.23994
G1 X84.666 Y97.958 E6.27113
G1 X85.298 Y97.264 E6.30235
G1 X85.986 Y96.627 E6.33354
G0 F6000 X86.374 Y96.823
G1 F1200 X87.11 Y96.27 E6.36416
G1 X87.891 Y95.782 E6.39479
G1 X88.711 Y95.364 E6.4254
G1 X89.565 Y95.019 E6.45604
G1 X90.445 Y94.749 E6.48665
G1 X91.345 Y94.557 E6.51726
G1 X92.259 Y94.443 E6.54789
G1 X92.812 Y94.413 E6.56631
G1 X93.133 Y94.404 E6.57699
G1 X93.43 Y94.4 E6.58687
G1 X100.829 Y94.4 E6.83297
G1 X101.042 Y94.402 E6.84005
G1 X102.384 Y94.429 E6.88469
G1 X103.544 Y94.516 E6.92338
G1 X104.545 Y94.648 E6.95697
G1 X105.959 Y94.853 E7.00449
G1 X108.426 Y95.14 E7.08709
G1 X110.978 Y95.363 E7.1723
G1 X113.503 Y95.512 E7.25643
G1 X116.023 Y95.589 E7.34028
G1 X118.57 Y95.596 E7.42499
G1 X121.081 Y95.531 E7.50854
G1 X123.586 Y95.395 E7.59198
G1 X126.137 Y95.184 E7.67711
G1 X128.653 Y94.905 E7.76131
G1 X130.815 Y94.607 E7.8339
G1 X131.135 Y94.558 E7.84466
G1 X131.707 Y94.487 E7.86384
G1 X131.914 Y94.467 E7.87075
G1 X132.765 Y94.419 E7.8991
G1 X133.901 Y94.401 E7.93689
G1 X141.193 Y94.4 E8.17942
G1 X142.043 Y94.411 E8.2077
G1 X142.962 Y94.464 E8.23831
G1 X143.873 Y94.597 E8.26893
G1 X144.769 Y94.808 E8.29955
G1 X145.643 Y95.096 E8.33016
G1 X146.49 Y95.459 E8.36081
G1 X147.301 Y95.894 E8.39142
G1 X148.071 Y96.398 E8.42203
G1 X148.795 Y96.967 E8.45265
G1 X149.467 Y97.597 E8.48329
G1 X150.082 Y98.282 E8.51391
G1 X150.635 Y99.018 E8.54453
G1 X151.122 Y99.799 E8.57514
G1 X151.539 Y100.62 E8.60577
G1 X151.884 Y101.474 E8.6364
G1 X152.153 Y102.354 E8.66701
G1 X152.345 Y103.255 E8.69765
G1 X152.458 Y104.168 E8.72824
G1 X152.487 Y104.712 E8.74636
G1 X152.496 Y105.032 E8.75701
G1 X152.5 Y105.33 E8.76692
G1 X152.499 Y106.821 E8.81651
G1 X152.489 Y107.542 E8.8405
G1 X152.436 Y108.461 E8.87111
G1 X152.304 Y109.372 E8.90173
G1 X152.093 Y110.268 E8.93235
G1 X151.805 Y111.143 E8.96299
G1 X151.443 Y111.989 E8.99359
G1 X151.008 Y112.801 E9.02423
G1 X150.505 Y113.572 E9.05485
G1 X149.936 Y114.296 E9.08548
G1 X149.307 Y114.968 E9.11609
G1 X148.552 Y115.64 E9.14971
G1 X147.593 Y116.415 E9.19072
G1 X145.588 Y118.083 E9.27746
G1 X143.703 Y119.744 E9.36103
G1 X141.822 Y121.496 E9.44652
G1 X140.05 Y123.246 E9.52936
G1 X138.295 Y125.076 E9.61369
G1 X136.595 Y126.953 E9.69792
G1 X134.964 Y128.861 E9.7814
G1 X133.363 Y130.844 E9.86617
G1 X131.481 Y133.35 E9.97041
G1 X130.929 Y134.068 E10.00053
G1 X130.673 Y134.388 E10.01416
G1 X130.549 Y134.537 E10.02061
G1 X130.247 Y134.884 E10.03591
G1 X130.098 Y135.048 E10.04328
G1 X129.858 Y135.303 E10.05492
G1 X129.659 Y135.508 E10.06443
G1 X129.265 Y135.894 E10.08277
G1 X129 Y136.14 E10.0948
G1 X128.647 Y136.453 E10.11049
G1 X128.409 Y136.655 E10.12087
G1 X128.008 Y136.979 E10.13802
G1 X127.657 Y137.242 E10.15261
G1 X127.301 Y137.498 E10.16719
G1 X126.796 Y137.839 E10.18746
G1 X126.53 Y138.008 E10.19794
G1 X126.247 Y138.182 E10.20899
G1 X126.144 Y138.243 E10.21297
G1 X125.825 Y138.425 E10.22519
G1 X125.598 Y138.549 E10.23379
G1 X125.151 Y138.779 E10.25051
G1 X124.789 Y138.955 E10.2639
G1 X124.271 Y139.19 E10.28282
G1 X124.01 Y139.3 E10.29224
G1 X123.688 Y139.429 E10.30377
G1 X123.262 Y139.588 E10.3189
G1 X123.002 Y139.679 E10.32806
G1 X122.661 Y139.792 E10.34001
G1 X122.285 Y139.906 E10.35308
G1 X122.033 Y139.977 E10.36178
G1 X121.666 Y140.073 E10.3744
G1 X121.357 Y140.146 E10.38496
G1 X121.053 Y140.214 E10.39532
G1 X120.541 Y140.316 E10.41269
G1 X120.257 Y140.365 E10.42227
G1 X119.838 Y140.428 E10.43636
G1 X119.399 Y140.482 E10.45108
G1 X119.12 Y140.511 E10.46041
G1 X118.699 Y140.547 E10.47446
G1 X118.387 Y140.566 E10.48486
G1 X118.117 Y140.578 E10.49384
G1 X117.723 Y140.588 E10.50695
G1 X117.372 Y140.589 E10.51863
G1 X117.111 Y140.585 E10.52731
G1 X116.732 Y140.573 E10.53992
G1 X116.405 Y140.554 E10.55082
G1 X116.104 Y140.532 E10.56085
G1 X115.724 Y140.497 E10.57355
G1 X115.42 Y140.462 E10.58372
G1 X115.125 Y140.423 E10.59362
G1 X114.674 Y140.353 E10.6088
G1 X114.345 Y140.295 E10.61991
G1 X113.885 Y140.204 E10.63551
G1 X113.474 Y140.108 E10.64955
G1 X113.16 Y140.028 E10.66032
G1 X112.716 Y139.905 E10.67565
G1 X112.283 Y139.773 E10.6907
G1 X111.91 Y139.649 E10.70378
G1 X111.556 Y139.521 E10.7163
G1 X111.298 Y139.423 E10.72548
G1 X110.98 Y139.296 E10.73687
G1 X110.606 Y139.137 E10.75038
G1 X110.416 Y139.052 E10.7573
G1 X110.097 Y138.903 E10.76902
G1 X109.753 Y138.731 E10.78181
G1 X109.437 Y138.566 E10.79366
G1 X109.016 Y138.334 E10.80965
G1 X108.77 Y138.191 E10.81912
G1 X108.419 Y137.978 E10.83277
G1 X108.059 Y137.744 E10.84705
G1 X107.78 Y137.555 E10.85826
G1 X107.284 Y137.198 E10.87859
G1 X106.952 Y136.944 E10.89249
G1 X106.597 Y136.66 E10.90761
G1 X106.439 Y136.528 E10.91446
G1 X106.102 Y136.234 E10.92933
G1 X105.947 Y136.093 E10.9363
G1 X105.693 Y135.854 E10.9479
G1 X105.481 Y135.648 E10.95773
G1 X105.078 Y135.235 E10.97693
G1 X104.839 Y134.976 E10.98865
G1 X104.565 Y134.666 E11.00241
G1 X104.356 Y134.421 E11.01312
G1 X103.918 Y133.872 E11.03648
G1 X102.189 Y131.55 E11.13277
G1 X100.624 Y129.569 E11.21674
G1 X98.988 Y127.616 E11.30147
G1 X97.311 Y125.727 E11.38549
G1 X95.59 Y123.891 E11.46919
G1 X93.805 Y122.093 E11.55345
G1 X91.982 Y120.359 E11.63713
G1 X90.077 Y118.647 E11.72232
G1 X88.154 Y117.014 E11.80623
G1 X86.594 Y115.761 E11.87278
G1 X86.312 Y115.527 E11.88497
G1 X86.189 Y115.421 E11.89037
G1 X85.518 Y114.79 E11.92101
G1 X84.905 Y114.103 E11.95163
G1 X84.354 Y113.366 E11.98224
G1 X83.868 Y112.584 E12.01286
G1 X83.452 Y111.762 E12.0435
G1 X83.109 Y110.908 E12.07411
G1 X82.842 Y110.027 E12.10473
G1 X82.652 Y109.126 E12.13535
G1 X82.541 Y108.212 E12.16598
G1 X82.513 Y107.688 E12.18343
G1 X82.504 Y107.367 E12.19411
G1 X82.5 Y107.07 E12.20399
G1 X82.501 Y105.531 E12.25518
G1 X82.51 Y104.866 E12.2773
G1 X82.562 Y103.946 E12.30795
G1 X82.694 Y103.035 E12.33856
G1 X82.905 Y102.139 E12.36918
G1 X83.192 Y101.264 E12.39981
G1 X83.555 Y100.418 E12.43043
G1 X83.989 Y99.606 E12.46105
G1 X84.492 Y98.835 E12.49167
G1 X85.061 Y98.111 E12.52229
G1 X85.689 Y97.439 E12.55289
G1 X86.374 Y96.823 E12.58353
G0 F6000 X86.762 Y97.024
G1 F1200 X87.494 Y96.494 E12.61358
G1 X88.269 Y96.031 E12.64361
G1 X89.082 Y95.638 E12.67364
G1 X89.927 Y95.318 E12.7037
G1 X90.796 Y95.075 E12.73371
G1 X91.684 Y94.909 E12.76376
G1 X92.823 Y94.813 E12.80177
G1 X93.144 Y94.804 E12.81245
G1 X93.43 Y94.8 E12.82197
G1 X100.829 Y94.8 E13.06806
G1 X101.034 Y94.802 E13.07488
G1 X102.376 Y94.829 E13.11952
G1 X103.492 Y94.913 E13.15674
G1 X104.487 Y95.044 E13.19012
G1 X105.887 Y95.247 E13.23718
G1 X108.416 Y95.541 E13.32186
G1 X110.953 Y95.763 E13.40656
G1 X113.468 Y95.911 E13.49035
G1 X116.01 Y95.989 E13.57494
G1 X118.544 Y95.996 E13.65922
G1 X121.111 Y95.929 E13.74463
G1 X123.641 Y95.792 E13.8289
G1 X126.143 Y95.586 E13.9124
G1 X128.711 Y95.3 E13.99834
G1 X130.935 Y94.994 E14.07301
G1 X131.195 Y94.954 E14.08176
G1 X131.745 Y94.885 E14.10019
G1 X131.952 Y94.865 E14.10711
G1 X132.771 Y94.819 E14.13439
G1 X134.069 Y94.8 E14.17757
G1 X141.339 Y94.801 E14.41937
G1 X142.037 Y94.811 E14.44259
G1 X142.939 Y94.864 E14.47264
G1 X143.832 Y94.996 E14.50267
G1 X144.71 Y95.207 E14.5327
G1 X145.566 Y95.495 E14.56274
G1 X146.393 Y95.857 E14.59276
G1 X147.185 Y96.292 E14.62282
G1 X147.936 Y96.794 E14.65286
G1 X148.639 Y97.361 E14.6829
G1 X149.289 Y97.988 E14.71294
G1 X149.881 Y98.67 E14.74298
G1 X150.411 Y99.401 E14.77301
G1 X150.873 Y100.177 E14.80305
G1 X151.266 Y100.99 E14.83308
G1 X151.584 Y101.835 E14.86311
G1 X151.827 Y102.705 E14.89315
G1 X151.992 Y103.593 E14.92319
G1 X152.087 Y104.723 E14.96091
G1 X152.096 Y105.043 E14.97156
G1 X152.1 Y105.33 E14.9811
G1 X152.099 Y106.815 E15.0305
G1 X152.089 Y107.536 E15.05448
G1 X152.037 Y108.438 E15.08453
G1 X151.904 Y109.331 E15.11456
G1 X151.694 Y110.21 E15.14462
G1 X151.407 Y111.066 E15.17464
G1 X151.045 Y111.893 E15.20467
G1 X150.611 Y112.685 E15.23471
G1 X150.109 Y113.436 E15.26475
G1 X149.542 Y114.139 E15.29479
G1 X148.916 Y114.79 E15.32483
G1 X148.301 Y115.329 E15.35203
G1 X147.28 Y116.154 E15.39569
G1 X145.351 Y117.759 E15.47915
G1 X143.411 Y119.468 E15.56514
G1 X141.568 Y121.185 E15.64892
G1 X139.763 Y122.968 E15.73331
G1 X137.992 Y124.814 E15.81839
G1 X136.295 Y126.689 E15.9025
G1 X134.632 Y128.634 E15.98762
G1 X133.08 Y130.556 E16.06978
G1 X131.163 Y133.106 E16.17589
G1 X130.611 Y133.824 E16.20601
G1 X130.365 Y134.132 E16.21912
G1 X130.241 Y134.281 E16.22557
G1 X129.95 Y134.615 E16.2403
G1 X129.801 Y134.779 E16.24767
G1 X129.571 Y135.025 E16.25887
G1 X129.372 Y135.23 E16.26838
G1 X128.993 Y135.6 E16.28599
G1 X128.728 Y135.846 E16.29802
G1 X128.388 Y136.148 E16.31314
G1 X128.15 Y136.35 E16.32353
G1 X127.764 Y136.661 E16.34001
G1 X127.423 Y136.917 E16.3542
G1 X127.067 Y137.173 E16.36878
G1 X126.582 Y137.501 E16.38825
G1 X126.316 Y137.67 E16.39874
G1 X125.941 Y137.898 E16.41333
G1 X125.633 Y138.074 E16.42513
G1 X125.406 Y138.198 E16.43373
G1 X124.976 Y138.419 E16.44981
G1 X124.614 Y138.595 E16.4632
G1 X124.115 Y138.821 E16.48142
G1 X123.854 Y138.931 E16.49084
G1 X123.545 Y139.056 E16.50193
G1 X123.412 Y139.107 E16.50667
G1 X123.13 Y139.21 E16.51665
G1 X122.87 Y139.301 E16.52581
G1 X122.538 Y139.411 E16.53745
G1 X122.176 Y139.521 E16.55003
G1 X121.924 Y139.592 E16.55874
G1 X121.571 Y139.684 E16.57087
G1 X121.27 Y139.756 E16.58117
G1 X120.966 Y139.824 E16.59153
G1 X120.473 Y139.921 E16.60824
G1 X120.189 Y139.97 E16.61782
G1 X119.786 Y140.032 E16.63138
G1 X119.634 Y140.052 E16.63648
G1 X119.358 Y140.084 E16.64573
G1 X119.079 Y140.113 E16.65505
G1 X118.669 Y140.148 E16.66874
G1 X118.369 Y140.166 E16.67874
G1 X118.099 Y140.178 E16.68773
G1 X117.716 Y140.188 E16.70047
G1 X117.378 Y140.189 E16.71171
