;FLAVOR:Marlin
;TIME:471
;Filament used: 0.169629m
;Layer height: 0.2
;MINX:98.619
;MINY:98.618
;MINZ:0.2
;MAXX:136.381
;MAXY:136.382
;MAXZ:7.4
;Generated with Cura_SteamEngine 4.13.1
M140 S60
M105
M190 S60
M104 S200
M105
M109 S200
M82 ;absolute extrusion mode
; Ender 3 Custom Start G-code
G92 E0 ; Reset Extruder
G28 ; Home all axes
G1 Z2.0 F3000 ; Move Z Axis up little to prevent scratching of Heat Bed
G1 X0.1 Y20 Z0.3 F5000.0 ; Move to start position
G1 X0.1 Y200.0 Z0.3 F1500.0 E15 ; Draw the first line
G1 X0.4 Y200.0 Z0.3 F5000.0 ; Move to side a little
G1 X0.4 Y20 Z0.3 F1500.0 E30 ; Draw the second line
G92 E0 ; Reset Extruder
G1 Z2.0 F3000 ; Move Z Axis up little to prevent scratching of Heat Bed
G1 X5 Y20 Z0.3 F5000.0 ; Move over to prevent blob squish
G92 E0
G92 E0
G1 F2700 E-5
;LAYER_COUNT:37
;LAYER:0
M107
G0 F6000 X104.668 Y103.629 Z0.2
;TYPE:SKIRT
G1 F2700 E0
G1 F1200 X105.158 Y103.145 E0.02291
G1 X106.214 Y102.231 E0.06936
G1 X106.811 Y101.806 E0.09373
G1 X107.168 Y101.569 E0.10799
G1 X107.971 Y101.084 E0.13919
G1 X109.103 Y100.546 E0.18087
G1 X109.81 Y100.258 E0.20626
G1 X111.162 Y99.689 E0.25505
G1 X111.621 Y99.504 E0.27151
G1 X112.505 Y99.192 E0.30269
G1 X113.05 Y99.04 E0.32151
G1 X113.218 Y98.998 E0.32727
G1 X113.981 Y98.836 E0.35321
G1 X114.254 Y98.788 E0.36243
G1 X115.184 Y98.665 E0.39363
G1 X116.116 Y98.622 E0.42466
G1 X117.137 Y98.618 E0.45862
G1 X117.819 Y98.622 E0.48131
G1 X118.037 Y98.62 E0.48856
G1 X118.86 Y98.622 E0.51593
G1 X119.797 Y98.664 E0.54713
G1 X120.663 Y98.775 E0.57617
G1 X120.912 Y98.817 E0.58456
G1 X121.627 Y98.963 E0.60884
G1 X121.833 Y99.012 E0.61588
G1 X122.736 Y99.267 E0.64709
G1 X123.496 Y99.55 E0.67406
G1 X124.666 Y100.035 E0.71619
G1 X124.854 Y100.116 E0.723
G1 X125.65 Y100.439 E0.75157
G1 X126.048 Y100.608 E0.76595
G1 X126.895 Y101.011 E0.79715
G1 X127.839 Y101.573 E0.83369
G1 X128.197 Y101.811 E0.84798
G1 X128.917 Y102.332 E0.87754
G1 X129.917 Y103.222 E0.92207
G1 X130.702 Y104.011 E0.95909
G1 X131.375 Y104.672 E0.99046
G1 X131.883 Y105.189 E1.01457
G1 X132.51 Y105.887 E1.04578
G1 X133.163 Y106.766 E1.0822
G1 X133.413 Y107.14 E1.09716
G1 X133.901 Y107.941 E1.12836
G1 X134.457 Y109.108 E1.17135
G1 X134.739 Y109.802 E1.19627
G1 X135.294 Y111.119 E1.2438
G1 X135.495 Y111.616 E1.26163
G1 X135.807 Y112.5 E1.29281
G1 X135.963 Y113.064 E1.31227
G1 X136.005 Y113.233 E1.31806
G1 X136.167 Y114.001 E1.34417
G1 X136.215 Y114.277 E1.35349
G1 X136.336 Y115.207 E1.38468
G1 X136.378 Y116.119 E1.41505
G1 X136.381 Y117.29 E1.45399
G1 X136.377 Y117.732 E1.4687
G1 X136.38 Y118.034 E1.47874
G1 X136.378 Y118.859 E1.50618
G1 X136.336 Y119.796 E1.53738
G1 X136.226 Y120.655 E1.56618
G1 X136.185 Y120.899 E1.57441
G1 X136.041 Y121.61 E1.59854
G1 X135.992 Y121.817 E1.60561
G1 X135.737 Y122.719 E1.63679
G1 X135.453 Y123.487 E1.66402
G1 X134.964 Y124.667 E1.70651
G1 X134.883 Y124.855 E1.71332
G1 X134.565 Y125.639 E1.74145
G1 X134.397 Y126.036 E1.75579
G1 X133.995 Y126.883 E1.78698
G1 X133.427 Y127.839 E1.82396
G1 X133.181 Y128.209 E1.83874
G1 X132.629 Y128.967 E1.86993
G1 X131.769 Y129.927 E1.9128
G1 X131.053 Y130.637 E1.94633
G1 X130.335 Y131.368 E1.98041
G1 X129.813 Y131.881 E2.00476
G1 X129.116 Y132.508 E2.03594
G1 X128.235 Y133.163 E2.07245
G1 X127.879 Y133.401 E2.08669
G1 X127.461 Y133.666 E2.10315
G1 X126.64 Y134.119 E2.13434
G1 X125.895 Y134.456 E2.16154
G1 X125.124 Y134.77 E2.18923
G1 X123.677 Y135.378 E2.24143
G1 X123.375 Y135.499 E2.25225
G1 X122.49 Y135.81 E2.28345
G1 X121.922 Y135.967 E2.30305
G1 X121.752 Y136.009 E2.30888
G1 X121.014 Y136.165 E2.33396
G1 X120.746 Y136.212 E2.34301
G1 X119.816 Y136.334 E2.37421
G1 X118.9 Y136.377 E2.40471
G1 X117.874 Y136.382 E2.43884
G1 X117.181 Y136.378 E2.46189
G1 X116.963 Y136.38 E2.46914
G1 X116.141 Y136.378 E2.49648
G1 X115.204 Y136.336 E2.52767
G1 X114.346 Y136.226 E2.55644
G1 X114.096 Y136.184 E2.56487
G1 X113.373 Y136.037 E2.58941
G1 X113.167 Y135.988 E2.59646
G1 X112.264 Y135.733 E2.62766
G1 X111.506 Y135.451 E2.65456
G1 X110.304 Y134.952 E2.69785
G1 X110.157 Y134.888 E2.70318
G1 X109.346 Y134.56 E2.73228
G1 X108.946 Y134.39 E2.74674
G1 X108.1 Y133.986 E2.77792
G1 X107.153 Y133.422 E2.81458
G1 X106.788 Y133.179 E2.82916
G1 X106.03 Y132.627 E2.86035
G1 X105.081 Y131.776 E2.90275
G1 X104.368 Y131.058 E2.9364
G1 X103.629 Y130.332 E2.97086
G1 X103.476 Y130.179 E2.97805
G1 X103.118 Y129.813 E2.99508
G1 X102.492 Y129.115 E3.02627
G1 X101.837 Y128.234 E3.06278
G1 X101.587 Y127.86 E3.07774
G1 X101.099 Y127.059 E3.10894
G1 X100.543 Y125.892 E3.15193
G1 X100.261 Y125.198 E3.17685
G1 X99.706 Y123.881 E3.22438
G1 X99.505 Y123.384 E3.24221
G1 X99.193 Y122.5 E3.27339
G1 X99.037 Y121.936 E3.29286
G1 X98.995 Y121.767 E3.29865
G1 X98.827 Y120.966 E3.32587
G1 X98.779 Y120.685 E3.33535
G1 X98.661 Y119.755 E3.36653
G1 X98.622 Y118.876 E3.39579
G1 X98.619 Y117.71 E3.43458
G1 X98.623 Y117.29 E3.44855
G1 X98.62 Y116.949 E3.45989
G1 X98.622 Y116.14 E3.4868
G1 X98.664 Y115.203 E3.51799
G1 X98.775 Y114.337 E3.54703
G1 X98.817 Y114.088 E3.55543
G1 X98.959 Y113.387 E3.57922
G1 X99.007 Y113.184 E3.58616
G1 X99.262 Y112.281 E3.61737
G1 X99.55 Y111.504 E3.64493
G1 X100.04 Y110.323 E3.68745
G1 X100.112 Y110.157 E3.69347
G1 X100.376 Y109.502 E3.71696
G1 X100.605 Y108.958 E3.73659
G1 X101.008 Y108.111 E3.76779
G1 X101.573 Y107.161 E3.80455
G1 X101.815 Y106.797 E3.81909
G1 X102.181 Y106.279 E3.84019
G1 X102.775 Y105.553 E3.87138
G1 X103.233 Y105.071 E3.8935
G1 X103.947 Y104.363 E3.92694
G1 X104.668 Y103.629 E3.96116
G0 F6000 X105.081 Y103.781
G1 F1200 X105.438 Y103.43 E3.97781
G1 X106.456 Y102.55 E4.02257
G1 X107.032 Y102.139 E4.04611
G1 X107.389 Y101.902 E4.06036
G1 X108.178 Y101.426 E4.09101
G1 X109.254 Y100.916 E4.13061
G1 X110.007 Y100.609 E4.15766
G1 X111.317 Y100.058 E4.20492
G1 X111.77 Y99.875 E4.22117
G1 X112.638 Y99.569 E4.25179
G1 X113.147 Y99.428 E4.26935
G1 X113.315 Y99.386 E4.27511
G1 X114.05 Y99.23 E4.3001
G1 X114.323 Y99.182 E4.30932
G1 X115.236 Y99.062 E4.33995
G1 X116.117 Y99.022 E4.36928
G1 X117.138 Y99.018 E4.40324
G1 X117.738 Y99.024 E4.4232
G1 X118.036 Y99.02 E4.43311
G1 X118.859 Y99.022 E4.46048
G1 X119.778 Y99.064 E4.49108
G1 X120.596 Y99.17 E4.51852
G1 X120.845 Y99.212 E4.52692
G1 X121.535 Y99.352 E4.55033
G1 X121.741 Y99.401 E4.55737
G1 X122.626 Y99.652 E4.58797
G1 X123.343 Y99.919 E4.61342
G1 X124.508 Y100.403 E4.65538
G1 X124.674 Y100.474 E4.66138
G1 X125.494 Y100.807 E4.69082
G1 X125.892 Y100.976 E4.7052
G1 X126.723 Y101.372 E4.73582
G1 X127.617 Y101.906 E4.77045
G1 X127.975 Y102.144 E4.78475
G1 X128.67 Y102.647 E4.81329
G1 X129.633 Y103.504 E4.85616
G1 X130.422 Y104.297 E4.89337
G1 X131.095 Y104.958 E4.92474
G1 X131.597 Y105.469 E4.94857
G1 X132.212 Y106.154 E4.97919
G1 X132.83 Y106.988 E5.01371
G1 X133.08 Y107.362 E5.02867
G1 X133.558 Y108.149 E5.0593
G1 X134.087 Y109.259 E5.1002
G1 X134.41 Y110.052 E5.12868
G1 X134.993 Y111.439 E5.17872
G1 X135.124 Y111.765 E5.1904
G1 X135.429 Y112.633 E5.221
G1 X135.575 Y113.16 E5.23919
G1 X135.617 Y113.329 E5.24498
G1 X135.773 Y114.07 E5.27017
G1 X135.821 Y114.346 E5.27949
G1 X135.939 Y115.259 E5.31011
G1 X135.978 Y116.12 E5.33877
G1 X135.981 Y117.286 E5.37755
G1 X135.977 Y117.735 E5.39249
G1 X135.98 Y118.033 E5.4024
G1 X135.978 Y118.858 E5.42984
G1 X135.936 Y119.777 E5.46044
G1 X135.831 Y120.589 E5.48767
G1 X135.79 Y120.833 E5.4959
G1 X135.652 Y121.518 E5.51914
G1 X135.603 Y121.725 E5.52621
G1 X135.352 Y122.611 E5.55684
G1 X135.083 Y123.334 E5.5825
G1 X134.596 Y124.509 E5.6248
G1 X134.525 Y124.675 E5.63081
G1 X134.197 Y125.483 E5.65981
G1 X134.029 Y125.88 E5.67415
G1 X133.634 Y126.711 E5.70475
G1 X133.094 Y127.618 E5.73986
G1 X132.848 Y127.988 E5.75464
G1 X132.306 Y128.732 E5.78526
G1 X131.487 Y129.643 E5.826
G1 X130.769 Y130.355 E5.85963
G1 X130.05 Y131.087 E5.89376
G1 X129.903 Y131.234 E5.90067
G1 X129.534 Y131.595 E5.91784
G1 X128.848 Y132.21 E5.94849
G1 X128.012 Y132.83 E5.9831
G1 X127.656 Y133.068 E5.99735
G1 X127.253 Y133.325 E6.01324
G1 X126.447 Y133.769 E6.04385
G1 X125.744 Y134.085 E6.06949
G1 X125.053 Y134.367 E6.09431
G1 X123.699 Y134.937 E6.14317
G1 X123.226 Y135.128 E6.16014
G1 X122.358 Y135.433 E6.19074
G1 X121.826 Y135.579 E6.20909
G1 X121.656 Y135.621 E6.21491
G1 X120.945 Y135.771 E6.23908
G1 X120.677 Y135.818 E6.24813
G1 X119.764 Y135.937 E6.27875
G1 X118.898 Y135.977 E6.30759
G1 X117.872 Y135.982 E6.34171
G1 X117.262 Y135.976 E6.362
G1 X116.964 Y135.98 E6.37191
G1 X116.142 Y135.978 E6.39925
G1 X115.223 Y135.936 E6.42985
G1 X114.412 Y135.832 E6.45705
G1 X114.162 Y135.79 E6.46548
G1 X113.465 Y135.648 E6.48914
G1 X113.259 Y135.599 E6.49618
G1 X112.374 Y135.348 E6.52677
G1 X111.659 Y135.081 E6.55216
G1 X110.463 Y134.585 E6.59522
G1 X110.317 Y134.522 E6.60051
G1 X109.503 Y134.192 E6.62973
G1 X109.103 Y134.022 E6.64418
G1 X108.272 Y133.625 E6.67481
G1 X107.375 Y133.089 E6.70957
G1 X107.01 Y132.846 E6.72415
G1 X106.266 Y132.303 E6.75479
G1 X105.365 Y131.494 E6.79506
G1 X104.649 Y130.773 E6.82886
G1 X103.909 Y130.046 E6.86336
G1 X103.762 Y129.899 E6.87028
G1 X103.404 Y129.533 E6.88731
G1 X102.79 Y128.848 E6.9179
G1 X102.17 Y128.012 E6.95252
G1 X101.92 Y127.638 E6.96748
G1 X101.442 Y126.851 E6.99811
G1 X100.913 Y125.741 E7.039
G1 X100.579 Y124.92 E7.06848
G1 X100.007 Y123.561 E7.11752
G1 X99.876 Y123.235 E7.12921
G1 X99.571 Y122.367 E7.15981
G1 X99.425 Y121.84 E7.178
G1 X99.383 Y121.671 E7.18379
G1 X99.221 Y120.899 E7.21003
G1 X99.173 Y120.618 E7.21951
G1 X99.058 Y119.704 E7.25015
G1 X99.022 Y118.875 E7.27775
G1 X99.019 Y117.714 E7.31636
G1 X99.023 Y117.286 E7.3306
G1 X99.02 Y116.95 E7.34177
G1 X99.022 Y116.141 E7.36868
G1 X99.064 Y115.221 E7.39931
G1 X99.17 Y114.404 E7.42671
G1 X99.212 Y114.155 E7.43511
G1 X99.348 Y113.479 E7.45805
G1 X99.396 Y113.276 E7.46498
G1 X99.647 Y112.39 E7.49561
G1 X99.919 Y111.658 E7.52159
G1 X100.347 Y110.625 E7.55878
G1 X100.47 Y110.339 E7.56913
G1 X100.747 Y109.652 E7.59377
G1 X100.974 Y109.114 E7.61319
G1 X101.369 Y108.283 E7.64379
G1 X101.906 Y107.382 E7.67868
G1 X102.148 Y107.018 E7.69322
G1 X102.501 Y106.519 E7.71355
G1 X103.085 Y105.807 E7.74417
G1 X103.515 Y105.355 E7.76492
G1 X104.232 Y104.644 E7.79851
G1 X105.081 Y103.781 E7.83877
G0 F6000 X105.362 Y104.067
G1 F1200 X105.719 Y103.716 E7.85543
G1 X106.698 Y102.868 E7.8985
G1 X107.254 Y102.472 E7.92121
G1 X107.611 Y102.235 E7.93546
G1 X108.384 Y101.769 E7.96548
G1 X109.405 Y101.286 E8.00305
G1 X110.208 Y100.959 E8.03188
G1 X111.63 Y100.362 E8.08318
G1 X111.919 Y100.246 E8.09354
G1 X112.771 Y99.947 E8.12357
G1 X113.244 Y99.817 E8.13988
G1 X113.412 Y99.775 E8.14564
G1 X114.12 Y99.624 E8.16972
G1 X114.393 Y99.576 E8.17894
G1 X115.288 Y99.459 E8.20896
G1 X116.119 Y99.422 E8.23663
G1 X117.14 Y99.418 E8.27059
G1 X117.741 Y99.424 E8.29058
G1 X118.035 Y99.42 E8.30036
G1 X118.858 Y99.422 E8.32773
G1 X119.76 Y99.464 E8.35776
G1 X120.53 Y99.564 E8.38359
G1 X120.779 Y99.606 E8.39199
G1 X121.442 Y99.741 E8.41449
G1 X121.648 Y99.79 E8.42153
G1 X122.517 Y100.038 E8.45159
G1 X123.19 Y100.289 E8.47548
G1 X124.349 Y100.77 E8.51722
G1 X124.528 Y100.847 E8.5237
G1 X125.338 Y101.175 E8.55276
G1 X125.736 Y101.344 E8.56715
G1 X126.55 Y101.734 E8.59717
G1 X127.396 Y102.239 E8.62994
G1 X127.754 Y102.477 E8.64424
G1 X128.423 Y102.962 E8.67172
G1 X129.35 Y103.786 E8.71297
G1 X130.202 Y104.642 E8.75314
G1 X130.814 Y105.243 E8.78167
G1 X130.96 Y105.389 E8.78854
G1 X131.311 Y105.748 E8.80524
G1 X131.913 Y106.421 E8.83527
G1 X132.498 Y107.211 E8.86796
G1 X132.748 Y107.585 E8.88293
G1 X133.216 Y108.357 E8.91295
G1 X133.716 Y109.409 E8.95169
G1 X134.041 Y110.209 E8.98041
G1 X134.621 Y111.588 E9.03017
G1 X134.752 Y111.914 E9.04186
G1 X135.052 Y112.766 E9.0719
G1 X135.187 Y113.257 E9.08884
G1 X135.229 Y113.426 E9.09463
G1 X135.379 Y114.138 E9.11883
G1 X135.427 Y114.414 E9.12815
G1 X135.542 Y115.31 E9.15819
G1 X135.578 Y116.122 E9.18523
G1 X135.581 Y117.282 E9.22381
G1 X135.576 Y117.738 E9.23898
G1 X135.58 Y118.032 E9.24875
G1 X135.578 Y118.857 E9.27619
G1 X135.536 Y119.759 E9.30623
G1 X135.437 Y120.522 E9.33182
G1 X135.396 Y120.766 E9.34005
G1 X135.263 Y121.426 E9.36244
G1 X135.214 Y121.633 E9.36951
G1 X134.967 Y122.501 E9.39953
G1 X134.714 Y123.181 E9.42366
G1 X134.229 Y124.35 E9.46576
G1 X134.152 Y124.529 E9.47224
G1 X133.829 Y125.327 E9.50087
G1 X133.661 Y125.724 E9.51521
G1 X133.272 Y126.539 E9.54525
G1 X132.761 Y127.396 E9.57843
G1 X132.515 Y127.766 E9.59321
G1 X131.982 Y128.496 E9.62327
G1 X131.206 Y129.359 E9.66187
G1 X130.445 Y130.114 E9.69753
G1 X129.764 Y130.807 E9.72984
G1 X129.623 Y130.948 E9.73648
G1 X129.254 Y131.309 E9.75365
G1 X128.581 Y131.911 E9.78368
G1 X127.79 Y132.498 E9.81644
G1 X127.434 Y132.736 E9.83068
G1 X127.045 Y132.983 E9.84601
G1 X126.254 Y133.418 E9.87603
G1 X125.593 Y133.715 E9.90014
G1 X124.87 Y134.01 E9.92611
G1 X123.544 Y134.568 E9.97396
G1 X123.078 Y134.756 E9.99067
G1 X122.225 Y135.055 E10.02073
G1 X121.73 Y135.19 E10.0378
G1 X121.56 Y135.232 E10.04362
G1 X120.876 Y135.377 E10.06688
G1 X120.608 Y135.424 E10.07593
G1 X119.712 Y135.54 E10.10598
G1 X118.896 Y135.577 E10.13315
G1 X117.87 Y135.582 E10.16727
G1 X117.259 Y135.576 E10.18759
G1 X116.965 Y135.58 E10.19737
G1 X116.143 Y135.578 E10.22471
G1 X115.241 Y135.536 E10.25475
G1 X114.478 Y135.437 E10.28034
G1 X114.228 Y135.395 E10.28877
G1 X113.558 Y135.259 E10.31151
G1 X113.352 Y135.21 E10.31855
G1 X112.483 Y134.962 E10.34861
G1 X111.811 Y134.712 E10.37245
G1 X110.772 Y134.282 E10.40985
G1 X110.464 Y134.149 E10.42101
G1 X109.835 Y133.896 E10.44356
G1 X109.259 Y133.653 E10.46435
G1 X108.445 Y133.264 E10.49436
G1 X107.596 Y132.756 E10.52727
G1 X107.231 Y132.513 E10.54185
G1 X106.503 Y131.98 E10.57186
G1 X105.649 Y131.212 E10.61006
G1 X104.931 Y130.489 E10.64395
G1 X104.19 Y129.761 E10.6785
G1 X104.048 Y129.619 E10.68518
G1 X103.69 Y129.253 E10.70221
G1 X103.088 Y128.58 E10.73224
G1 X102.502 Y127.789 E10.76498
G1 X102.252 Y127.415 E10.77995
G1 X101.784 Y126.643 E10.80997
G1 X101.284 Y125.591 E10.84871
G1 X100.95 Y124.77 E10.87819
G1 X100.379 Y123.412 E10.92719
G1 X100.248 Y123.086 E10.93888
G1 X99.948 Y122.234 E10.96892
G1 X99.813 Y121.743 E10.98586
G1 X99.771 Y121.574 E10.99165
G1 X99.616 Y120.831 E11.01689
G1 X99.568 Y120.55 E11.02637
G1 X99.455 Y119.654 E11.05641
G1 X99.422 Y118.873 E11.08241
G1 X99.419 Y117.718 E11.12083
G1 X99.423 Y117.282 E11.13533
G1 X99.42 Y116.951 E11.14634
G1 X99.422 Y116.142 E11.17324
G1 X99.464 Y115.24 E11.20328
G1 X99.564 Y114.47 E11.2291
G1 X99.606 Y114.221 E11.2375
G1 X99.738 Y113.571 E11.25956
G1 X99.786 Y113.368 E11.2665
G1 X100.032 Y112.499 E11.29654
G1 X100.289 Y111.811 E11.32097
G1 X100.775 Y110.64 E11.36314
G1 X100.843 Y110.483 E11.36883
G1 X101.118 Y109.801 E11.39328
G1 X101.342 Y109.27 E11.41245
G1 X101.731 Y108.455 E11.44249
G1 X102.239 Y107.604 E11.47545
G1 X102.481 Y107.24 E11.48999
G1 X102.821 Y106.759 E11.50958
G1 X103.394 Y106.061 E11.53962
G1 X103.796 Y105.639 E11.559
G1 X104.555 Y104.885 E11.59459
G1 X105.362 Y104.067 E11.63281
G1 F2700 E6.63281
;MESH:RaspiCam_Key.STL
G0 F6000 X115.198 Y108.429
G0 X116.807 Y109.2
G0 X116.659 Y110.193
G0 X117.244 Y110.309
G0 X119.06 Y110.368
;TYPE:WALL-INNER
G1 F2700 E11.63281
G1 F1200 X118.785 Y110.314 E11.64213
G1 X118.94 Y110.243 E11.64218
G1 X119.06 Y110.368 E11.64227
G0 F6000 X121.44 Y111.355
G1 F1200 X121.583 Y111.345 E11.64704
G1 X121.664 Y111.505 E11.653
G1 X121.44 Y111.355 E11.65603
G0 F6000 X123.492 Y113.329
G1 F1200 X123.655 Y113.397 E11.6619
G1 X123.641 Y113.554 E11.66715
G1 X123.492 Y113.329 E11.66986
G0 F6000 X124.63 Y115.94
G1 F1200 X124.751 Y116.076 E11.67591
G1 X124.684 Y116.202 E11.68066
G1 X124.63 Y115.94 E11.68315
G0 F6000 X124.686 Y118.785
G1 F1200 X124.754 Y118.954 E11.68921
G1 X124.632 Y119.06 E11.69458
G1 X124.686 Y118.785 E11.69743
G0 F6000 X123.645 Y121.44
G1 F1200 X123.633 Y121.621 E11.70347
G1 X123.495 Y121.664 E11.70827
G1 X123.645 Y121.44 E11.71079
G0 F6000 X121.671 Y123.492
G1 F1200 X121.603 Y123.655 E11.71667
G1 X121.446 Y123.641 E11.72191
G1 X121.671 Y123.492 E11.72462
G0 F6000 X119.06 Y124.63
G1 F1200 X118.924 Y124.751 E11.73068
G1 X118.798 Y124.684 E11.73542
G1 X119.06 Y124.63 E11.73791
G0 F6000 X116.215 Y124.686
