;FLAVOR:Marlin
;TIME:832
;Filament used: 0.36734m
;Layer height: 0.2
;MINX:85.523
;MINY:102.5
;MINZ:0.2
;MAXX:149.487
;MAXY:132.5
;MAXZ:10
;Generated with Cura_SteamEngine 4.13.1
M140 S60
M105
M190 S60
M104 S200
M105
M109 S200
M82 ;absolute extrusion mode
; Ender 3 Custom Start G-code
G92 E0 ; Reset Extruder
G28 ; Home all axes
G1 Z2.0 F3000 ; Move Z Axis up little to prevent scratching of Heat Bed
G1 X0.1 Y20 Z0.3 F5000.0 ; Move to start position
G1 X0.1 Y200.0 Z0.3 F1500.0 E15 ; Draw the first line
G1 X0.4 Y200.0 Z0.3 F5000.0 ; Move to side a little
G1 X0.4 Y20 Z0.3 F1500.0 E30 ; Draw the second line
G92 E0 ; Reset Extruder
G1 Z2.0 F3000 ; Move Z Axis up little to prevent scratching of Heat Bed
G1 X5 Y20 Z0.3 F5000.0 ; Move over to prevent blob squish
G92 E0
G92 E0
G1 F2700 E-5
;LAYER_COUNT:50
;LAYER:0
M107
G0 F6000 X90.808 Y106.074 Z0.2
;TYPE:SKIRT
G1 F2700 E0
G1 F1200 X91.135 Y105.803 E0.01413
G1 X92.128 Y105.07 E0.05518
G1 X92.296 Y104.96 E0.06186
G1 X92.708 Y104.703 E0.07801
G1 X93.072 Y104.487 E0.09208
G1 X94.154 Y103.924 E0.13265
G1 X94.342 Y103.839 E0.13951
G1 X94.811 Y103.64 E0.15646
G1 X95.206 Y103.483 E0.1706
G1 X96.366 Y103.095 E0.21128
G1 X96.578 Y103.037 E0.21859
G1 X97.059 Y102.917 E0.23508
G1 X97.44 Y102.831 E0.24807
G1 X98.641 Y102.629 E0.28858
G1 X98.847 Y102.606 E0.29547
G1 X99.346 Y102.562 E0.31213
G1 X99.787 Y102.533 E0.32683
G1 X100.161 Y102.515 E0.33928
G1 X100.537 Y102.505 E0.35179
G1 X101.006 Y102.5 E0.36739
G1 X133.793 Y102.5 E1.45789
G1 X134.752 Y102.512 E1.48979
G1 X135.337 Y102.536 E1.50927
G1 X135.591 Y102.553 E1.51773
G1 X136.129 Y102.602 E1.5357
G1 X136.395 Y102.633 E1.54461
G1 X137.001 Y102.721 E1.56498
G1 X137.076 Y102.734 E1.56751
G1 X137.638 Y102.846 E1.58657
G1 X137.972 Y102.922 E1.59796
G1 X138.571 Y103.076 E1.61853
G1 X138.804 Y103.143 E1.62659
G1 X139.626 Y103.415 E1.65539
G1 X139.866 Y103.505 E1.66392
G1 X140.283 Y103.671 E1.67885
G1 X140.651 Y103.832 E1.69221
G1 X140.94 Y103.965 E1.70279
G1 X141.899 Y104.465 E1.73876
G1 X142.133 Y104.602 E1.74778
G1 X142.368 Y104.744 E1.75691
G1 X142.573 Y104.871 E1.76493
G1 X143.489 Y105.504 E1.80196
G1 X143.732 Y105.691 E1.81216
G1 X144.421 Y106.268 E1.84205
G1 X144.64 Y106.467 E1.85189
G1 X145.24 Y107.056 E1.87986
G1 X145.579 Y107.415 E1.89628
G1 X146.248 Y108.193 E1.93041
G1 X146.384 Y108.367 E1.93775
G1 X147.026 Y109.282 E1.97493
G1 X147.347 Y109.792 E1.99497
G1 X147.813 Y110.606 E2.02617
G1 X148.051 Y111.096 E2.04429
G1 X148.172 Y111.362 E2.05401
G1 X148.42 Y111.954 E2.07536
G1 X148.549 Y112.288 E2.08726
G1 X148.917 Y113.418 E2.12679
G1 X149.026 Y113.827 E2.14087
G1 X149.176 Y114.468 E2.16276
G1 X149.224 Y114.704 E2.17078
G1 X149.372 Y115.63 E2.20196
G1 X149.418 Y116.122 E2.2184
G1 X149.462 Y116.746 E2.23921
G1 X149.487 Y117.718 E2.27155
G1 X149.485 Y117.829 E2.27524
G1 X149.462 Y118.377 E2.29348
G1 X149.445 Y118.627 E2.30181
G1 X149.39 Y119.208 E2.32123
G1 X149.355 Y119.496 E2.33087
G1 X149.143 Y120.687 E2.37111
G1 X149.052 Y121.074 E2.38433
G1 X148.84 Y121.846 E2.41096
G1 X148.74 Y122.165 E2.42208
G1 X148.4 Y123.101 E2.4552
G1 X148.286 Y123.375 E2.46507
G1 X148.077 Y123.846 E2.48221
G1 X147.975 Y124.062 E2.49016
G1 X147.549 Y124.874 E2.52065
G1 X147.306 Y125.287 E2.53659
G1 X147.167 Y125.513 E2.54542
G1 X146.619 Y126.321 E2.57789
G1 X146.438 Y126.564 E2.58797
G1 X145.875 Y127.259 E2.61771
G1 X145.692 Y127.467 E2.62693
G1 X144.977 Y128.206 E2.66113
G1 X144.56 Y128.599 E2.68019
G1 X143.78 Y129.269 E2.71439
G1 X143.612 Y129.4 E2.72147
G1 X142.733 Y130.018 E2.75721
G1 X142.264 Y130.315 E2.77568
G1 X141.037 Y130.987 E2.82221
G1 X140.761 Y131.116 E2.83234
G1 X140.081 Y131.407 E2.85694
G1 X139.751 Y131.535 E2.86871
G1 X138.63 Y131.902 E2.90794
G1 X138.128 Y132.037 E2.92523
G1 X137.172 Y132.249 E2.9578
G1 X136.944 Y132.289 E2.9655
G1 X136.44 Y132.365 E2.98245
G1 X135.735 Y132.435 E3.00602
G1 X135.314 Y132.463 E3.02005
G1 X134.971 Y132.48 E3.03147
G1 X134.49 Y132.494 E3.04748
G1 X133.945 Y132.5 E3.06561
G1 X101.028 Y132.498 E4.16043
G1 X100.322 Y132.488 E4.18391
G1 X99.937 Y132.476 E4.19673
G1 X99.734 Y132.466 E4.20349
G1 X99.217 Y132.428 E4.22073
G1 X98.803 Y132.388 E4.23456
G1 X97.626 Y132.209 E4.27416
G1 X97.467 Y132.176 E4.27956
G1 X96.97 Y132.061 E4.29653
G1 X96.537 Y131.95 E4.31139
G1 X95.357 Y131.576 E4.35257
G1 X95.152 Y131.498 E4.35986
G1 X94.681 Y131.306 E4.37678
G1 X94.292 Y131.137 E4.39088
G1 X93.189 Y130.583 E4.43194
G1 X93.043 Y130.499 E4.43754
G1 X92.648 Y130.26 E4.45289
G1 X92.275 Y130.024 E4.46758
G1 X91.297 Y129.328 E4.5075
G1 X91.129 Y129.194 E4.51465
G1 X90.682 Y128.817 E4.5341
G1 X90.359 Y128.53 E4.54847
G1 X89.489 Y127.666 E4.58925
G1 X89.363 Y127.526 E4.59551
G1 X89.069 Y127.186 E4.61046
G1 X88.803 Y126.865 E4.62433
G1 X88.071 Y125.873 E4.66533
G1 X87.959 Y125.702 E4.67213
G1 X87.699 Y125.286 E4.68845
G1 X87.479 Y124.915 E4.70279
G1 X86.889 Y123.772 E4.74558
G1 X86.809 Y123.592 E4.75213
G1 X86.637 Y123.182 E4.76692
G1 X86.481 Y122.789 E4.78098
G1 X86.084 Y121.592 E4.82293
G1 X86.025 Y121.373 E4.83047
G1 X85.92 Y120.95 E4.84496
G1 X85.835 Y120.576 E4.85772
G1 X85.629 Y119.358 E4.89881
G1 X85.604 Y119.134 E4.9063
G1 X85.558 Y118.602 E4.92406
G1 X85.532 Y118.187 E4.93789
G1 X85.523 Y116.958 E4.97877
G1 X85.533 Y116.755 E4.98553
G1 X85.569 Y116.257 E5.00214
G1 X85.61 Y115.825 E5.01657
G1 X85.787 Y114.648 E5.05616
G1 X85.823 Y114.473 E5.0621
G1 X85.944 Y113.95 E5.07996
G1 X86.052 Y113.53 E5.09438
G1 X86.432 Y112.336 E5.13606
G1 X86.517 Y112.114 E5.14396
G1 X86.705 Y111.655 E5.16046
G1 X86.867 Y111.283 E5.17395
G1 X87.428 Y110.171 E5.21538
G1 X87.517 Y110.017 E5.2213
G1 X87.751 Y109.63 E5.23634
G1 X87.985 Y109.261 E5.25087
G1 X88.706 Y108.255 E5.29204
G1 X88.838 Y108.091 E5.29904
G1 X89.183 Y107.683 E5.31681
G1 X89.469 Y107.361 E5.33113
G1 X90.288 Y106.532 E5.36989
G1 X90.422 Y106.41 E5.37592
G1 X90.808 Y106.074 E5.39294
G0 F6000 X91.063 Y106.382
G1 F1200 X91.39 Y106.111 E5.40707
G1 X92.347 Y105.405 E5.44662
G1 X92.515 Y105.295 E5.4533
G1 X92.913 Y105.047 E5.4689
G1 X93.277 Y104.831 E5.48297
G1 X94.319 Y104.288 E5.52205
G1 X94.507 Y104.203 E5.52892
G1 X94.959 Y104.012 E5.54524
G1 X95.354 Y103.855 E5.55938
G1 X96.472 Y103.481 E5.59859
G1 X96.684 Y103.423 E5.6059
G1 X97.147 Y103.307 E5.62177
G1 X97.528 Y103.221 E5.63476
G1 X98.686 Y103.026 E5.67382
G1 X98.892 Y103.003 E5.68071
G1 X99.372 Y102.961 E5.69674
G1 X99.813 Y102.932 E5.71144
G1 X100.174 Y102.914 E5.72346
G1 X100.542 Y102.905 E5.7357
G1 X101.006 Y102.9 E5.75114
G1 X133.793 Y102.9 E6.84164
G1 X134.746 Y102.912 E6.87334
G1 X135.31 Y102.935 E6.89211
G1 X135.564 Y102.952 E6.90058
G1 X136.083 Y102.999 E6.91791
G1 X136.349 Y103.03 E6.92682
G1 X136.932 Y103.115 E6.94641
G1 X137.007 Y103.128 E6.94895
G1 X137.549 Y103.236 E6.96733
G1 X137.883 Y103.312 E6.97872
G1 X138.46 Y103.461 E6.99854
G1 X138.693 Y103.528 E7.0066
G1 X139.486 Y103.79 E7.03438
G1 X139.726 Y103.88 E7.04291
G1 X140.129 Y104.04 E7.05733
G1 X140.483 Y104.196 E7.0702
G1 X140.772 Y104.329 E7.08078
G1 X141.697 Y104.81 E7.11545
G1 X141.931 Y104.947 E7.12447
G1 X142.362 Y105.211 E7.14128
G1 X143.245 Y105.821 E7.17698
G1 X143.488 Y106.008 E7.18718
G1 X144.152 Y106.564 E7.21598
G1 X144.371 Y106.763 E7.22582
G1 X144.949 Y107.33 E7.25275
G1 X145.288 Y107.689 E7.26918
G1 X145.933 Y108.439 E7.30208
G1 X146.069 Y108.613 E7.30942
G1 X146.688 Y109.495 E7.34526
G1 X147.009 Y110.005 E7.3653
G1 X147.465 Y110.804 E7.3959
G1 X147.687 Y111.262 E7.41283
G1 X147.808 Y111.528 E7.42255
G1 X148.047 Y112.098 E7.44311
G1 X148.176 Y112.432 E7.45502
G1 X148.531 Y113.521 E7.49311
G1 X148.64 Y113.93 E7.50719
G1 X148.784 Y114.547 E7.52826
G1 X148.832 Y114.783 E7.53627
G1 X149.019 Y116.15 E7.58216
G1 X149.063 Y116.774 E7.60297
G1 X149.087 Y117.711 E7.63414
G1 X149.085 Y117.822 E7.63784
G1 X149.063 Y118.35 E7.65541
G1 X149.046 Y118.6 E7.66375
G1 X148.993 Y119.16 E7.68246
G1 X148.958 Y119.448 E7.69211
G1 X148.754 Y120.595 E7.73085
G1 X148.663 Y120.982 E7.74408
G1 X148.459 Y121.727 E7.76977
G1 X148.359 Y122.046 E7.78089
G1 X148.031 Y122.947 E7.81278
G1 X147.917 Y123.221 E7.82265
G1 X147.715 Y123.675 E7.83918
G1 X147.613 Y123.891 E7.84712
G1 X147.203 Y124.674 E7.87652
G1 X147.111 Y124.833 E7.88263
G1 X146.965 Y125.077 E7.89208
G1 X146.826 Y125.303 E7.90091
G1 X146.298 Y126.082 E7.93221
G1 X146.117 Y126.325 E7.94229
G1 X145.574 Y126.995 E7.97097
G1 X145.391 Y127.203 E7.98019
G1 X144.703 Y127.915 E8.01312
G1 X144.286 Y128.308 E8.03217
G1 X143.534 Y128.953 E8.06513
G1 X143.366 Y129.084 E8.07221
G1 X142.519 Y129.68 E8.10666
G1 X142.05 Y129.977 E8.12512
G1 X140.867 Y130.625 E8.16999
G1 X140.591 Y130.754 E8.18012
G1 X139.936 Y131.034 E8.20381
G1 X139.606 Y131.162 E8.21558
G1 X138.526 Y131.515 E8.25337
G1 X138.024 Y131.65 E8.27066
G1 X137.103 Y131.855 E8.30205
G1 X136.875 Y131.895 E8.30975
G1 X136.388 Y131.968 E8.32612
G1 X135.708 Y132.036 E8.34885
G1 X135.287 Y132.064 E8.36289
G1 X134.957 Y132.08 E8.37388
G1 X134.486 Y132.094 E8.38955
G1 X133.945 Y132.1 E8.40754
G1 X101.034 Y132.098 E9.50217
G1 X100.328 Y132.088 E9.52565
G1 X99.956 Y132.076 E9.53803
G1 X99.753 Y132.066 E9.54479
G1 X99.256 Y132.03 E9.56136
G1 X98.842 Y131.99 E9.5752
G1 X97.707 Y131.818 E9.61338
G1 X97.548 Y131.785 E9.61878
G1 X97.07 Y131.674 E9.6351
G1 X96.637 Y131.563 E9.64997
G1 X95.499 Y131.202 E9.68968
G1 X95.294 Y131.124 E9.69697
G1 X94.84 Y130.939 E9.71328
G1 X94.451 Y130.77 E9.72739
G1 X93.389 Y130.236 E9.76692
G1 X93.243 Y130.152 E9.77252
G1 X92.861 Y129.922 E9.78735
G1 X92.488 Y129.686 E9.80204
G1 X91.546 Y129.015 E9.8405
G1 X91.378 Y128.881 E9.84765
G1 X90.947 Y128.518 E9.86639
G1 X90.624 Y128.231 E9.88076
G1 X89.786 Y127.398 E9.92006
G1 X89.66 Y127.258 E9.92633
G1 X89.377 Y126.93 E9.94074
G1 X89.111 Y126.609 E9.9546
G1 X88.406 Y125.654 E9.99408
G1 X88.294 Y125.483 E10.00088
G1 X88.044 Y125.082 E10.0166
G1 X87.824 Y124.711 E10.03094
G1 X87.255 Y123.609 E10.07219
G1 X87.175 Y123.429 E10.07875
G1 X87.009 Y123.035 E10.09297
G1 X86.853 Y122.642 E10.10703
G1 X86.47 Y121.488 E10.14747
G1 X86.411 Y121.269 E10.15501
G1 X86.31 Y120.861 E10.16899
G1 X86.225 Y120.487 E10.18175
G1 X86.026 Y119.314 E10.22132
G1 X86.001 Y119.09 E10.22882
G1 X85.957 Y118.577 E10.24594
G1 X85.931 Y118.162 E10.25977
G1 X85.923 Y116.977 E10.29919
G1 X85.933 Y116.774 E10.30595
G1 X85.967 Y116.294 E10.32195
G1 X86.008 Y115.862 E10.33639
G1 X86.178 Y114.728 E10.37452
G1 X86.214 Y114.553 E10.38047
G1 X86.331 Y114.049 E10.39768
G1 X86.439 Y113.629 E10.4121
G1 X86.806 Y112.479 E10.45225
G1 X86.891 Y112.257 E10.46015
G1 X87.072 Y111.815 E10.47604
G1 X87.234 Y111.443 E10.48954
G1 X87.774 Y110.371 E10.52946
G1 X87.863 Y110.217 E10.53537
G1 X88.089 Y109.844 E10.54988
G1 X88.323 Y109.475 E10.56441
G1 X89.017 Y108.506 E10.60406
G1 X89.149 Y108.342 E10.61106
G1 X89.482 Y107.949 E10.62819
G1 X89.768 Y107.627 E10.64251
G1 X90.557 Y106.828 E10.67986
G1 X90.691 Y106.706 E10.68589
G1 X91.063 Y106.382 E10.7023
G0 F6000 X91.318 Y106.69
G1 F1200 X91.645 Y106.419 E10.71642
G1 X92.567 Y105.739 E10.75453
G1 X92.735 Y105.629 E10.76121
G1 X93.117 Y105.391 E10.77618
G1 X93.481 Y105.175 E10.79025
G1 X94.484 Y104.653 E10.82786
G1 X94.672 Y104.568 E10.83472
G1 X95.107 Y104.383 E10.85045
G1 X95.502 Y104.226 E10.86458
G1 X96.577 Y103.867 E10.90228
G1 X96.789 Y103.809 E10.90959
G1 X97.235 Y103.697 E10.92488
G1 X97.616 Y103.611 E10.93787
G1 X98.73 Y103.424 E10.97544
G1 X98.936 Y103.401 E10.98234
G1 X99.399 Y103.36 E10.9978
G1 X99.84 Y103.331 E11.0125
G1 X100.186 Y103.314 E11.02402
G1 X100.547 Y103.305 E11.03603
G1 X101.006 Y103.3 E11.0513
G1 X133.793 Y103.3 E12.1418
G1 X134.741 Y103.312 E12.17333
G1 X135.283 Y103.334 E12.19137
G1 X135.537 Y103.351 E12.19984
G1 X136.037 Y103.397 E12.21654
G1 X136.303 Y103.428 E12.22545
G1 X136.864 Y103.509 E12.2443
G1 X136.939 Y103.522 E12.24683
G1 X137.46 Y103.626 E12.2645
G1 X137.794 Y103.702 E12.27589
G1 X138.35 Y103.845 E12.29499
G1 X138.583 Y103.912 E12.30305
G1 X139.345 Y104.164 E12.32975
G1 X139.585 Y104.254 E12.33827
G1 X139.975 Y104.41 E12.35224
G1 X140.316 Y104.559 E12.36462
G1 X140.605 Y104.692 E12.3752
G1 X141.495 Y105.156 E12.40858
G1 X141.729 Y105.293 E12.4176
G1 X141.947 Y105.424 E12.42606
G1 X142.152 Y105.551 E12.43408
G1 X143.001 Y106.138 E12.46841
G1 X143.244 Y106.325 E12.47861
G1 X143.883 Y106.86 E12.50633
G1 X144.102 Y107.059 E12.51617
G1 X144.658 Y107.605 E12.54209
G1 X144.997 Y107.964 E12.55851
G1 X145.617 Y108.686 E12.59017
G1 X145.753 Y108.86 E12.59751
G1 X146.349 Y109.708 E12.63198
G1 X146.67 Y110.218 E12.65203
G1 X147.117 Y111.003 E12.68207
G1 X147.323 Y111.428 E12.69778
G1 X147.444 Y111.694 E12.7075
G1 X147.674 Y112.242 E12.72727
G1 X147.803 Y112.576 E12.73918
G1 X148.144 Y113.624 E12.77583
G1 X148.253 Y114.033 E12.78991
G1 X148.392 Y114.627 E12.8102
G1 X148.44 Y114.863 E12.81821
G1 X148.62 Y116.179 E12.86239
G1 X148.664 Y116.803 E12.88319
G1 X148.687 Y117.704 E12.91317
G1 X148.685 Y117.815 E12.91686
G1 X148.663 Y118.323 E12.93378
G1 X148.646 Y118.573 E12.94211
G1 X148.596 Y119.112 E12.96011
G1 X148.561 Y119.4 E12.96976
G1 X148.364 Y120.504 E13.00706
G1 X148.273 Y120.891 E13.02029
G1 X148.077 Y121.607 E13.04498
G1 X147.977 Y121.926 E13.0561
G1 X147.661 Y122.793 E13.08679
G1 X147.547 Y123.067 E13.09666
G1 X147.353 Y123.504 E13.11256
G1 X147.251 Y123.72 E13.12051
G1 X146.857 Y124.473 E13.14877
G1 X146.765 Y124.632 E13.15488
G1 X146.624 Y124.868 E13.16402
G1 X146.485 Y125.094 E13.17285
G1 X145.977 Y125.843 E13.20295
G1 X145.796 Y126.086 E13.21303
G1 X145.274 Y126.731 E13.24063
G1 X145.091 Y126.939 E13.24984
G1 X144.429 Y127.624 E13.28153
G1 X144.012 Y128.017 E13.30058
G1 X143.288 Y128.638 E13.33231
G1 X143.12 Y128.769 E13.33939
G1 X142.305 Y129.342 E13.37253
G1 X141.836 Y129.639 E13.39099
G1 X140.698 Y130.263 E13.43416
G1 X140.422 Y130.392 E13.44429
G1 X139.792 Y130.661 E13.46708
G1 X139.462 Y130.789 E13.47885
G1 X138.422 Y131.129 E13.51524
G1 X137.92 Y131.264 E13.53253
G1 X137.034 Y131.461 E13.56272
G1 X136.806 Y131.501 E13.57042
G1 X136.336 Y131.572 E13.58623
G1 X135.682 Y131.637 E13.60809
G1 X135.261 Y131.665 E13.62212
G1 X134.943 Y131.681 E13.63271
G1 X134.481 Y131.694 E13.64808
G1 X133.945 Y131.7 E13.66591
G1 X101.04 Y131.698 E14.76034
G1 X100.334 Y131.688 E14.78382
G1 X99.976 Y131.677 E14.79573
G1 X99.773 Y131.667 E14.80249
G1 X99.294 Y131.632 E14.81847
G1 X98.88 Y131.592 E14.8323
G1 X97.788 Y131.426 E14.86904
G1 X97.629 Y131.393 E14.87444
G1 X97.169 Y131.287 E14.89014
G1 X96.736 Y131.176 E14.90501
G1 X95.642 Y130.828 E14.94319
G1 X95.437 Y130.75 E14.95049
G1 X95 Y130.572 E14.96618
G1 X94.611 Y130.403 E14.98029
G1 X93.588 Y129.889 E15.01837
G1 X93.442 Y129.805 E15.02397
G1 X93.075 Y129.584 E15.03822
G1 X92.702 Y129.348 E15.0529
G1 X91.796 Y128.702 E15.08991
G1 X91.628 Y128.568 E15.09705
G1 X91.213 Y128.219 E15.11509
G1 X90.89 Y127.932 E15.12946
G1 X90.083 Y127.13 E15.1673
G1 X89.957 Y126.99 E15.17357
G1 X89.685 Y126.675 E15.18741
G1 X89.419 Y126.354 E15.20127
G1 X88.74 Y125.435 E15.23928
G1 X88.628 Y125.264 E15.24608
G1 X88.388 Y124.878 E15.2612
G1 X88.168 Y124.507 E15.27554
G1 X87.62 Y123.447 E15.31523
G1 X87.54 Y123.267 E15.32178
G1 X87.381 Y122.887 E15.33548
G1 X87.225 Y122.494 E15.34955
G1 X86.856 Y121.384 E15.38845
G1 X86.797 Y121.165 E15.39599
G1 X86.7 Y120.773 E15.40943
G1 X86.615 Y120.399 E15.42218
G1 X86.424 Y119.269 E15.4603
G1 X86.399 Y119.045 E15.4678
G1 X86.356 Y118.552 E15.48426
G1 X86.33 Y118.137 E15.49809
G1 X86.322 Y116.997 E15.536
G1 X86.332 Y116.794 E15.54276
G1 X86.366 Y116.332 E15.55817
G1 X86.407 Y115.9 E15.5726
G1 X86.57 Y114.809 E15.60929
G1 X86.606 Y114.634 E15.61524
G1 X86.718 Y114.149 E15.63179
G1 X86.826 Y113.729 E15.64621
G1 X87.179 Y112.622 E15.68486
G1 X87.264 Y112.4 E15.69277
G1 X87.438 Y111.974 E15.70807
G1 X87.6 Y111.602 E15.72157
G1 X88.121 Y110.571 E15.75999
G1 X88.21 Y110.417 E15.7659
G1 X88.427 Y110.058 E15.77986
G1 X88.661 Y109.689 E15.79439
G1 X89.329 Y108.757 E15.83253
G1 X89.461 Y108.593 E15.83953
G1 X89.781 Y108.214 E15.85603
G1 X90.067 Y107.892 E15.87035
G1 X90.826 Y107.124 E15.90626
G1 X90.96 Y107.002 E15.91229
G1 X91.318 Y106.69 E15.92809
G1 F2700 E10.92809
;MESH:long_focus_tool.stl
G0 F6000 X100.434 Y112.84
