;FLAVOR:Marlin
;TIME:2701
;Filament used: 1.13035m
;Layer height: 0.2
;MINX:89.305
;MINY:88.241
;MINZ:0.2
;MAXX:145.695
;MAXY:146.759
;MAXZ:30
;Generated with Cura_SteamEngine 4.13.1
M140 S60
M105
M190 S60
M104 S200
M105
M109 S200
M82 ;absolute extrusion mode
; Ender 3 Custom Start G-code
G92 E0 ; Reset Extruder
G28 ; Home all axes
G1 Z2.0 F3000 ; Move Z Axis up little to prevent scratching of Heat Bed
G1 X0.1 Y20 Z0.3 F5000.0 ; Move to start position
G1 X0.1 Y200.0 Z0.3 F1500.0 E15 ; Draw the first line
G1 X0.4 Y200.0 Z0.3 F5000.0 ; Move to side a little
G1 X0.4 Y20 Z0.3 F1500.0 E30 ; Draw the second line
G92 E0 ; Reset Extruder
G1 Z2.0 F3000 ; Move Z Axis up little to prevent scratching of Heat Bed
G1 X5 Y20 Z0.3 F5000.0 ; Move over to prevent blob squish
G92 E0
G92 E0
G1 F2700 E-5
;LAYER_COUNT:150
;LAYER:0
M107
G0 F6000 X93.738 Y92.037 Z0.2
;TYPE:SKIRT
G1 F2700 E0
G1 F1200 X93.806 Y91.974 E0.00308
G1 X94.207 Y91.62 E0.02087
G1 X94.432 Y91.431 E0.03065
G1 X95.113 Y90.903 E0.05931
G1 X95.211 Y90.833 E0.06331
G1 X95.571 Y90.587 E0.07782
G1 X95.76 Y90.463 E0.08533
G1 X96.647 Y89.938 E0.11962
G1 X96.766 Y89.875 E0.12409
G1 X97.202 Y89.657 E0.14031
G1 X97.451 Y89.539 E0.14947
G1 X98.291 Y89.183 E0.17982
G1 X98.424 Y89.133 E0.18454
G1 X98.922 Y88.959 E0.20209
G1 X99.161 Y88.882 E0.21044
G1 X100.361 Y88.569 E0.25169
G1 X100.624 Y88.516 E0.26061
G1 X101.846 Y88.34 E0.30167
G1 X102.307 Y88.3 E0.31706
G1 X103.051 Y88.261 E0.34184
G1 X104.007 Y88.243 E0.37365
G1 X104.214 Y88.241 E0.38053
G1 X116.086 Y88.241 E0.7754
G1 X116.943 Y88.252 E0.8039
G1 X117.879 Y88.305 E0.83508
G1 X118.808 Y88.438 E0.8663
G1 X119.722 Y88.65 E0.8975
G1 X120.614 Y88.939 E0.92869
G1 X121.478 Y89.302 E0.95986
G1 X122.309 Y89.738 E0.99107
G1 X123.099 Y90.243 E1.02226
G1 X123.844 Y90.814 E1.05348
G1 X124.537 Y91.445 E1.08465
G1 X125.173 Y92.134 E1.11584
G1 X125.749 Y92.874 E1.14703
G1 X126.26 Y93.661 E1.17824
G1 X126.803 Y94.707 E1.21743
G1 X127.335 Y95.881 E1.2603
G1 X127.439 Y96.12 E1.26897
G1 X128.488 Y98.356 E1.35112
G1 X129.631 Y100.627 E1.43568
G1 X130.823 Y102.836 E1.51917
G1 X132.083 Y105.019 E1.603
G1 X133.403 Y107.164 E1.68677
G1 X134.776 Y109.264 E1.77022
G1 X136.223 Y111.341 E1.85441
G1 X137.716 Y113.361 E1.93796
G1 X139.266 Y115.341 E2.02159
G1 X140.869 Y117.27 E2.10501
G1 X142.661 Y119.307 E2.19525
G1 X142.851 Y119.518 E2.20469
G1 X143.449 Y120.24 E2.23587
G1 X143.983 Y121.011 E2.26707
G1 X144.45 Y121.825 E2.29828
G1 X144.846 Y122.675 E2.32947
G1 X145.168 Y123.556 E2.36067
G1 X145.414 Y124.461 E2.39186
G1 X145.582 Y125.384 E2.42306
G1 X145.68 Y126.548 E2.46191
G1 X145.69 Y126.871 E2.47266
G1 X145.695 Y127.213 E2.48404
G1 X145.693 Y132.213 E2.65034
G1 X145.688 Y132.606 E2.66341
G1 X145.676 Y133.005 E2.67669
G1 X145.641 Y133.718 E2.70043
G1 X145.511 Y134.949 E2.7416
G1 X145.496 Y135.041 E2.7447
G1 X145.4 Y135.551 E2.76196
G1 X145.343 Y135.82 E2.77111
G1 X145.085 Y136.808 E2.80507
G1 X145.057 Y136.898 E2.80821
G1 X144.919 Y137.314 E2.82278
G1 X144.817 Y137.601 E2.83291
G1 X144.44 Y138.527 E2.86617
G1 X144.392 Y138.631 E2.86998
G1 X144.2 Y139.025 E2.88456
G1 X144.082 Y139.256 E2.89318
G1 X143.415 Y140.39 E2.93694
G1 X143.257 Y140.625 E2.94636
G1 X142.551 Y141.562 E2.98538
G1 X142.21 Y141.968 E3.00301
G1 X141.267 Y142.958 E3.04849
G1 X141.198 Y143.022 E3.05162
G1 X140.816 Y143.36 E3.06858
G1 X140.597 Y143.545 E3.07812
G1 X139.876 Y144.105 E3.10848
G1 X139.772 Y144.179 E3.11273
G1 X139.359 Y144.459 E3.12932
G1 X139.156 Y144.59 E3.13736
G1 X138.368 Y145.053 E3.16776
G1 X138.263 Y145.109 E3.17172
G1 X137.798 Y145.343 E3.18903
G1 X137.549 Y145.461 E3.1982
G1 X136.709 Y145.817 E3.22854
G1 X136.576 Y145.867 E3.23327
G1 X136.078 Y146.041 E3.25081
G1 X135.839 Y146.118 E3.25916
G1 X134.639 Y146.431 E3.30041
G1 X134.376 Y146.484 E3.30933
G1 X133.154 Y146.66 E3.3504
G1 X132.693 Y146.7 E3.36579
G1 X131.949 Y146.739 E3.39057
G1 X130.993 Y146.757 E3.42237
G1 X130.786 Y146.759 E3.42925
G1 X118.187 Y146.758 E3.8483
G1 X117.519 Y146.749 E3.87052
G1 X116.582 Y146.696 E3.90173
G1 X115.51 Y146.536 E3.93778
G1 X115.34 Y146.502 E3.94355
G1 X114.429 Y146.279 E3.97474
G1 X113.54 Y145.98 E4.00594
G1 X112.79 Y145.658 E4.03309
G1 X112.526 Y145.533 E4.0428
G1 X109.925 Y144.265 E4.13904
G1 X107.586 Y143.207 E4.22443
G1 X105.323 Y142.26 E4.30602
G1 X102.962 Y141.348 E4.3902
G1 X100.134 Y140.354 E4.4899
G1 X99.069 Y140.001 E4.52722
G1 X98.796 Y139.906 E4.53683
G1 X98.408 Y139.766 E4.55055
G1 X97.636 Y139.454 E4.57825
G1 X97.538 Y139.41 E4.58182
G1 X97.039 Y139.171 E4.60022
G1 X96.808 Y139.053 E4.60885
G1 X95.674 Y138.386 E4.65261
G1 X95.439 Y138.228 E4.66203
G1 X94.502 Y137.522 E4.70105
G1 X94.096 Y137.181 E4.71868
G1 X93.106 Y136.238 E4.76416
G1 X93.042 Y136.169 E4.76729
G1 X92.72 Y135.806 E4.78343
G1 X92.535 Y135.588 E4.79293
G1 X91.931 Y134.808 E4.82575
G1 X91.857 Y134.703 E4.83002
G1 X91.607 Y134.332 E4.8449
G1 X91.474 Y134.126 E4.85305
G1 X91.019 Y133.354 E4.88286
G1 X90.959 Y133.242 E4.88708
G1 X90.682 Y132.689 E4.90766
G1 X90.568 Y132.444 E4.91664
G1 X90.238 Y131.657 E4.94503
G1 X90.189 Y131.526 E4.94968
G1 X90.022 Y131.044 E4.96665
G1 X89.946 Y130.808 E4.97489
G1 X89.634 Y129.617 E5.01584
G1 X89.581 Y129.355 E5.02473
G1 X89.405 Y128.137 E5.06566
G1 X89.366 Y127.693 E5.08049
G1 X89.326 Y126.932 E5.10583
G1 X89.307 Y125.9 E5.14016
G1 X89.305 Y125.698 E5.14688
G1 X89.307 Y102.776 E5.90927
G1 X89.313 Y102.358 E5.92318
G1 X89.325 Y101.991 E5.93539
G1 X89.358 Y101.3 E5.9584
G1 X89.495 Y100.017 E6.00131
G1 X89.511 Y99.921 E6.00455
G1 X89.6 Y99.449 E6.02053
G1 X89.657 Y99.18 E6.02967
G1 X89.915 Y98.192 E6.06363
G1 X89.943 Y98.102 E6.06677
G1 X90.084 Y97.679 E6.0816
G1 X90.188 Y97.387 E6.09191
G1 X90.574 Y96.443 E6.12583
G1 X90.62 Y96.344 E6.12946
G1 X90.8 Y95.975 E6.14312
G1 X90.918 Y95.744 E6.15174
G1 X91.585 Y94.61 E6.1955
G1 X91.743 Y94.375 E6.20492
G1 X92.45 Y93.436 E6.24401
G1 X92.792 Y93.029 E6.2617
G1 X93.738 Y92.037 E6.30729
G0 F6000 X94.01 Y92.33
G1 F1200 X94.078 Y92.267 E6.31037
G1 X94.464 Y91.927 E6.32748
G1 X94.689 Y91.738 E6.33725
G1 X95.346 Y91.228 E6.36492
G1 X95.444 Y91.158 E6.36892
G1 X95.79 Y90.921 E6.38287
G1 X95.979 Y90.797 E6.39039
G1 X96.834 Y90.292 E6.42342
G1 X96.953 Y90.229 E6.42789
G1 X97.374 Y90.018 E6.44356
G1 X97.623 Y89.9 E6.45272
G1 X98.432 Y89.557 E6.48195
G1 X98.565 Y89.507 E6.48667
G1 X99.044 Y89.34 E6.50355
G1 X99.283 Y89.263 E6.5119
G1 X100.44 Y88.961 E6.55167
G1 X100.703 Y88.908 E6.56059
G1 X101.881 Y88.739 E6.60017
G1 X102.342 Y88.699 E6.61556
G1 X103.058 Y88.661 E6.63941
G1 X104.014 Y88.643 E6.67121
G1 X104.214 Y88.641 E6.67787
G1 X116.086 Y88.641 E7.07273
G1 X116.937 Y88.652 E7.10104
G1 X117.857 Y88.705 E7.13169
G1 X118.768 Y88.838 E7.16231
G1 X119.664 Y89.049 E7.19292
G1 X120.538 Y89.337 E7.22353
G1 X121.384 Y89.7 E7.25415
G1 X122.196 Y90.135 E7.28479
G1 X122.966 Y90.639 E7.3154
G1 X123.69 Y91.208 E7.34602
G1 X124.362 Y91.837 E7.37664
G1 X124.977 Y92.523 E7.40728
G1 X125.53 Y93.259 E7.4379
G1 X126.017 Y94.04 E7.46851
G1 X126.439 Y94.872 E7.49954
G1 X126.968 Y96.04 E7.54219
G1 X127.068 Y96.27 E7.55053
G1 X128.147 Y98.57 E7.63503
G1 X129.257 Y100.776 E7.71716
G1 X130.476 Y103.034 E7.80251
G1 X131.754 Y105.249 E7.88757
G1 X133.06 Y107.371 E7.97044
G1 X134.456 Y109.506 E8.05528
G1 X135.888 Y111.562 E8.13862
G1 X137.394 Y113.6 E8.2229
G1 X138.945 Y115.58 E8.30656
G1 X140.559 Y117.523 E8.39057
G1 X142.384 Y119.598 E8.48248
G1 X142.554 Y119.786 E8.49091
G1 X143.141 Y120.496 E8.52155
G1 X143.663 Y121.253 E8.55213
G1 X144.118 Y122.054 E8.58277
G1 X144.502 Y122.891 E8.6134
G1 X144.812 Y123.757 E8.64399
G1 X145.046 Y124.648 E8.67463
G1 X145.201 Y125.556 E8.70527
G1 X145.28 Y126.56 E8.73877
G1 X145.29 Y126.883 E8.74951
G1 X145.295 Y127.213 E8.76049
G1 X145.293 Y132.208 E8.92663
G1 X145.288 Y132.601 E8.9397
G1 X145.276 Y132.986 E8.95251
G1 X145.241 Y133.699 E8.97625
G1 X145.116 Y134.885 E9.01592
G1 X145.101 Y134.977 E9.01902
G1 X145.009 Y135.468 E9.03563
G1 X144.952 Y135.737 E9.04478
G1 X144.703 Y136.689 E9.07751
G1 X144.675 Y136.779 E9.08064
G1 X144.542 Y137.18 E9.09469
G1 X144.44 Y137.467 E9.10482
G1 X144.076 Y138.359 E9.13687
G1 X144.028 Y138.463 E9.14068
G1 X143.844 Y138.843 E9.15472
G1 X143.726 Y139.074 E9.16335
G1 X143.083 Y140.166 E9.2055
G1 X142.925 Y140.401 E9.21491
G1 X142.245 Y141.304 E9.25251
G1 X141.904 Y141.71 E9.27015
G1 X140.995 Y142.665 E9.314
G1 X140.926 Y142.729 E9.31713
G1 X140.558 Y143.055 E9.33348
G1 X140.339 Y143.24 E9.34302
G1 X139.644 Y143.779 E9.37227
G1 X139.54 Y143.853 E9.37651
G1 X139.143 Y144.122 E9.39246
G1 X138.94 Y144.253 E9.4005
G1 X138.18 Y144.7 E9.42982
G1 X138.075 Y144.756 E9.43378
G1 X137.626 Y144.982 E9.4505
G1 X137.377 Y145.1 E9.45967
G1 X136.568 Y145.443 E9.48889
G1 X136.435 Y145.493 E9.49362
G1 X135.956 Y145.66 E9.51049
G1 X135.717 Y145.737 E9.51884
G1 X134.56 Y146.039 E9.55861
G1 X134.297 Y146.092 E9.56754
G1 X133.119 Y146.261 E9.60712
G1 X132.658 Y146.301 E9.62251
G1 X131.942 Y146.339 E9.64636
G1 X130.986 Y146.357 E9.67816
G1 X130.786 Y146.359 E9.68481
G1 X118.192 Y146.358 E10.10369
G1 X117.524 Y146.349 E10.12591
G1 X116.605 Y146.297 E10.15652
G1 X115.588 Y146.144 E10.19073
G1 X115.418 Y146.11 E10.1965
G1 X114.524 Y145.891 E10.22711
G1 X113.652 Y145.594 E10.25775
G1 X112.961 Y145.296 E10.28278
G1 X112.697 Y145.171 E10.29249
G1 X110.057 Y143.885 E10.39016
G1 X107.799 Y142.864 E10.47259
G1 X105.411 Y141.864 E10.55869
G1 X103.102 Y140.972 E10.64102
G1 X100.283 Y139.981 E10.74041
G1 X99.195 Y139.621 E10.77852
G1 X98.931 Y139.53 E10.78781
G1 X98.543 Y139.39 E10.80153
G1 X97.799 Y139.089 E10.82823
G1 X97.701 Y139.045 E10.8318
G1 X97.221 Y138.815 E10.8495
G1 X96.99 Y138.697 E10.85813
G1 X95.898 Y138.054 E10.90028
G1 X95.663 Y137.896 E10.9097
G1 X94.76 Y137.216 E10.94729
G1 X94.354 Y136.875 E10.96493
G1 X93.399 Y135.966 E11.00878
G1 X93.335 Y135.897 E11.01191
G1 X93.025 Y135.548 E11.02744
G1 X92.84 Y135.33 E11.03695
G1 X92.258 Y134.577 E11.0686
G1 X92.184 Y134.472 E11.07287
G1 X91.943 Y134.115 E11.0872
G1 X91.81 Y133.909 E11.09535
G1 X91.371 Y133.166 E11.12406
G1 X91.311 Y133.054 E11.12828
G1 X91.044 Y132.52 E11.14814
G1 X90.93 Y132.275 E11.15713
G1 X90.613 Y131.517 E11.18445
G1 X90.564 Y131.386 E11.18911
G1 X90.402 Y130.921 E11.20548
G1 X90.326 Y130.685 E11.21373
G1 X90.026 Y129.538 E11.25316
G1 X89.973 Y129.276 E11.26205
G1 X89.804 Y128.102 E11.3015
G1 X89.765 Y127.658 E11.31633
G1 X89.726 Y126.925 E11.34074
G1 X89.705 Y125.698 E11.38156
G1 X89.707 Y102.782 E12.14375
G1 X89.713 Y102.364 E12.15765
G1 X89.724 Y102.01 E12.16943
G1 X89.757 Y101.319 E12.19244
G1 X89.889 Y100.082 E12.23382
G1 X89.905 Y99.986 E12.23705
G1 X89.991 Y99.532 E12.25242
G1 X90.048 Y99.263 E12.26157
G1 X90.297 Y98.311 E12.2943
G1 X90.325 Y98.221 E12.29743
G1 X90.46 Y97.814 E12.31169
G1 X90.564 Y97.522 E12.322
G1 X90.937 Y96.611 E12.35475
G1 X90.983 Y96.512 E12.35838
G1 X91.156 Y96.157 E12.37151
G1 X91.274 Y95.926 E12.38014
G1 X91.917 Y94.834 E12.42229
G1 X92.075 Y94.599 E12.43171
G1 X92.757 Y93.694 E12.4694
G1 X93.099 Y93.287 E12.48708
G1 X94.01 Y92.33 E12.53102
G0 F6000 X94.282 Y92.624
G1 F1200 X94.35 Y92.561 E12.53411
G1 X94.721 Y92.233 E12.55058
G1 X94.946 Y92.044 E12.56035
G1 X95.578 Y91.554 E12.58695
G1 X95.676 Y91.484 E12.59095
G1 X96.01 Y91.256 E12.6044
G1 X96.199 Y91.132 E12.61192
G1 X97.022 Y90.645 E12.64373
G1 X97.141 Y90.582 E12.64821
G1 X97.545 Y90.38 E12.66323
G1 X97.794 Y90.262 E12.6724
G1 X98.573 Y89.931 E12.70055
G1 X98.706 Y89.881 E12.70527
G1 X99.167 Y89.72 E12.72151
G1 X99.406 Y89.643 E12.72987
G1 X100.519 Y89.353 E12.76812
G1 X100.782 Y89.3 E12.77704
G1 X101.915 Y89.137 E12.81512
G1 X102.376 Y89.097 E12.83051
G1 X103.066 Y89.061 E12.85349
G1 X104.214 Y89.041 E12.89168
G1 X116.086 Y89.041 E13.28654
G1 X116.932 Y89.052 E13.31468
G1 X117.833 Y89.105 E13.3447
G1 X118.727 Y89.237 E13.37476
G1 X119.605 Y89.448 E13.40479
G1 X120.461 Y89.736 E13.43483
G1 X121.288 Y90.098 E13.46485
G1 X122.08 Y90.532 E13.49489
G1 X122.83 Y91.035 E13.52493
G1 X123.533 Y91.602 E13.55497
G1 X124.184 Y92.228 E13.58501
G1 X124.776 Y92.91 E13.61504
G1 X125.305 Y93.642 E13.64508
G1 X125.768 Y94.417 E13.67511
G1 X126.075 Y95.037 E13.69812
G1 X126.601 Y96.2 E13.74057
G1 X126.697 Y96.421 E13.74859
G1 X127.778 Y98.726 E13.83326
G1 X128.913 Y100.981 E13.91723
G1 X130.135 Y103.245 E14.0028
G1 X131.385 Y105.411 E14.08598
G1 X132.728 Y107.594 E14.17122
G1 X134.126 Y109.731 E14.25616
G1 X135.571 Y111.805 E14.34023
G1 X137.073 Y113.839 E14.42433
G1 X138.652 Y115.854 E14.50947
G1 X140.267 Y117.798 E14.59353
G1 X142.033 Y119.806 E14.68247
G1 X142.257 Y120.054 E14.69359
G1 X142.832 Y120.751 E14.72364
G1 X143.343 Y121.495 E14.75366
G1 X143.786 Y122.282 E14.7837
G1 X144.158 Y123.105 E14.81374
G1 X144.455 Y123.958 E14.84378
G1 X144.676 Y124.834 E14.87383
G1 X144.819 Y125.725 E14.90384
G1 X144.88 Y126.572 E14.93209
G1 X144.89 Y126.895 E14.94284
G1 X144.895 Y127.213 E14.95341
G1 X144.893 Y132.203 E15.11938
G1 X144.888 Y132.596 E15.13245
G1 X144.877 Y132.966 E15.14477
G1 X144.842 Y133.679 E15.16851
G1 X144.721 Y134.82 E15.20667
G1 X144.706 Y134.912 E15.20977
G1 X144.617 Y135.385 E15.22578
G1 X144.56 Y135.654 E15.23493
G1 X144.322 Y136.57 E15.2664
G1 X144.294 Y136.66 E15.26954
G1 X144.165 Y137.046 E15.28308
G1 X144.063 Y137.333 E15.29321
G1 X143.713 Y138.191 E15.32403
G1 X143.665 Y138.295 E15.32784
G1 X143.487 Y138.661 E15.34137
G1 X143.369 Y138.892 E15.35
G1 X142.751 Y139.943 E15.39055
G1 X142.593 Y140.178 E15.39997
G1 X141.939 Y141.047 E15.43614
G1 X141.598 Y141.453 E15.45378
G1 X140.723 Y142.371 E15.49596
G1 X140.654 Y142.435 E15.49909
G1 X140.3 Y142.749 E15.51483
G1 X140.081 Y142.934 E15.52436
G1 X139.413 Y143.453 E15.5525
G1 X139.309 Y143.527 E15.55674
G1 X138.926 Y143.786 E15.57212
G1 X138.723 Y143.917 E15.58016
G1 X137.992 Y144.347 E15.60836
G1 X137.887 Y144.403 E15.61232
G1 X137.455 Y144.62 E15.6284
G1 X137.206 Y144.738 E15.63757
G1 X136.427 Y145.069 E15.66572
G1 X136.294 Y145.119 E15.67044
G1 X135.833 Y145.28 E15.68669
G1 X135.594 Y145.357 E15.69504
G1 X134.481 Y145.647 E15.73329
G1 X134.218 Y145.7 E15.74221
G1 X133.085 Y145.863 E15.78029
G1 X132.624 Y145.903 E15.79568
G1 X131.934 Y145.939 E15.81866
G1 X130.786 Y145.959 E15.85685
G1 X118.198 Y145.958 E16.27552
G1 X117.53 Y145.949 E16.29774
G1 X116.628 Y145.897 E16.32779
G1 X115.667 Y145.752 E16.36012
G1 X115.497 Y145.718 E16.36589
G1 X114.62 Y145.502 E16.39593
G1 X113.765 Y145.209 E16.42599
G1 X113.132 Y144.935 E16.44893
G1 X112.868 Y144.81 E16.45864
G1 X110.247 Y143.533 E16.55562
G1 X107.94 Y142.489 E16.63984
G1 X105.574 Y141.498 E16.72516
G1 X103.242 Y140.598 E16.80829
G1 X100.382 Y139.592 E16.90913
G1 X99.321 Y139.241 E16.9463
G1 X99.067 Y139.154 E16.95523
G1 X98.679 Y139.014 E16.96895
G1 X97.963 Y138.724 E16.99464
G1 X97.865 Y138.68 E16.99822
G1 X97.403 Y138.458 E17.01526
G1 X97.172 Y138.34 E17.02389
G1 X96.121 Y137.722 E17.06444
G1 X95.886 Y137.564 E17.07386
G1 X95.017 Y136.91 E17.11004
G1 X94.611 Y136.569 E17.12767
G1 X93.693 Y135.694 E17.16985
G1 X93.629 Y135.625 E17.17298
G1 X93.33 Y135.289 E17.18794
G1 X93.145 Y135.071 E17.19745
G1 X92.585 Y134.347 E17.22789
G1 X92.511 Y134.242 E17.23217
G1 X92.279 Y133.899 E17.24594
G1 X92.146 Y133.693 E17.25409
G1 X91.724 Y132.977 E17.28174
G1 X91.664 Y132.865 E17.28596
G1 X91.407 Y132.351 E17.30508
G1 X91.293 Y132.106 E17.31406
G1 X90.987 Y131.376 E17.34039
G1 X90.938 Y131.245 E17.34504
G1 X90.783 Y130.799 E17.36075
G1 X90.707 Y130.563 E17.36899
G1 X90.419 Y129.458 E17.40697
G1 X90.366 Y129.196 E17.41586
G1 X90.202 Y128.067 E17.45381
G1 X90.163 Y127.623 E17.46863
G1 X90.126 Y126.918 E17.49211
G1 X90.105 Y125.698 E17.5327
G1 X90.107 Y102.788 E18.29469
G1 X90.113 Y102.37 E18.30859
G1 X90.124 Y102.029 E18.31994
G1 X90.157 Y101.338 E18.34295
G1 X90.284 Y100.148 E18.38275
G1 X90.3 Y100.052 E18.38599
G1 X90.383 Y99.615 E18.40078
G1 X90.44 Y99.346 E18.40993
G1 X90.678 Y98.43 E18.44141
G1 X90.706 Y98.34 E18.44454
G1 X90.837 Y97.948 E18.45829
G1 X90.941 Y97.656 E18.4686
G1 X91.3 Y96.78 E18.50009
G1 X91.346 Y96.681 E18.50372
G1 X91.513 Y96.339 E18.51638
G1 X91.631 Y96.108 E18.525
G1 X92.249 Y95.057 E18.56556
G1 X92.407 Y94.822 E18.57497
