; G-Code originally generated by Simplify3D(R) Version 4.1.2, based on proposed code by vector76
;M80 ; power supply on
G90
M82
M106 S0
M140 S60 ; custom bed temp
M190 S60 ; custom bed temp
M104 S200 T0 ; custom hot end temp
M109 S200 T0 ; custom hot end temp
G28 ; home all axes
;G29 ; probe ABL
;M420 S1 ; restore ABL mesh 
;customstart
; process Color1
; layer 1, Z = 0.200
T0
G92 E0.0000
G1 E-5 F2400 ; custom retraction
; skirt 1
G1 Z0.400 F1200
G1 X24.636000000000003 Y26.314 F6000
G1 Z0.200 F1200
G1 E0 F2400 ; custom un-retraction/prime
G92 E0.0000
G1 X26.314 Y24.636000000000003 E0.1023 F1800
G1 X53.686 Y24.636000000000003 E1.2822
G1 X55.364000000000004 Y26.314 E1.3844
G1 X55.364000000000004 Y53.686 E2.5643
G1 X53.686 Y55.364000000000004 E2.6666
G1 X26.314 Y55.364000000000004 E3.8465
G1 X24.636000000000003 Y53.686 E3.9487
G1 X24.636000000000003 Y26.314 E5.1286
G92 E0.0000
G1 E-5 F2400 ; custom retraction
G1 Z0.600 F1200
G1 X25.212000000000003 Y26.552 F6000
G1 Z0.200 F1200
G1 E0 F2400 ; custom un-retraction/prime
G92 E0.0000
G1 X26.552 Y25.212000000000003 E0.0817 F1800
G1 X53.448 Y25.212000000000003 E1.2410
G1 X54.788 Y26.552 E1.3227
G1 X54.788 Y53.448 E2.4820
G1 X53.448 Y54.788 E2.5637
G1 X26.552 Y54.788 E3.7231
G1 X25.212000000000003 Y53.448 E3.8048
G1 X25.212000000000003 Y26.552 E4.9641
G92 E0.0000
G1 E-5 F2400 ; custom retraction
; skirt 2
G1 Z0.400 F1200
G1 X24.636000000000003 Y166.314 F6000
G1 Z0.200 F1200
G1 E0 F2400 ; custom un-retraction/prime
G92 E0.0000
G1 X26.314 Y164.636 E0.1023 F1800
G1 X53.686 Y164.636 E1.2822
G1 X55.364000000000004 Y166.314 E1.3844
G1 X55.364000000000004 Y193.686 E2.5643
G1 X53.686 Y195.364 E2.6666
G1 X26.314 Y195.364 E3.8465
G1 X24.636000000000003 Y193.686 E3.9487
G1 X24.636000000000003 Y166.314 E5.1286
G92 E0.0000
G1 E-5 F2400 ; custom retraction
G1 Z0.600 F1200
G1 X25.212000000000003 Y166.552 F6000
G1 Z0.200 F1200
G1 E0 F2400 ; custom un-retraction/prime
G92 E0.0000
G1 X26.552 Y165.212 E0.0817 F1800
G1 X53.448 Y165.212 E1.2410
G1 X54.788 Y166.552 E1.3227
G1 X54.788 Y193.448 E2.4820
G1 X53.448 Y194.788 E2.5637
G1 X26.552 Y194.788 E3.7231
G1 X25.212000000000003 Y193.448 E3.8048
G1 X25.212000000000003 Y166.552 E4.9641
G92 E0.0000
G1 E-5 F2400 ; custom retraction
; skirt 3
G1 Z0.400 F1200
G1 X94.636 Y96.314 F6000
G1 Z0.200 F1200
G1 E0 F2400 ; custom un-retraction/prime
G92 E0.0000
G1 X96.314 Y94.636 E0.1023 F1800
G1 X123.686 Y94.636 E1.2822
G1 X125.364 Y96.314 E1.3844
G1 X125.364 Y123.686 E2.5643
G1 X123.686 Y125.364 E2.6666
G1 X96.314 Y125.364 E3.8465
G1 X94.636 Y123.686 E3.9487
G1 X94.636 Y96.314 E5.1286
G92 E0.0000
G1 E-5 F2400 ; custom retraction
G1 Z0.600 F1200
G1 X95.212 Y96.55199999999999 F6000
G1 Z0.200 F1200
G1 E0 F2400 ; custom un-retraction/prime
G92 E0.0000
G1 X96.55199999999999 Y95.212 E0.0817 F1800
G1 X123.44800000000001 Y95.212 E1.2410
G1 X124.788 Y96.55199999999999 E1.3227
G1 X124.788 Y123.44800000000001 E2.4820
G1 X123.44800000000001 Y124.788 E2.5637
G1 X96.55199999999999 Y124.788 E3.7231
G1 X95.212 Y123.44800000000001 E3.8048
G1 X95.212 Y96.55199999999999 E4.9641
G92 E0.0000
G1 E-5 F2400 ; custom retraction
; skirt 4
G1 Z0.400 F1200
G1 X164.636 Y26.314 F6000
G1 Z0.200 F1200
G1 E0 F2400 ; custom un-retraction/prime
G92 E0.0000
G1 X166.314 Y24.636000000000003 E0.1023 F1800
G1 X193.686 Y24.636000000000003 E1.2822
G1 X195.364 Y26.314 E1.3844
G1 X195.364 Y53.686 E2.5643
G1 X193.686 Y55.364000000000004 E2.6666
G1 X166.314 Y55.364000000000004 E3.8465
G1 X164.636 Y53.686 E3.9487
G1 X164.636 Y26.314 E5.1286
G92 E0.0000
G1 E-5 F2400 ; custom retraction
G1 Z0.600 F1200
G1 X165.212 Y26.552 F6000
G1 Z0.200 F1200
G1 E0 F2400 ; custom un-retraction/prime
G92 E0.0000
G1 X166.552 Y25.212000000000003 E0.0817 F1800
G1 X193.448 Y25.212000000000003 E1.2410
G1 X194.788 Y26.552 E1.3227
G1 X194.788 Y53.448 E2.4820
G1 X193.448 Y54.788 E2.5637
G1 X166.552 Y54.788 E3.7231
G1 X165.212 Y53.448 E3.8048
G1 X165.212 Y26.552 E4.9641
G92 E0.0000
G1 E-5 F2400 ; custom retraction
; skirt 5
G1 Z0.400 F1200
G1 X164.636 Y166.314 F6000
G1 Z0.200 F1200
G1 E0 F2400 ; custom un-retraction/prime
G92 E0.0000
G1 X166.314 Y164.636 E0.1023 F1800
G1 X193.686 Y164.636 E1.2822
G1 X195.364 Y166.314 E1.3844
G1 X195.364 Y193.686 E2.5643
G1 X193.686 Y195.364 E2.6666
G1 X166.314 Y195.364 E3.8465
G1 X164.636 Y193.686 E3.9487
G1 X164.636 Y166.314 E5.1286
G92 E0.0000
G1 E-5 F2400 ; custom retraction
G1 Z0.600 F1200
G1 X165.212 Y166.552 F6000
G1 Z0.200 F1200
G1 E0 F2400 ; custom un-retraction/prime
G92 E0.0000
G1 X166.552 Y165.212 E0.0817 F1800
G1 X193.448 Y165.212 E1.2410
G1 X194.788 Y166.552 E1.3227
G1 X194.788 Y193.448 E2.4820
G1 X193.448 Y194.788 E2.5637
G1 X166.552 Y194.788 E3.7231
G1 X165.212 Y193.448 E3.8048
G1 X165.212 Y166.552 E4.9641
G92 E0.0000
G1 E-5 F2400 ; custom retraction
; square 1
; feature inner perimeter
G1 Z0.600 F1200
G1 X27.787999999999997 Y27.787999999999997 F6000
G1 X27.787999999999997 Y28.201999999999998
G1 X28.939999999999998 Y28.939999999999998
G1 Z0.200 F1200
G1 E0 F2400 ; custom un-retraction/prime
G92 E0.0000
G1 X51.06 Y28.939999999999998 E0.9535 F1350
G1 X51.06 Y51.06 E1.9069
G1 X28.939999999999998 Y51.06 E2.8604
G1 X28.939999999999998 Y28.939999999999998 E3.8139
G1 X28.363999999999997 Y28.363999999999997 F6000
G92 E0.0000
G1 X51.636 Y28.363999999999997 E1.0031 F1350
G1 X51.636 Y51.636 E2.0063
G1 X28.363999999999997 Y51.636 E3.0094
G1 X28.363999999999997 Y28.363999999999997 E4.0125
; feature outer perimeter
G1 X27.787999999999997 Y27.787999999999997 F6000
G92 E0.0000
G1 X52.212 Y27.787999999999997 E1.0528 F900
G1 X52.212 Y52.212 E2.1056
G1 X27.787999999999997 Y52.212 E3.1584
G1 X27.787999999999997 Y27.787999999999997 E4.2111
; feature solid layer
G1 X50.465 Y29.286 F6000
G92 E0.0000
G1 X50.714 Y29.534999999999997 E0.0152 F1440
G1 X50.714 Y30.35 E0.0503
G1 X49.65 Y29.286 E0.1152
G1 X48.836 Y29.286 E0.1503
G1 X50.714 Y31.164 E0.2648
G1 X50.714 Y31.979 E0.2999
G1 X48.021 Y29.286 E0.4640
G1 X47.207 Y29.286 E0.4992
G1 X50.714 Y32.793 E0.7130
G1 X50.714 Y33.608 E0.7481
G1 X46.392 Y29.286 E1.0116
G1 X45.578 Y29.286 E1.0467
G1 X50.714 Y34.422 E1.3598
G1 X50.714 Y35.237 E1.3949
G1 X44.763 Y29.286 E1.7577
G1 X43.948 Y29.286 E1.7928
G1 X50.714 Y36.052 E2.2053
G1 X50.714 Y36.866 E2.2404
G1 X43.134 Y29.286 E2.7025
G1 X42.319 Y29.286 E2.7376
G1 X50.714 Y37.681 E3.2494
G1 X50.714 Y38.495 E3.2845
G1 X41.505 Y29.286 E3.8459
G1 X40.69 Y29.286 E3.8810
G1 X50.714 Y39.31 E4.4921
G1 X50.714 Y40.125 E4.5272
G1 X39.875 Y29.286 E5.1879
G1 X39.061 Y29.286 E5.2230
G1 X50.714 Y40.939 E5.9334
G1 X50.714 Y41.754 E5.9685
G1 X38.246 Y29.286 E6.7286
G1 X37.432 Y29.286 E6.7637
G1 X50.714 Y42.568 E7.5734
G1 X50.714 Y43.383 E7.6085
G1 X36.617 Y29.286 E8.4679
G1 X35.802 Y29.286 E8.5030
G1 X50.714 Y44.198 E9.4120
G1 X50.714 Y45.012 E9.4471
G1 X34.988 Y29.286 E10.4058
G1 X34.173 Y29.286 E10.4409
G1 X50.714 Y45.827 E11.4492
G1 X50.714 Y46.641 E11.4844
G1 X33.359 Y29.286 E12.5424
G1 X32.544 Y29.286 E12.5775
G1 X50.714 Y47.456 E13.6851
G1 X50.714 Y48.27 E13.7202
G1 X31.729999999999997 Y29.286 E14.8775
G1 X30.915 Y29.286 E14.9126
G1 X50.714 Y49.085 E16.1196
G1 X50.714 Y49.9 E16.1547
G1 X30.1 Y29.286 E17.4113
G1 X29.286 Y29.286 E17.4464
G1 X50.714 Y50.714 E18.7527
G1 X49.9 Y50.714 E18.7878
G1 X29.286 Y30.1 E20.0445
G1 X29.286 Y30.915 E20.0796
G1 X49.085 Y50.714 E21.2865
G1 X48.27 Y50.714 E21.3216
G1 X29.286 Y31.729999999999997 E22.4789
G1 X29.286 Y32.544 E22.5141
G1 X47.456 Y50.714 E23.6217
G1 X46.641 Y50.714 E23.6568
G1 X29.286 Y33.359 E24.7148
G1 X29.286 Y34.173 E24.7499
G1 X45.827 Y50.714 E25.7583
G1 X45.012 Y50.714 E25.7934
G1 X29.286 Y34.988 E26.7520
G1 X29.286 Y35.802 E26.7872
G1 X44.198 Y50.714 E27.6962
G1 X43.383 Y50.714 E27.7313
G1 X29.286 Y36.617 E28.5907
G1 X29.286 Y37.432 E28.6258
G1 X42.568 Y50.714 E29.4355
G1 X41.754 Y50.714 E29.4706
G1 X29.286 Y38.246 E30.2306
G1 X29.286 Y39.061 E30.2658
G1 X40.939 Y50.714 E30.9761
G1 X40.125 Y50.714 E31.0113
G1 X29.286 Y39.875 E31.6720
G1 X29.286 Y40.69 E31.7071
G1 X39.31 Y50.714 E32.3182
G1 X38.495 Y50.714 E32.3533
G1 X29.286 Y41.505 E32.9147
G1 X29.286 Y42.319 E32.9498
G1 X37.681 Y50.714 E33.4616
G1 X36.866 Y50.714 E33.4967
G1 X29.286 Y43.134 E33.9588
G1 X29.286 Y43.948 E33.9939
G1 X36.052 Y50.714 E34.4064
G1 X35.237 Y50.714 E34.4415
G1 X29.286 Y44.763 E34.8043
G1 X29.286 Y45.577 E34.8394
G1 X34.422 Y50.714 E35.1525
G1 X33.608 Y50.714 E35.1876
G1 X29.286 Y46.392 E35.4511
G1 X29.286 Y47.207 E35.4862
G1 X32.793 Y50.714 E35.7000
G1 X31.979 Y50.714 E35.7352
G1 X29.286 Y48.021 E35.8993
G1 X29.286 Y48.836 E35.9344
G1 X31.164 Y50.714 E36.0489
G1 X30.35 Y50.714 E36.0841
G1 X29.286 Y49.65 E36.1489
G1 X29.286 Y50.465 E36.1840
G1 X29.534999999999997 Y50.714 E36.1992
G92 E0.0000
G1 E-5 F2400 ; custom retraction
; square 2
; feature inner perimeter
G1 Z0.600 F1200
G1 X27.787999999999997 Y167.788 F6000
G1 X27.787999999999997 Y168.202
G1 X28.939999999999998 Y168.94
G1 Z0.200 F1200
G1 E0 F2400 ; custom un-retraction/prime
G92 E0.0000
G1 X51.06 Y168.94 E0.9535 F1350
G1 X51.06 Y191.06 E1.9069
G1 X28.939999999999998 Y191.06 E2.8604
G1 X28.939999999999998 Y168.94 E3.8139
G1 X28.363999999999997 Y168.364 F6000
G92 E0.0000
G1 X51.636 Y168.364 E1.0031 F1350
G1 X51.636 Y191.636 E2.0063
G1 X28.363999999999997 Y191.636 E3.0094
G1 X28.363999999999997 Y168.364 E4.0125
; feature outer perimeter
G1 X27.787999999999997 Y167.788 F6000
G92 E0.0000
G1 X52.212 Y167.788 E1.0528 F900
G1 X52.212 Y192.212 E2.1056
G1 X27.787999999999997 Y192.212 E3.1584
G1 X27.787999999999997 Y167.788 E4.2111
; feature solid layer
G1 X50.465 Y169.286 F6000
G92 E0.0000
G1 X50.714 Y169.535 E0.0152 F1440
G1 X50.714 Y170.35 E0.0503
G1 X49.65 Y169.286 E0.1152
G1 X48.836 Y169.286 E0.1503
G1 X50.714 Y171.164 E0.2648
G1 X50.714 Y171.97899999999998 E0.2999
G1 X48.021 Y169.286 E0.4640
G1 X47.207 Y169.286 E0.4992
G1 X50.714 Y172.793 E0.7130
G1 X50.714 Y173.608 E0.7481
G1 X46.392 Y169.286 E1.0116
G1 X45.578 Y169.286 E1.0467
G1 X50.714 Y174.422 E1.3598
G1 X50.714 Y175.237 E1.3949
G1 X44.763 Y169.286 E1.7577
G1 X43.948 Y169.286 E1.7928
G1 X50.714 Y176.052 E2.2053
G1 X50.714 Y176.86599999999999 E2.2404
G1 X43.134 Y169.286 E2.7025
G1 X42.319 Y169.286 E2.7376
G1 X50.714 Y177.68099999999998 E3.2494
G1 X50.714 Y178.495 E3.2845
G1 X41.505 Y169.286 E3.8459
G1 X40.69 Y169.286 E3.8810
G1 X50.714 Y179.31 E4.4921
G1 X50.714 Y180.125 E4.5272
G1 X39.875 Y169.286 E5.1879
G1 X39.061 Y169.286 E5.2230
G1 X50.714 Y180.939 E5.9334
G1 X50.714 Y181.754 E5.9685
G1 X38.246 Y169.286 E6.7286
G1 X37.432 Y169.286 E6.7637
G1 X50.714 Y182.56799999999998 E7.5734
G1 X50.714 Y183.383 E7.6085
G1 X36.617 Y169.286 E8.4679
G1 X35.802 Y169.286 E8.5030
G1 X50.714 Y184.198 E9.4120
G1 X50.714 Y185.012 E9.4471
G1 X34.988 Y169.286 E10.4058
G1 X34.173 Y169.286 E10.4409
G1 X50.714 Y185.827 E11.4492
G1 X50.714 Y186.641 E11.4844
G1 X33.359 Y169.286 E12.5424
G1 X32.544 Y169.286 E12.5775
G1 X50.714 Y187.45600000000002 E13.6851
G1 X50.714 Y188.27 E13.7202
G1 X31.729999999999997 Y169.286 E14.8775
G1 X30.915 Y169.286 E14.9126
G1 X50.714 Y189.085 E16.1196
G1 X50.714 Y189.9 E16.1547
G1 X30.1 Y169.286 E17.4113
G1 X29.286 Y169.286 E17.4464
G1 X50.714 Y190.714 E18.7527
G1 X49.9 Y190.714 E18.7878
G1 X29.286 Y170.1 E20.0445
G1 X29.286 Y170.915 E20.0796
G1 X49.085 Y190.714 E21.2865
G1 X48.27 Y190.714 E21.3216
G1 X29.286 Y171.73 E22.4789
G1 X29.286 Y172.54399999999998 E22.5141
G1 X47.456 Y190.714 E23.6217
G1 X46.641 Y190.714 E23.6568
G1 X29.286 Y173.359 E24.7148
G1 X29.286 Y174.173 E24.7499
G1 X45.827 Y190.714 E25.7583
G1 X45.012 Y190.714 E25.7934
G1 X29.286 Y174.988 E26.7520
G1 X29.286 Y175.802 E26.7872
G1 X44.198 Y190.714 E27.6962
G1 X43.383 Y190.714 E27.7313
G1 X29.286 Y176.617 E28.5907
G1 X29.286 Y177.43200000000002 E28.6258
G1 X42.568 Y190.714 E29.4355
G1 X41.754 Y190.714 E29.4706
G1 X29.286 Y178.246 E30.2306
G1 X29.286 Y179.061 E30.2658
G1 X40.939 Y190.714 E30.9761
G1 X40.125 Y190.714 E31.0113
G1 X29.286 Y179.875 E31.6720
G1 X29.286 Y180.69 E31.7071
G1 X39.31 Y190.714 E32.3182
G1 X38.495 Y190.714 E32.3533
G1 X29.286 Y181.505 E32.9147
G1 X29.286 Y182.31900000000002 E32.9498
G1 X37.681 Y190.714 E33.4616
G1 X36.866 Y190.714 E33.4967
G1 X29.286 Y183.13400000000001 E33.9588
G1 X29.286 Y183.948 E33.9939
G1 X36.052 Y190.714 E34.4064
G1 X35.237 Y190.714 E34.4415
G1 X29.286 Y184.763 E34.8043
G1 X29.286 Y185.577 E34.8394
G1 X34.422 Y190.714 E35.1525
G1 X33.608 Y190.714 E35.1876
G1 X29.286 Y186.392 E35.4511
G1 X29.286 Y187.207 E35.4862
G1 X32.793 Y190.714 E35.7000
G1 X31.979 Y190.714 E35.7352
G1 X29.286 Y188.02100000000002 E35.8993
G1 X29.286 Y188.836 E35.9344
G1 X31.164 Y190.714 E36.0489
G1 X30.35 Y190.714 E36.0841
G1 X29.286 Y189.65 E36.1489
G1 X29.286 Y190.465 E36.1840
G1 X29.534999999999997 Y190.714 E36.1992
G92 E0.0000
G1 E-5 F2400 ; custom retraction
; square 3
; feature inner perimeter
G1 Z0.600 F1200
G1 X97.788 Y97.788 F6000
G1 X97.788 Y98.202
G1 X98.94 Y98.94
G1 Z0.200 F1200
G1 E0 F2400 ; custom un-retraction/prime
G92 E0.0000
G1 X121.06 Y98.94 E0.9535 F1350
G1 X121.06 Y121.06 E1.9069
G1 X98.94 Y121.06 E2.8604
G1 X98.94 Y98.94 E3.8139
G1 X98.364 Y98.364 F6000
G92 E0.0000
G1 X121.636 Y98.364 E1.0031 F1350
G1 X121.636 Y121.636 E2.0063
G1 X98.364 Y121.636 E3.0094
G1 X98.364 Y98.364 E4.0125
; feature outer perimeter
G1 X97.788 Y97.788 F6000
G92 E0.0000
G1 X122.212 Y97.788 E1.0528 F900
G1 X122.212 Y122.212 E2.1056
G1 X97.788 Y122.212 E3.1584
G1 X97.788 Y97.788 E4.2111
; feature solid layer
G1 X120.465 Y99.286 F6000
G92 E0.0000
G1 X120.714 Y99.535 E0.0152 F1440
G1 X120.714 Y100.35 E0.0503
G1 X119.65 Y99.286 E0.1152
G1 X118.836 Y99.286 E0.1503
G1 X120.714 Y101.164 E0.2648
G1 X120.714 Y101.979 E0.2999
G1 X118.021 Y99.286 E0.4640
G1 X117.207 Y99.286 E0.4992
G1 X120.714 Y102.793 E0.7130
G1 X120.714 Y103.608 E0.7481
G1 X116.392 Y99.286 E1.0116
G1 X115.578 Y99.286 E1.0467
G1 X120.714 Y104.422 E1.3598
G1 X120.714 Y105.237 E1.3949
G1 X114.763 Y99.286 E1.7577
G1 X113.94800000000001 Y99.286 E1.7928
G1 X120.714 Y106.05199999999999 E2.2053
G1 X120.714 Y106.866 E2.2404
G1 X113.134 Y99.286 E2.7025
G1 X112.319 Y99.286 E2.7376
G1 X120.714 Y107.681 E3.2494
G1 X120.714 Y108.495 E3.2845
G1 X111.505 Y99.286 E3.8459
G1 X110.69 Y99.286 E3.8810
G1 X120.714 Y109.31 E4.4921
G1 X120.714 Y110.125 E4.5272
G1 X109.875 Y99.286 E5.1879
G1 X109.061 Y99.286 E5.2230
G1 X120.714 Y110.939 E5.9334
G1 X120.714 Y111.75399999999999 E5.9685
G1 X108.24600000000001 Y99.286 E6.7286
G1 X107.432 Y99.286 E6.7637
G1 X120.714 Y112.568 E7.5734
G1 X120.714 Y113.38300000000001 E7.6085
G1 X106.61699999999999 Y99.286 E8.4679
G1 X105.80199999999999 Y99.286 E8.5030
G1 X120.714 Y114.19800000000001 E9.4120
G1 X120.714 Y115.012 E9.4471
G1 X104.988 Y99.286 E10.4058
G1 X104.173 Y99.286 E10.4409
G1 X120.714 Y115.827 E11.4492
G1 X120.714 Y116.64099999999999 E11.4844
G1 X103.35900000000001 Y99.286 E12.5424
G1 X102.544 Y99.286 E12.5775
G1 X120.714 Y117.456 E13.6851
G1 X120.714 Y118.27000000000001 E13.7202
G1 X101.72999999999999 Y99.286 E14.8775
G1 X100.91499999999999 Y99.286 E14.9126
G1 X120.714 Y119.08500000000001 E16.1196
G1 X120.714 Y119.9 E16.1547
G1 X100.1 Y99.286 E17.4113
G1 X99.286 Y99.286 E17.4464
G1 X120.714 Y120.714 E18.7527
G1 X119.9 Y120.714 E18.7878
G1 X99.286 Y100.1 E20.0445
G1 X99.286 Y100.91499999999999 E20.0796
G1 X119.08500000000001 Y120.714 E21.2865
G1 X118.27000000000001 Y120.714 E21.3216
G1 X99.286 Y101.72999999999999 E22.4789
G1 X99.286 Y102.544 E22.5141
G1 X117.456 Y120.714 E23.6217
G1 X116.64099999999999 Y120.714 E23.6568
G1 X99.286 Y103.35900000000001 E24.7148
G1 X99.286 Y104.173 E24.7499
G1 X115.827 Y120.714 E25.7583
G1 X115.012 Y120.714 E25.7934
G1 X99.286 Y104.988 E26.7520
G1 X99.286 Y105.80199999999999 E26.7872
G1 X114.19800000000001 Y120.714 E27.6962
G1 X113.38300000000001 Y120.714 E27.7313
G1 X99.286 Y106.61699999999999 E28.5907
G1 X99.286 Y107.432 E28.6258
G1 X112.568 Y120.714 E29.4355
G1 X111.75399999999999 Y120.714 E29.4706
G1 X99.286 Y108.24600000000001 E30.2306
G1 X99.286 Y109.061 E30.2658
G1 X110.939 Y120.714 E30.9761
G1 X110.125 Y120.714 E31.0113
G1 X99.286 Y109.875 E31.6720
G1 X99.286 Y110.69 E31.7071
G1 X109.31 Y120.714 E32.3182
G1 X108.495 Y120.714 E32.3533
G1 X99.286 Y111.505 E32.9147
G1 X99.286 Y112.319 E32.9498
G1 X107.681 Y120.714 E33.4616
G1 X106.866 Y120.714 E33.4967
G1 X99.286 Y113.134 E33.9588
G1 X99.286 Y113.94800000000001 E33.9939
G1 X106.05199999999999 Y120.714 E34.4064
G1 X105.237 Y120.714 E34.4415
G1 X99.286 Y114.763 E34.8043
G1 X99.286 Y115.577 E34.8394
G1 X104.422 Y120.714 E35.1525
G1 X103.608 Y120.714 E35.1876
G1 X99.286 Y116.392 E35.4511
G1 X99.286 Y117.207 E35.4862
G1 X102.793 Y120.714 E35.7000
G1 X101.979 Y120.714 E35.7352
G1 X99.286 Y118.021 E35.8993
G1 X99.286 Y118.836 E35.9344
G1 X101.164 Y120.714 E36.0489
G1 X100.35 Y120.714 E36.0841
G1 X99.286 Y119.65 E36.1489
G1 X99.286 Y120.465 E36.1840
G1 X99.535 Y120.714 E36.1992
G92 E0.0000
G1 E-5 F2400 ; custom retraction
; square 4
; feature inner perimeter
G1 Z0.600 F1200
G1 X167.788 Y27.787999999999997 F6000
G1 X167.788 Y28.201999999999998
G1 X168.94 Y28.939999999999998
G1 Z0.200 F1200
G1 E0 F2400 ; custom un-retraction/prime
G92 E0.0000
G1 X191.06 Y28.939999999999998 E0.9535 F1350
G1 X191.06 Y51.06 E1.9069
G1 X168.94 Y51.06 E2.8604
G1 X168.94 Y28.939999999999998 E3.8139
G1 X168.364 Y28.363999999999997 F6000
G92 E0.0000
G1 X191.636 Y28.363999999999997 E1.0031 F1350
G1 X191.636 Y51.636 E2.0063
G1 X168.364 Y51.636 E3.0094
G1 X168.364 Y28.363999999999997 E4.0125
; feature outer perimeter
G1 X167.788 Y27.787999999999997 F6000
G92 E0.0000
G1 X192.212 Y27.787999999999997 E1.0528 F900
G1 X192.212 Y52.212 E2.1056
G1 X167.788 Y52.212 E3.1584
G1 X167.788 Y27.787999999999997 E4.2111
; feature solid layer
G1 X190.465 Y29.286 F6000
G92 E0.0000
G1 X190.714 Y29.534999999999997 E0.0152 F1440
G1 X190.714 Y30.35 E0.0503
G1 X189.65 Y29.286 E0.1152
G1 X188.836 Y29.286 E0.1503
G1 X190.714 Y31.164 E0.2648
G1 X190.714 Y31.979 E0.2999
G1 X188.02100000000002 Y29.286 E0.4640
G1 X187.207 Y29.286 E0.4992
G1 X190.714 Y32.793 E0.7130
G1 X190.714 Y33.608 E0.7481
G1 X186.392 Y29.286 E1.0116
G1 X185.578 Y29.286 E1.0467
G1 X190.714 Y34.422 E1.3598
G1 X190.714 Y35.237 E1.3949
G1 X184.763 Y29.286 E1.7577
G1 X183.948 Y29.286 E1.7928
G1 X190.714 Y36.052 E2.2053
G1 X190.714 Y36.866 E2.2404
G1 X183.13400000000001 Y29.286 E2.7025
G1 X182.31900000000002 Y29.286 E2.7376
G1 X190.714 Y37.681 E3.2494
G1 X190.714 Y38.495 E3.2845
G1 X181.505 Y29.286 E3.8459
G1 X180.69 Y29.286 E3.8810
G1 X190.714 Y39.31 E4.4921
G1 X190.714 Y40.125 E4.5272
G1 X179.875 Y29.286 E5.1879
G1 X179.061 Y29.286 E5.2230
G1 X190.714 Y40.939 E5.9334
G1 X190.714 Y41.754 E5.9685
G1 X178.246 Y29.286 E6.7286
G1 X177.43200000000002 Y29.286 E6.7637
G1 X190.714 Y42.568 E7.5734
G1 X190.714 Y43.383 E7.6085
G1 X176.617 Y29.286 E8.4679
G1 X175.802 Y29.286 E8.5030
G1 X190.714 Y44.198 E9.4120
G1 X190.714 Y45.012 E9.4471
G1 X174.988 Y29.286 E10.4058
G1 X174.173 Y29.286 E10.4409
G1 X190.714 Y45.827 E11.4492
G1 X190.714 Y46.641 E11.4844
G1 X173.359 Y29.286 E12.5424
G1 X172.54399999999998 Y29.286 E12.5775
G1 X190.714 Y47.456 E13.6851
G1 X190.714 Y48.27 E13.7202
G1 X171.73 Y29.286 E14.8775
G1 X170.915 Y29.286 E14.9126
G1 X190.714 Y49.085 E16.1196
G1 X190.714 Y49.9 E16.1547
G1 X170.1 Y29.286 E17.4113
G1 X169.286 Y29.286 E17.4464
G1 X190.714 Y50.714 E18.7527
G1 X189.9 Y50.714 E18.7878
G1 X169.286 Y30.1 E20.0445
G1 X169.286 Y30.915 E20.0796
G1 X189.085 Y50.714 E21.2865
G1 X188.27 Y50.714 E21.3216
G1 X169.286 Y31.729999999999997 E22.4789
G1 X169.286 Y32.544 E22.5141
G1 X187.45600000000002 Y50.714 E23.6217
G1 X186.641 Y50.714 E23.6568
G1 X169.286 Y33.359 E24.7148
G1 X169.286 Y34.173 E24.7499
G1 X185.827 Y50.714 E25.7583
G1 X185.012 Y50.714 E25.7934
G1 X169.286 Y34.988 E26.7520
G1 X169.286 Y35.802 E26.7872
G1 X184.198 Y50.714 E27.6962
G1 X183.383 Y50.714 E27.7313
G1 X169.286 Y36.617 E28.5907
G1 X169.286 Y37.432 E28.6258
G1 X182.56799999999998 Y50.714 E29.4355
G1 X181.754 Y50.714 E29.4706
G1 X169.286 Y38.246 E30.2306
G1 X169.286 Y39.061 E30.2658
G1 X180.939 Y50.714 E30.9761
G1 X180.125 Y50.714 E31.0113
G1 X169.286 Y39.875 E31.6720
G1 X169.286 Y40.69 E31.7071
G1 X179.31 Y50.714 E32.3182
G1 X178.495 Y50.714 E32.3533
G1 X169.286 Y41.505 E32.9147
G1 X169.286 Y42.319 E32.9498
G1 X177.68099999999998 Y50.714 E33.4616
G1 X176.86599999999999 Y50.714 E33.4967
G1 X169.286 Y43.134 E33.9588
G1 X169.286 Y43.948 E33.9939
G1 X176.052 Y50.714 E34.4064
G1 X175.237 Y50.714 E34.4415
G1 X169.286 Y44.763 E34.8043
G1 X169.286 Y45.577 E34.8394
G1 X174.422 Y50.714 E35.1525
G1 X173.608 Y50.714 E35.1876
G1 X169.286 Y46.392 E35.4511
G1 X169.286 Y47.207 E35.4862
G1 X172.793 Y50.714 E35.7000
G1 X171.97899999999998 Y50.714 E35.7352
G1 X169.286 Y48.021 E35.8993
G1 X169.286 Y48.836 E35.9344
G1 X171.164 Y50.714 E36.0489
G1 X170.35 Y50.714 E36.0841
G1 X169.286 Y49.65 E36.1489
G1 X169.286 Y50.465 E36.1840
G1 X169.535 Y50.714 E36.1992
G92 E0.0000
G1 E-5 F2400 ; custom retraction
; square 5
; feature inner perimeter
G1 Z0.600 F1200
G1 X167.788 Y167.788 F6000
G1 X167.788 Y168.202
G1 X168.94 Y168.94
G1 Z0.200 F1200
G1 E0 F2400 ; custom un-retraction/prime
G92 E0.0000
G1 X191.06 Y168.94 E0.9535 F1350
G1 X191.06 Y191.06 E1.9069
G1 X168.94 Y191.06 E2.8604
G1 X168.94 Y168.94 E3.8139
G1 X168.364 Y168.364 F6000
G92 E0.0000
G1 X191.636 Y168.364 E1.0031 F1350
G1 X191.636 Y191.636 E2.0063
G1 X168.364 Y191.636 E3.0094
G1 X168.364 Y168.364 E4.0125
; feature outer perimeter
G1 X167.788 Y167.788 F6000
G92 E0.0000
G1 X192.212 Y167.788 E1.0528 F900
G1 X192.212 Y192.212 E2.1056
G1 X167.788 Y192.212 E3.1584
G1 X167.788 Y167.788 E4.2111
; feature solid layer
G1 X190.465 Y169.286 F6000
G92 E0.0000
G1 X190.714 Y169.535 E0.0152 F1440
G1 X190.714 Y170.35 E0.0503
G1 X189.65 Y169.286 E0.1152
G1 X188.836 Y169.286 E0.1503
G1 X190.714 Y171.164 E0.2648
G1 X190.714 Y171.97899999999998 E0.2999
G1 X188.02100000000002 Y169.286 E0.4640
G1 X187.207 Y169.286 E0.4992
G1 X190.714 Y172.793 E0.7130
G1 X190.714 Y173.608 E0.7481
G1 X186.392 Y169.286 E1.0116
G1 X185.578 Y169.286 E1.0467
G1 X190.714 Y174.422 E1.3598
G1 X190.714 Y175.237 E1.3949
G1 X184.763 Y169.286 E1.7577
G1 X183.948 Y169.286 E1.7928
G1 X190.714 Y176.052 E2.2053
G1 X190.714 Y176.86599999999999 E2.2404
G1 X183.13400000000001 Y169.286 E2.7025
G1 X182.31900000000002 Y169.286 E2.7376
G1 X190.714 Y177.68099999999998 E3.2494
G1 X190.714 Y178.495 E3.2845
G1 X181.505 Y169.286 E3.8459
G1 X180.69 Y169.286 E3.8810
G1 X190.714 Y179.31 E4.4921
G1 X190.714 Y180.125 E4.5272
G1 X179.875 Y169.286 E5.1879
G1 X179.061 Y169.286 E5.2230
G1 X190.714 Y180.939 E5.9334
G1 X190.714 Y181.754 E5.9685
G1 X178.246 Y169.286 E6.7286
G1 X177.43200000000002 Y169.286 E6.7637
G1 X190.714 Y182.56799999999998 E7.5734
G1 X190.714 Y183.383 E7.6085
G1 X176.617 Y169.286 E8.4679
G1 X175.802 Y169.286 E8.5030
G1 X190.714 Y184.198 E9.4120
G1 X190.714 Y185.012 E9.4471
G1 X174.988 Y169.286 E10.4058
G1 X174.173 Y169.286 E10.4409
G1 X190.714 Y185.827 E11.4492
G1 X190.714 Y186.641 E11.4844
G1 X173.359 Y169.286 E12.5424
G1 X172.54399999999998 Y169.286 E12.5775
G1 X190.714 Y187.45600000000002 E13.6851
G1 X190.714 Y188.27 E13.7202
G1 X171.73 Y169.286 E14.8775
G1 X170.915 Y169.286 E14.9126
G1 X190.714 Y189.085 E16.1196
G1 X190.714 Y189.9 E16.1547
G1 X170.1 Y169.286 E17.4113
G1 X169.286 Y169.286 E17.4464
G1 X190.714 Y190.714 E18.7527
G1 X189.9 Y190.714 E18.7878
G1 X169.286 Y170.1 E20.0445
G1 X169.286 Y170.915 E20.0796
G1 X189.085 Y190.714 E21.2865
G1 X188.27 Y190.714 E21.3216
G1 X169.286 Y171.73 E22.4789
G1 X169.286 Y172.54399999999998 E22.5141
G1 X187.45600000000002 Y190.714 E23.6217
G1 X186.641 Y190.714 E23.6568
G1 X169.286 Y173.359 E24.7148
G1 X169.286 Y174.173 E24.7499
G1 X185.827 Y190.714 E25.7583
G1 X185.012 Y190.714 E25.7934
G1 X169.286 Y174.988 E26.7520
G1 X169.286 Y175.802 E26.7872
G1 X184.198 Y190.714 E27.6962
G1 X183.383 Y190.714 E27.7313
G1 X169.286 Y176.617 E28.5907
G1 X169.286 Y177.43200000000002 E28.6258
G1 X182.56799999999998 Y190.714 E29.4355
G1 X181.754 Y190.714 E29.4706
G1 X169.286 Y178.246 E30.2306
G1 X169.286 Y179.061 E30.2658
G1 X180.939 Y190.714 E30.9761
G1 X180.125 Y190.714 E31.0113
G1 X169.286 Y179.875 E31.6720
G1 X169.286 Y180.69 E31.7071
G1 X179.31 Y190.714 E32.3182
G1 X178.495 Y190.714 E32.3533
G1 X169.286 Y181.505 E32.9147
G1 X169.286 Y182.31900000000002 E32.9498
G1 X177.68099999999998 Y190.714 E33.4616
G1 X176.86599999999999 Y190.714 E33.4967
G1 X169.286 Y183.13400000000001 E33.9588
G1 X169.286 Y183.948 E33.9939
G1 X176.052 Y190.714 E34.4064
G1 X175.237 Y190.714 E34.4415
G1 X169.286 Y184.763 E34.8043
G1 X169.286 Y185.577 E34.8394
G1 X174.422 Y190.714 E35.1525
G1 X173.608 Y190.714 E35.1876
G1 X169.286 Y186.392 E35.4511
G1 X169.286 Y187.207 E35.4862
G1 X172.793 Y190.714 E35.7000
G1 X171.97899999999998 Y190.714 E35.7352
G1 X169.286 Y188.02100000000002 E35.8993
G1 X169.286 Y188.836 E35.9344
G1 X171.164 Y190.714 E36.0489
G1 X170.35 Y190.714 E36.0841
G1 X169.286 Y189.65 E36.1489
G1 X169.286 Y190.465 E36.1840
G1 X169.535 Y190.714 E36.1992
G92 E0.0000
G1 E-5 F2400 ; custom retraction
; layer end
G28 X0 ; home X axis
M106 S0 ; turn off cooling fan
M104 S0 ; turn off extruder
M140 S0 ; turn off bed
M84 ; disable motors
