;FLAVOR:Marlin
;TIME:1453
;Filament used: 0.383653m
;Layer height: 0.2
;MINX:101.515
;MINY:101.515
;MINZ:0.2
;MAXX:133.485
;MAXY:133.485
;MAXZ:30
;Generated with Cura_SteamEngine 4.13.1
M140 S60
M105
M190 S60
M104 S200
M105
M109 S200
M82 ;absolute extrusion mode
; Ender 3 Custom Start G-code
G92 E0 ; Reset Extruder
G28 ; Home all axes
G1 Z2.0 F3000 ; Move Z Axis up little to prevent scratching of Heat Bed
G1 X0.1 Y20 Z0.3 F5000.0 ; Move to start position
G1 X0.1 Y200.0 Z0.3 F1500.0 E15 ; Draw the first line
G1 X0.4 Y200.0 Z0.3 F5000.0 ; Move to side a little
G1 X0.4 Y20 Z0.3 F1500.0 E30 ; Draw the second line
G92 E0 ; Reset Extruder
G1 Z2.0 F3000 ; Move Z Axis up little to prevent scratching of Heat Bed
G1 X5 Y20 Z0.3 F5000.0 ; Move over to prevent blob squish
G92 E0
G92 E0
G1 F2700 E-5
;LAYER_COUNT:150
;LAYER:0
M107
G0 F6000 X106.168 Y106.228 Z0.2
;TYPE:SKIRT
G1 F2700 E0
G1 F1200 X106.689 Y105.724 E0.02411
G1 X106.847 Y105.581 E0.0312
G1 X107.335 Y105.164 E0.05255
G1 X107.631 Y104.926 E0.06518
G1 X108.159 Y104.528 E0.08717
G1 X108.369 Y104.379 E0.09574
G1 X108.979 Y103.976 E0.12005
G1 X109.238 Y103.817 E0.13016
G1 X109.831 Y103.477 E0.1529
G1 X110.213 Y103.274 E0.16728
G1 X110.901 Y102.939 E0.19273
G1 X111.038 Y102.878 E0.19772
G1 X111.598 Y102.647 E0.21787
G1 X112.034 Y102.481 E0.23339
G1 X112.734 Y102.241 E0.258
G1 X112.914 Y102.186 E0.26426
G1 X113.542 Y102.014 E0.28592
G1 X113.972 Y101.91 E0.30063
G1 X114.621 Y101.774 E0.32269
G1 X114.744 Y101.752 E0.32684
G1 X115.442 Y101.65 E0.3503
G1 X115.945 Y101.593 E0.36714
G1 X116.661 Y101.535 E0.39103
G1 X116.85 Y101.526 E0.39733
G1 X117.535 Y101.515 E0.42011
G1 X117.942 Y101.521 E0.43365
G1 X118.639 Y101.554 E0.45686
G1 X118.805 Y101.567 E0.4624
G1 X119.474 Y101.64 E0.48478
G1 X119.973 Y101.71 E0.50154
G1 X120.616 Y101.819 E0.52323
G1 X120.765 Y101.849 E0.52829
G1 X121.497 Y102.023 E0.55331
G1 X121.91 Y102.136 E0.56755
G1 X122.534 Y102.327 E0.58926
G1 X122.729 Y102.393 E0.5961
G1 X123.404 Y102.646 E0.62008
G1 X123.808 Y102.813 E0.63462
G1 X124.38 Y103.069 E0.65546
G1 X124.544 Y103.148 E0.66152
G1 X125.219 Y103.502 E0.68687
G1 X125.575 Y103.705 E0.7005
G1 X126.152 Y104.058 E0.723
G1 X126.404 Y104.223 E0.73301
G1 X126.949 Y104.604 E0.75513
G1 X127.145 Y104.75 E0.76326
G1 X127.722 Y105.211 E0.78782
G1 X128.046 Y105.488 E0.802
G1 X128.524 Y105.922 E0.82348
G1 X128.682 Y106.074 E0.83077
G1 X129.201 Y106.608 E0.85554
G1 X129.427 Y106.857 E0.86672
G1 X129.862 Y107.367 E0.88902
G1 X130.081 Y107.64 E0.90066
G1 X130.464 Y108.146 E0.92176
G1 X130.612 Y108.354 E0.93025
G1 X131.027 Y108.982 E0.95529
G1 X131.187 Y109.243 E0.96547
G1 X131.523 Y109.83 E0.98797
G1 X131.726 Y110.212 E1.00236
G1 X132.061 Y110.9 E1.02781
G1 X132.122 Y111.037 E1.0328
G1 X132.35 Y111.589 E1.05266
G1 X132.516 Y112.024 E1.06814
G1 X132.759 Y112.732 E1.09304
G1 X132.814 Y112.912 E1.0993
G1 X132.987 Y113.546 E1.12116
G1 X133.091 Y113.977 E1.13591
G1 X133.221 Y114.589 E1.15672
G1 X133.243 Y114.71 E1.16081
G1 X133.35 Y115.442 E1.18541
G1 X133.407 Y115.946 E1.20228
G1 X133.465 Y116.659 E1.22607
G1 X133.474 Y116.848 E1.23237
G1 X133.485 Y117.533 E1.25515
G1 X133.479 Y117.941 E1.26872
G1 X133.446 Y118.638 E1.29193
G1 X133.433 Y118.804 E1.29747
G1 X133.36 Y119.473 E1.31985
G1 X133.29 Y119.972 E1.33661
G1 X133.175 Y120.641 E1.35919
G1 X133.143 Y120.798 E1.36452
G1 X132.983 Y121.474 E1.38763
G1 X132.881 Y121.851 E1.40062
G1 X132.69 Y122.483 E1.42257
G1 X132.611 Y122.718 E1.43082
G1 X132.34 Y123.438 E1.45641
G1 X132.179 Y123.825 E1.47035
G1 X131.942 Y124.354 E1.48963
G1 X131.861 Y124.523 E1.49586
G1 X131.496 Y125.221 E1.52206
G1 X131.294 Y125.575 E1.53562
G1 X130.949 Y126.14 E1.55763
G1 X130.785 Y126.391 E1.56761
G1 X130.371 Y126.981 E1.59158
G1 X130.211 Y127.194 E1.60044
G1 X129.811 Y127.695 E1.62176
G1 X129.601 Y127.943 E1.63257
G1 X129.108 Y128.487 E1.65699
G1 X128.832 Y128.772 E1.67018
G1 X128.311 Y129.276 E1.69429
G1 X128.153 Y129.419 E1.70138
G1 X127.665 Y129.836 E1.72273
G1 X127.369 Y130.074 E1.73536
G1 X126.841 Y130.472 E1.75736
G1 X126.631 Y130.621 E1.76592
G1 X126.021 Y131.024 E1.79024
G1 X125.762 Y131.183 E1.80035
G1 X125.17 Y131.522 E1.82304
G1 X124.79 Y131.724 E1.83735
G1 X124.108 Y132.057 E1.86259
G1 X123.969 Y132.119 E1.86765
G1 X123.402 Y132.353 E1.88806
G1 X122.966 Y132.519 E1.90357
G1 X122.266 Y132.759 E1.92818
G1 X122.086 Y132.814 E1.93444
G1 X121.458 Y132.986 E1.9561
G1 X121.028 Y133.09 E1.97082
G1 X120.379 Y133.226 E1.99287
G1 X120.256 Y133.248 E1.99703
G1 X119.558 Y133.35 E2.02049
G1 X119.055 Y133.407 E2.03733
G1 X118.339 Y133.465 E2.06122
G1 X118.15 Y133.474 E2.06751
G1 X117.465 Y133.485 E2.0903
G1 X117.058 Y133.479 E2.10384
G1 X116.361 Y133.446 E2.12704
G1 X116.195 Y133.433 E2.13258
G1 X115.526 Y133.36 E2.15496
G1 X115.027 Y133.29 E2.17172
G1 X114.384 Y133.181 E2.19342
G1 X114.235 Y133.151 E2.19847
G1 X113.503 Y132.977 E2.2235
G1 X113.09 Y132.864 E2.23774
G1 X112.466 Y132.673 E2.25944
G1 X112.271 Y132.607 E2.26629
G1 X111.596 Y132.354 E2.29026
G1 X111.192 Y132.187 E2.3048
G1 X110.62 Y131.931 E2.32565
G1 X110.456 Y131.852 E2.3317
G1 X109.781 Y131.498 E2.35705
G1 X109.425 Y131.295 E2.37068
G1 X108.831 Y130.93 E2.39387
G1 X108.577 Y130.763 E2.40398
G1 X108.048 Y130.393 E2.42545
G1 X107.848 Y130.244 E2.43375
G1 X107.268 Y129.78 E2.45845
G1 X106.949 Y129.507 E2.47242
G1 X106.424 Y129.028 E2.49605
G1 X106.267 Y128.875 E2.50335
G1 X105.83 Y128.424 E2.52423
G1 X105.603 Y128.176 E2.53542
G1 X105.134 Y127.628 E2.55941
G1 X104.916 Y127.356 E2.571
G1 X104.528 Y126.842 E2.59242
G1 X104.379 Y126.632 E2.60098
G1 X103.982 Y126.032 E2.62491
G1 X103.822 Y125.772 E2.63507
G1 X103.471 Y125.16 E2.65853
G1 X103.269 Y124.779 E2.67287
G1 X102.939 Y124.1 E2.69798
G1 X102.878 Y123.963 E2.70297
G1 X102.644 Y123.394 E2.72343
G1 X102.475 Y122.949 E2.73927
G1 X102.234 Y122.244 E2.76405
G1 X102.182 Y122.073 E2.76999
G1 X102.019 Y121.477 E2.79054
G1 X101.913 Y121.042 E2.80543
G1 X101.757 Y120.291 E2.83095
G1 X101.737 Y120.174 E2.83489
G1 X101.649 Y119.55 E2.85585
G1 X101.592 Y119.043 E2.87282
G1 X101.535 Y118.337 E2.89638
G1 X101.526 Y118.148 E2.90267
G1 X101.515 Y117.462 E2.92549
G1 X101.521 Y117.058 E2.93893
G1 X101.554 Y116.362 E2.96211
G1 X101.567 Y116.196 E2.96765
G1 X101.64 Y115.527 E2.99003
G1 X101.71 Y115.028 E3.00679
G1 X101.831 Y114.33 E3.03035
G1 X101.862 Y114.18 E3.03544
G1 X102.019 Y113.52 E3.05801
G1 X102.131 Y113.108 E3.07221
G1 X102.321 Y112.483 E3.09394
G1 X102.386 Y112.29 E3.10071
G1 X102.647 Y111.595 E3.1254
G1 X102.815 Y111.189 E3.14002
G1 X103.069 Y110.621 E3.16071
G1 X103.148 Y110.457 E3.16676
G1 X103.502 Y109.782 E3.19212
G1 X103.705 Y109.426 E3.20575
G1 X104.052 Y108.858 E3.22788
G1 X104.216 Y108.607 E3.23786
G1 X104.64 Y108.004 E3.26237
G1 X104.799 Y107.793 E3.27116
G1 X105.189 Y107.305 E3.29194
G1 X105.399 Y107.057 E3.30275
G1 X105.892 Y106.513 E3.32717
G1 X106.168 Y106.228 E3.34036
G0 F6000 X106.455 Y106.506
G1 F1200 X106.957 Y106.021 E3.36358
G1 X107.115 Y105.878 E3.37066
G1 X107.586 Y105.476 E3.39126
G1 X107.882 Y105.238 E3.40389
G1 X108.39 Y104.854 E3.42507
G1 X108.6 Y104.705 E3.43364
G1 X109.188 Y104.316 E3.45709
G1 X109.447 Y104.157 E3.4672
G1 X110.019 Y103.831 E3.48909
G1 X110.401 Y103.628 E3.50348
G1 X111.063 Y103.305 E3.52798
G1 X111.2 Y103.244 E3.53297
G1 X111.74 Y103.021 E3.5524
G1 X112.176 Y102.855 E3.56792
G1 X112.85 Y102.624 E3.59161
G1 X113.03 Y102.569 E3.59787
G1 X113.636 Y102.403 E3.61877
G1 X114.066 Y102.299 E3.63349
G1 X114.692 Y102.168 E3.65476
G1 X114.815 Y102.146 E3.65891
G1 X115.487 Y102.047 E3.68151
G1 X115.99 Y101.99 E3.69834
G1 X116.68 Y101.935 E3.72137
G1 X116.869 Y101.926 E3.72766
G1 X117.529 Y101.915 E3.74961
G1 X117.936 Y101.921 E3.76315
G1 X118.608 Y101.952 E3.78553
G1 X118.774 Y101.965 E3.79106
G1 X119.419 Y102.036 E3.81265
G1 X119.918 Y102.106 E3.82941
G1 X120.537 Y102.212 E3.85029
G1 X120.686 Y102.242 E3.85535
G1 X121.391 Y102.409 E3.87945
G1 X121.804 Y102.522 E3.89369
G1 X122.405 Y102.706 E3.91459
G1 X122.6 Y102.772 E3.92144
G1 X123.251 Y103.016 E3.94456
G1 X123.655 Y103.183 E3.9591
G1 X124.206 Y103.429 E3.97917
G1 X124.37 Y103.508 E3.98523
G1 X125.021 Y103.85 E4.00969
G1 X125.377 Y104.053 E4.02332
G1 X125.933 Y104.393 E4.04499
G1 X126.185 Y104.558 E4.05501
G1 X126.71 Y104.925 E4.07632
G1 X126.906 Y105.071 E4.08444
G1 X127.462 Y105.515 E4.10811
G1 X127.786 Y105.792 E4.12229
G1 X128.247 Y106.21 E4.14299
G1 X128.405 Y106.362 E4.15028
G1 X128.905 Y106.877 E4.17415
G1 X129.131 Y107.126 E4.18534
G1 X129.55 Y107.617 E4.2068
G1 X129.769 Y107.89 E4.21844
G1 X130.138 Y108.378 E4.23879
G1 X130.286 Y108.586 E4.24728
G1 X130.686 Y109.191 E4.27141
G1 X130.846 Y109.452 E4.28159
G1 X131.169 Y110.018 E4.30326
G1 X131.372 Y110.4 E4.31765
G1 X131.695 Y111.062 E4.34215
G1 X131.756 Y111.199 E4.34714
G1 X131.976 Y111.732 E4.36632
G1 X132.142 Y112.167 E4.3818
G1 X132.376 Y112.848 E4.40575
G1 X132.431 Y113.028 E4.41201
G1 X132.598 Y113.64 E4.43311
G1 X132.702 Y114.071 E4.44786
G1 X132.827 Y114.661 E4.46792
G1 X132.849 Y114.782 E4.47201
G1 X132.953 Y115.487 E4.49571
G1 X133.01 Y115.991 E4.51258
G1 X133.065 Y116.678 E4.5355
G1 X133.074 Y116.867 E4.5418
G1 X133.085 Y117.527 E4.56375
G1 X133.079 Y117.935 E4.57732
G1 X133.048 Y118.607 E4.5997
G1 X133.035 Y118.773 E4.60524
G1 X132.964 Y119.418 E4.62682
G1 X132.894 Y119.917 E4.64358
G1 X132.783 Y120.561 E4.66531
G1 X132.751 Y120.718 E4.67064
G1 X132.597 Y121.369 E4.69289
G1 X132.495 Y121.746 E4.70588
G1 X132.31 Y122.356 E4.72708
G1 X132.231 Y122.591 E4.73533
G1 X131.971 Y123.285 E4.75998
G1 X131.81 Y123.672 E4.77392
G1 X131.582 Y124.181 E4.79247
G1 X131.501 Y124.35 E4.7987
G1 X131.149 Y125.022 E4.82394
G1 X130.947 Y125.376 E4.83749
G1 X130.614 Y125.921 E4.85873
G1 X130.45 Y126.172 E4.86871
G1 X130.051 Y126.74 E4.89179
G1 X129.891 Y126.953 E4.90065
G1 X129.505 Y127.437 E4.92124
G1 X129.295 Y127.685 E4.93205
G1 X128.821 Y128.209 E4.95555
G1 X128.545 Y128.494 E4.96875
G1 X128.043 Y128.979 E4.99197
G1 X127.885 Y129.122 E4.99905
G1 X127.414 Y129.524 E5.01965
G1 X127.118 Y129.762 E5.03228
G1 X126.61 Y130.146 E5.05346
G1 X126.4 Y130.295 E5.06203
G1 X125.812 Y130.684 E5.08548
G1 X125.553 Y130.843 E5.09558
G1 X124.982 Y131.169 E5.11745
G1 X124.602 Y131.371 E5.13177
G1 X123.945 Y131.692 E5.15609
G1 X123.806 Y131.754 E5.16115
G1 X123.26 Y131.979 E5.18079
G1 X122.824 Y132.145 E5.19631
G1 X122.15 Y132.376 E5.22
G1 X121.97 Y132.431 E5.22626
G1 X121.364 Y132.597 E5.24716
G1 X120.934 Y132.701 E5.26188
G1 X120.308 Y132.832 E5.28315
G1 X120.185 Y132.854 E5.2873
G1 X119.513 Y132.953 E5.3099
G1 X119.01 Y133.01 E5.32673
G1 X118.32 Y133.065 E5.34976
G1 X118.131 Y133.074 E5.35605
G1 X117.471 Y133.085 E5.378
G1 X117.064 Y133.079 E5.39154
G1 X116.392 Y133.048 E5.41392
G1 X116.226 Y133.035 E5.41945
G1 X115.581 Y132.964 E5.44104
G1 X115.082 Y132.894 E5.4578
G1 X114.463 Y132.788 E5.47868
G1 X114.314 Y132.758 E5.48374
G1 X113.609 Y132.591 E5.50784
G1 X113.196 Y132.478 E5.52208
G1 X112.595 Y132.294 E5.54298
G1 X112.4 Y132.228 E5.54983
G1 X111.749 Y131.984 E5.57295
G1 X111.345 Y131.817 E5.58749
G1 X110.794 Y131.571 E5.60756
G1 X110.63 Y131.492 E5.61362
G1 X109.979 Y131.15 E5.63808
G1 X109.623 Y130.947 E5.65171
G1 X109.051 Y130.596 E5.67403
G1 X108.797 Y130.429 E5.68414
G1 X108.287 Y130.072 E5.70484
G1 X108.087 Y129.923 E5.71314
G1 X107.528 Y129.476 E5.73694
G1 X107.209 Y129.203 E5.75091
G1 X106.703 Y128.741 E5.7737
G1 X106.546 Y128.588 E5.78099
G1 X106.125 Y128.154 E5.8011
G1 X105.898 Y127.906 E5.81228
G1 X105.446 Y127.378 E5.8354
G1 X105.228 Y127.106 E5.84699
G1 X104.854 Y126.611 E5.86763
G1 X104.705 Y126.401 E5.87619
G1 X104.322 Y125.822 E5.89928
G1 X104.162 Y125.562 E5.90944
G1 X103.825 Y124.972 E5.93204
G1 X103.623 Y124.591 E5.94638
G1 X103.305 Y123.938 E5.97054
G1 X103.244 Y123.801 E5.97552
G1 X103.018 Y123.252 E5.99527
G1 X102.849 Y122.807 E6.0111
G1 X102.617 Y122.128 E6.03497
G1 X102.565 Y121.957 E6.04091
G1 X102.407 Y121.383 E6.06071
G1 X102.301 Y120.948 E6.07561
G1 X102.152 Y120.224 E6.10019
G1 X102.132 Y120.107 E6.10414
G1 X102.046 Y119.505 E6.12436
G1 X101.989 Y118.998 E6.14133
G1 X101.935 Y118.318 E6.16402
G1 X101.926 Y118.129 E6.17031
G1 X101.915 Y117.468 E6.1923
G1 X101.921 Y117.064 E6.20574
G1 X101.952 Y116.393 E6.22808
G1 X101.965 Y116.227 E6.23362
G1 X102.036 Y115.582 E6.2552
G1 X102.106 Y115.083 E6.27196
G1 X102.222 Y114.411 E6.29464
G1 X102.253 Y114.261 E6.29974
G1 X102.405 Y113.625 E6.32149
G1 X102.517 Y113.213 E6.33569
G1 X102.7 Y112.611 E6.35662
G1 X102.765 Y112.418 E6.36339
G1 X103.016 Y111.748 E6.38719
G1 X103.184 Y111.342 E6.4018
G1 X103.429 Y110.795 E6.42173
G1 X103.508 Y110.631 E6.42779
G1 X103.85 Y109.98 E6.45225
G1 X104.053 Y109.624 E6.46588
G1 X104.387 Y109.077 E6.48719
G1 X104.551 Y108.826 E6.49717
G1 X104.959 Y108.245 E6.52078
G1 X105.118 Y108.034 E6.52957
G1 X105.495 Y107.563 E6.54963
G1 X105.705 Y107.315 E6.56044
G1 X106.179 Y106.791 E6.58394
G1 X106.455 Y106.506 E6.59714
G0 F6000 X106.743 Y106.784
G1 F1200 X107.225 Y106.317 E6.61946
G1 X107.383 Y106.174 E6.62655
G1 X107.836 Y105.788 E6.64634
G1 X108.132 Y105.55 E6.65897
G1 X108.622 Y105.18 E6.6794
G1 X108.832 Y105.031 E6.68796
G1 X109.398 Y104.657 E6.71052
G1 X109.657 Y104.498 E6.72063
G1 X110.206 Y104.184 E6.74167
G1 X110.588 Y103.981 E6.75606
G1 X111.226 Y103.67 E6.77966
G1 X111.363 Y103.609 E6.78465
G1 X111.883 Y103.395 E6.80335
G1 X112.319 Y103.229 E6.81887
G1 X112.967 Y103.006 E6.84166
G1 X113.147 Y102.951 E6.84792
G1 X113.73 Y102.792 E6.86802
G1 X114.16 Y102.688 E6.88274
G1 X114.762 Y102.561 E6.9032
G1 X114.885 Y102.539 E6.90736
G1 X115.532 Y102.445 E6.9291
G1 X116.035 Y102.388 E6.94594
G1 X116.699 Y102.335 E6.96809
G1 X116.888 Y102.326 E6.97439
G1 X117.523 Y102.315 E6.99551
G1 X117.93 Y102.321 E7.00905
G1 X118.576 Y102.351 E7.03056
G1 X118.742 Y102.364 E7.0361
G1 X119.363 Y102.432 E7.05687
G1 X119.862 Y102.502 E7.07363
G1 X120.458 Y102.604 E7.09374
G1 X120.607 Y102.634 E7.0988
G1 X121.286 Y102.795 E7.12201
G1 X121.699 Y102.908 E7.13625
G1 X122.277 Y103.084 E7.15635
G1 X122.472 Y103.15 E7.16319
G1 X123.099 Y103.386 E7.18548
G1 X123.503 Y103.553 E7.20002
G1 X124.033 Y103.79 E7.21933
G1 X124.197 Y103.869 E7.22538
G1 X124.823 Y104.197 E7.24889
G1 X125.179 Y104.4 E7.26252
G1 X125.713 Y104.727 E7.28334
G1 X125.965 Y104.892 E7.29336
G1 X126.471 Y105.246 E7.3139
G1 X126.667 Y105.392 E7.32203
G1 X127.202 Y105.819 E7.3448
G1 X127.526 Y106.096 E7.35897
G1 X127.97 Y106.498 E7.37889
G1 X128.128 Y106.65 E7.38619
G1 X128.609 Y107.146 E7.40917
G1 X128.835 Y107.395 E7.42035
G1 X129.238 Y107.867 E7.44099
G1 X129.457 Y108.14 E7.45263
G1 X129.812 Y108.609 E7.4722
G1 X129.96 Y108.817 E7.48069
G1 X130.345 Y109.4 E7.50393
G1 X130.505 Y109.661 E7.51411
G1 X130.816 Y110.205 E7.53495
G1 X131.019 Y110.587 E7.54934
G1 X131.33 Y111.225 E7.57295
G1 X131.391 Y111.362 E7.57793
G1 X131.603 Y111.874 E7.59636
G1 X131.769 Y112.309 E7.61185
G1 X131.994 Y112.965 E7.63492
G1 X132.049 Y113.145 E7.64118
G1 X132.209 Y113.733 E7.66144
G1 X132.313 Y114.164 E7.67619
G1 X132.433 Y114.732 E7.6955
G1 X132.455 Y114.853 E7.69959
G1 X132.555 Y115.532 E7.72242
G1 X132.612 Y116.036 E7.73929
G1 X132.665 Y116.697 E7.76134
G1 X132.674 Y116.886 E7.76764
G1 X132.685 Y117.521 E7.78876
G1 X132.679 Y117.929 E7.80233
G1 X132.649 Y118.575 E7.82384
G1 X132.636 Y118.741 E7.82938
G1 X132.568 Y119.362 E7.85016
G1 X132.498 Y119.861 E7.86692
G1 X132.392 Y120.481 E7.88784
G1 X132.36 Y120.638 E7.89317
G1 X132.211 Y121.265 E7.9146
G1 X132.109 Y121.642 E7.92759
G1 X131.931 Y122.228 E7.94796
G1 X131.852 Y122.463 E7.95621
G1 X131.602 Y123.131 E7.97993
G1 X131.441 Y123.518 E7.99387
G1 X131.221 Y124.009 E8.01177
G1 X131.14 Y124.178 E8.018
G1 X130.801 Y124.824 E8.04226
G1 X130.599 Y125.178 E8.05582
G1 X130.279 Y125.702 E8.07624
G1 X130.115 Y125.953 E8.08621
G1 X129.731 Y126.5 E8.10844
G1 X129.571 Y126.713 E8.1173
G1 X129.2 Y127.178 E8.13709
G1 X128.99 Y127.426 E8.1479
G1 X128.533 Y127.931 E8.17055
G1 X128.257 Y128.216 E8.18374
G1 X127.775 Y128.683 E8.20607
G1 X127.617 Y128.826 E8.21315
G1 X127.164 Y129.212 E8.23295
G1 X126.868 Y129.45 E8.24558
G1 X126.378 Y129.82 E8.266
G1 X126.168 Y129.969 E8.27457
G1 X125.602 Y130.343 E8.29713
