;FLAVOR:Marlin
;TIME:10168
;Filament used: 5.34353m
;Layer height: 0.2
;MINX:53.886
;MINY:95.33
;MINZ:0.2
;MAXX:194.832
;MAXY:139.67
;MAXZ:33.8
;TARGET_MACHINE.NAME:Creality Ender-3
;Generated with Cura_SteamEngine 5.10.2
M140 S50
M105
M190 S50
M104 S200
M105
M109 S200
; Ender 3 Custom Start G-code
G92 E0 ; Reset Extruder
G28 ; Home all axes
G1 Z2.0 F3000 ; Move Z Axis up little to prevent scratching of Heat Bed
G1 X0.1 Y20 Z0.3 F5000.0 ; Move to start position
G1 X0.1 Y200.0 Z0.3 F1500.0 E15 ; Draw the first line
G1 X0.4 Y200.0 Z0.3 F5000.0 ; Move to side a little
G1 X0.4 Y20 Z0.3 F1500.0 E30 ; Draw the second line
G92 E0 ; Reset Extruder
G1 Z2.0 F3000 ; Move Z Axis up little to prevent scratching of Heat Bed
G1 X5 Y20 Z0.3 F5000.0 ; Move over to prevent blob squish
M82 ;absolute extrusion mode
G92 E0
G92 E0
G1 F2700 E-5
;LAYER_COUNT:169
;LAYER:0
M107
G0 F6000 X60.398 Y98.39 Z0.2
;TYPE:SKIRT
G1 F2700 E0
G1 F1200 X64.293 Y97.305 E0.13448
G1 X66.492 Y97.143 E0.20782
G1 X70.437 Y98.253 E0.34412
G1 X72.334 Y99.242 E0.41528
G1 X75.089 Y102.14 E0.54827
G1 X75.251 Y102.382 E0.55796
G1 X95.042 Y102.381 E1.21621
G1 X96.462 Y102.369 E1.26344
G1 X147.108 Y102.369 E2.94793
G1 X147.367 Y101.49 E2.97841
G1 X148.258 Y99.776 E3.04266
G1 X150.302 Y97.625 E3.14135
G1 X152.101 Y96.424 E3.2133
G1 X154.99 Y95.618 E3.31305
G1 X157.193 Y95.456 E3.38652
G1 X159.57 Y96.125 E3.46866
G1 X161.222 Y95.665 E3.52569
G1 X163.431 Y95.503 E3.59936
G1 X165.273 Y96.022 E3.66301
G1 X166.545 Y95.666 E3.70694
G1 X168.755 Y95.504 E3.78065
G1 X169.757 Y95.786 E3.81527
G1 X170.808 Y95.492 E3.85157
G1 X173.015 Y95.33 E3.92517
G1 X176.027 Y96.178 E4.02924
G1 X178.025 Y97.268 E4.10494
G1 X179.072 Y98.435 E4.15709
G1 X180.24 Y98.108 E4.19743
G1 X182.447 Y97.946 E4.27103
G1 X187.17 Y99.267 E4.43415
G1 X189.144 Y100.293 E4.50814
G1 X192.445 Y103.786 E4.66799
G1 X193.48 Y105.413 E4.73213
G1 X194.83 Y110.018 E4.89174
G1 X194.832 Y112.372 E4.97003
G1 X193.585 Y116.837 E5.12422
G1 X192.65 Y118.608 E5.19083
G1 X192.562 Y118.721 E5.19559
G1 X193.335 Y119.936 E5.24349
G1 X194.659 Y124.484 E5.40103
G1 X194.661 Y126.817 E5.47863
G1 X193.438 Y131.196 E5.62985
G1 X192.475 Y133.02 E5.69845
G1 X189.231 Y136.264 E5.85104
G1 X187.434 Y137.409 E5.92191
G1 X182.411 Y138.83 E6.09553
G1 X180.154 Y138.647 E6.17085
G1 X177.905 Y137.986 E6.24881
G1 X176.779 Y138.728 E6.29366
G1 X173.988 Y139.509 E6.39006
G1 X171.704 Y139.67 E6.46621
G1 X170.175 Y139.222 E6.51921
G1 X169.202 Y139.491 E6.55278
G1 X166.934 Y139.652 E6.62841
G1 X164.741 Y139.011 E6.7044
G1 X163.815 Y139.268 E6.73636
G1 X161.555 Y139.429 E6.81172
G1 X158.631 Y138.574 E6.91305
G1 X157.937 Y138.201 E6.93925
G1 X157.573 Y138.093 E6.95188
G1 X157.266 Y138.167 E6.96238
G1 X155.043 Y138.206 E7.03633
G1 X152.232 Y137.331 E7.13425
G1 X150.416 Y136.343 E7.20301
G1 X148.347 Y134.274 E7.30033
G1 X148.176 Y134.001 E7.31104
G1 X147.799 Y133.624 E7.32878
G1 X147.205 Y132.547 E7.36969
G1 X96.428 Y132.906 E9.05858
G1 X95.002 Y132.887 E9.10601
G1 X93.926 Y132.887 E9.1418
G1 X75.027 Y132.49 E9.77052
G1 X72.592 Y134.925 E9.88506
G1 X70.822 Y136.057 E9.95494
G1 X66.457 Y137.289 E10.10579
G1 X64.2 Y137.106 E10.1811
G1 X60.87 Y136.13 E10.29652
G1 X59.048 Y135.145 E10.36541
G1 X56.236 Y132.333 E10.49767
G1 X55.119 Y130.593 E10.56645
G1 X54.049 Y126.942 E10.69299
G1 X53.886 Y124.578 E10.7718
G1 X55.018 Y120.718 E10.90559
G1 X55.91 Y119.011 E10.96965
G1 X57.753 Y117.063 E11.05884
G1 X56.32 Y115.63 E11.12625
G1 X55.212 Y113.92 E11.19402
G1 X54.146 Y110.301 E11.3195
G1 X53.983 Y107.922 E11.39881
G1 X55.101 Y104.118 E11.53068
G1 X55.978 Y102.432 E11.59389
G1 X58.625 Y99.643 E11.72178
G1 X60.398 Y98.39 E11.79399
G0 F6000 X60.574 Y98.756
G1 F1200 X64.36 Y97.701 E11.92471
G1 X66.452 Y97.547 E11.99448
G1 X70.287 Y98.626 E12.12699
G1 X72.09 Y99.566 E12.19461
G1 X74.799 Y102.416 E12.3254
G1 X75.031 Y102.782 E12.33981
G1 X95.045 Y102.781 E13.00548
G1 X96.465 Y102.769 E13.05271
G1 X147.408 Y102.769 E14.74708
G1 X147.74 Y101.64 E14.78622
G1 X148.588 Y100.009 E14.84736
G1 X150.559 Y97.934 E14.94255
G1 X152.272 Y96.791 E15.01104
G1 X155.057 Y96.014 E15.10721
G1 X157.153 Y95.86 E15.17711
G1 X159.569 Y96.54 E15.26059
G1 X161.289 Y96.061 E15.31997
G1 X163.39 Y95.907 E15.39004
G1 X165.272 Y96.438 E15.45508
G1 X166.613 Y96.062 E15.5014
G1 X168.714 Y95.908 E15.57147
G1 X169.756 Y96.202 E15.60748
G1 X170.876 Y95.888 E15.64617
G1 X172.975 Y95.734 E15.71617
G1 X175.874 Y96.55 E15.81633
G1 X177.773 Y97.586 E15.88828
G1 X178.94 Y98.887 E15.94641
G1 X180.308 Y98.504 E15.99366
G1 X182.407 Y98.35 E16.06366
G1 X187.022 Y99.641 E16.22305
G1 X188.898 Y100.616 E16.29337
G1 X192.127 Y104.032 E16.44971
G1 X193.112 Y105.581 E16.51077
G1 X194.43 Y110.077 E16.6666
G1 X194.432 Y112.318 E16.74113
G1 X193.212 Y116.686 E16.89197
G1 X192.296 Y118.421 E16.95723
G1 X192.052 Y118.665 E16.96871
G1 X192.967 Y120.102 E17.02537
G1 X194.259 Y124.541 E17.17914
G1 X194.261 Y126.763 E17.25304
G1 X193.065 Y131.045 E17.40091
G1 X192.149 Y132.78 E17.46617
G1 X188.977 Y135.952 E17.61537
G1 X187.27 Y137.04 E17.68269
G1 X182.372 Y138.425 E17.85199
G1 X180.227 Y138.251 E17.92357
G1 X177.84 Y137.55 E18.00631
G1 X176.611 Y138.36 E18.05527
G1 X173.92 Y139.113 E18.14821
G1 X171.748 Y139.266 E18.22063
G1 X170.179 Y138.806 E18.27501
G1 X169.136 Y139.095 E18.31101
G1 X166.977 Y139.248 E18.383
G1 X164.745 Y138.595 E18.46035
G1 X163.749 Y138.872 E18.49473
G1 X161.598 Y139.025 E18.56645
G1 X158.781 Y138.201 E18.66407
G1 X158.091 Y137.83 E18.69013
G1 X157.582 Y137.679 E18.70779
G1 X157.214 Y137.768 E18.72038
G1 X155.101 Y137.805 E18.79067
G1 X152.386 Y136.96 E18.88524
G1 X150.66 Y136.021 E18.9506
G1 X148.661 Y134.022 E19.04462
G1 X148.49 Y133.749 E19.05534
G1 X148.121 Y133.38 E19.07269
G1 X147.44 Y132.145 E19.1196
G1 X96.433 Y132.506 E20.81614
G1 X95.007 Y132.487 E20.86358
G1 X93.934 Y132.487 E20.89926
G1 X74.865 Y132.086 E21.53364
G1 X72.34 Y134.611 E21.65241
G1 X70.656 Y135.688 E21.7189
G1 X66.418 Y136.884 E21.86536
G1 X64.273 Y136.71 E21.93694
G1 X61.022 Y135.757 E22.04961
G1 X59.29 Y134.821 E22.11509
G1 X56.55 Y132.081 E22.24398
G1 X55.487 Y130.425 E22.30943
G1 X54.445 Y126.87 E22.43264
G1 X54.29 Y124.623 E22.50755
G1 X55.391 Y120.869 E22.63767
G1 X56.239 Y119.246 E22.69858
G1 X58.311 Y117.055 E22.79887
G1 X56.634 Y115.378 E22.87776
G1 X55.579 Y113.75 E22.94228
G1 X54.542 Y110.228 E23.06439
G1 X54.387 Y107.967 E23.13977
G1 X55.474 Y104.268 E23.268
G1 X56.308 Y102.665 E23.3281
G1 X58.885 Y99.949 E23.45263
G1 X60.574 Y98.756 E23.5214
G0 F6000 X60.75 Y99.122
G1 F1200 X64.427 Y98.097 E23.64837
G1 X66.412 Y97.951 E23.71456
G1 X70.137 Y98.999 E23.84327
G1 X71.846 Y99.89 E23.90737
G1 X74.483 Y102.665 E24.0347
G1 X74.811 Y103.182 E24.05506
G1 X95.048 Y103.181 E24.72814
G1 X96.468 Y103.169 E24.77538
G1 X147.708 Y103.169 E26.47963
G1 X148.114 Y101.788 E26.5275
G1 X148.916 Y100.245 E26.58534
G1 X150.819 Y98.242 E26.67723
G1 X152.443 Y97.158 E26.74218
G1 X155.124 Y96.41 E26.83475
G1 X157.113 Y96.264 E26.90108
G1 X159.568 Y96.955 E26.98591
G1 X161.356 Y96.457 E27.04764
G1 X163.349 Y96.311 E27.11411
G1 X165.271 Y96.853 E27.18053
G1 X166.681 Y96.458 E27.22923
G1 X168.673 Y96.312 E27.29566
G1 X169.755 Y96.617 E27.33305
G1 X170.944 Y96.284 E27.37412
G1 X172.935 Y96.138 E27.44052
G1 X175.721 Y96.922 E27.53678
G1 X177.521 Y97.904 E27.60498
G1 X178.808 Y99.339 E27.66909
G1 X180.376 Y98.9 E27.72325
G1 X182.367 Y98.754 E27.78965
G1 X186.874 Y100.015 E27.94531
G1 X188.652 Y100.939 E28.01195
G1 X191.812 Y104.282 E28.16495
G1 X192.744 Y105.747 E28.2227
G1 X194.03 Y110.135 E28.37479
G1 X194.032 Y112.264 E28.4456
G1 X192.839 Y116.535 E28.59309
G1 X191.97 Y118.181 E28.655
G1 X191.51 Y118.641 E28.67663
G1 X191.689 Y118.838 E28.68549
G1 X192.599 Y120.268 E28.74186
G1 X193.859 Y124.598 E28.89185
G1 X193.861 Y126.709 E28.96206
G1 X192.692 Y130.894 E29.10659
G1 X191.823 Y132.54 E29.16849
G1 X188.723 Y135.64 E29.31431
G1 X187.106 Y136.671 E29.37809
G1 X182.333 Y138.02 E29.54306
G1 X180.3 Y137.855 E29.6109
G1 X177.775 Y137.114 E29.69843
G1 X176.443 Y137.992 E29.75149
G1 X173.852 Y138.717 E29.84097
G1 X171.792 Y138.862 E29.90966
G1 X170.182 Y138.39 E29.96546
G1 X169.065 Y138.699 E30.00401
G1 X167.02 Y138.844 E30.0722
G1 X164.749 Y138.179 E30.1509
G1 X163.682 Y138.476 E30.18774
G1 X161.641 Y138.621 E30.25579
G1 X158.934 Y137.829 E30.3496
G1 X158.243 Y137.457 E30.37571
G1 X157.593 Y137.265 E30.39825
G1 X157.162 Y137.369 E30.41299
G1 X155.159 Y137.404 E30.47962
G1 X152.54 Y136.589 E30.57085
G1 X150.904 Y135.699 E30.6328
G1 X148.975 Y133.77 E30.72353
G1 X148.804 Y133.497 E30.73425
G1 X148.443 Y133.136 E30.75123
G1 X147.675 Y131.743 E30.80413
G1 X96.438 Y132.106 E32.50833
G1 X95.012 Y132.087 E32.55576
G1 X93.942 Y132.087 E32.59135
G1 X74.703 Y131.682 E33.23138
G1 X72.088 Y134.297 E33.35438
G1 X70.49 Y135.319 E33.41747
G1 X66.379 Y136.479 E33.55954
G1 X64.345 Y136.314 E33.62742
G1 X61.175 Y135.385 E33.73729
G1 X59.532 Y134.497 E33.7994
G1 X56.864 Y131.829 E33.9249
G1 X55.855 Y130.257 E33.98703
G1 X54.841 Y126.798 E34.10691
G1 X54.694 Y124.668 E34.17793
G1 X55.764 Y121.02 E34.30437
G1 X56.568 Y119.481 E34.36212
G1 X58.869 Y117.047 E34.47353
G1 X56.946 Y115.124 E34.56398
G1 X55.947 Y113.582 E34.62509
G1 X54.938 Y110.155 E34.74391
G1 X54.791 Y108.012 E34.81535
G1 X55.847 Y104.418 E34.93994
G1 X56.638 Y102.898 E34.99693
G1 X59.145 Y100.255 E35.1181
G1 X60.75 Y99.122 E35.18344
G0 F6000 X60.926 Y99.488
G1 F1200 X64.494 Y98.493 E35.30664
G1 X66.372 Y98.355 E35.36927
G1 X69.987 Y99.372 E35.49417
G1 X71.602 Y100.214 E35.55475
G1 X74.167 Y102.913 E35.67859
G1 X74.591 Y103.582 E35.70494
G1 X95.051 Y103.581 E36.38544
G1 X96.471 Y103.569 E36.43267
G1 X148.008 Y103.569 E38.1468
G1 X148.487 Y101.938 E38.20333
G1 X149.246 Y100.478 E38.25806
G1 X151.076 Y98.551 E38.34645
G1 X152.614 Y97.525 E38.40794
G1 X155.191 Y96.806 E38.49693
G1 X157.073 Y96.668 E38.55969
G1 X159.567 Y97.37 E38.64587
G1 X161.423 Y96.853 E38.70995
G1 X163.308 Y96.715 E38.77281
G1 X165.27 Y97.268 E38.84061
G1 X166.749 Y96.854 E38.89169
G1 X168.633 Y96.716 E38.95452
G1 X169.755 Y97.032 E38.99329
G1 X171.012 Y96.68 E39.03671
G1 X172.895 Y96.542 E39.09951
G1 X175.568 Y97.294 E39.19186
G1 X177.269 Y98.222 E39.25631
G1 X178.676 Y99.791 E39.3264
G1 X180.444 Y99.296 E39.38747
G1 X182.327 Y99.158 E39.45027
G1 X186.726 Y100.389 E39.6022
G1 X188.406 Y101.262 E39.66517
G1 X191.497 Y104.532 E39.81483
G1 X192.375 Y105.912 E39.86923
G1 X193.63 Y110.194 E40.01764
G1 X193.632 Y112.21 E40.08469
G1 X192.466 Y116.384 E40.22884
G1 X191.644 Y117.941 E40.2874
G1 X190.951 Y118.634 E40.31999
G1 X191.351 Y119.053 E40.33926
G1 X192.231 Y120.437 E40.39381
G1 X193.459 Y124.655 E40.53992
G1 X193.461 Y126.655 E40.60644
G1 X192.319 Y130.743 E40.74762
G1 X191.497 Y132.3 E40.80618
G1 X188.469 Y135.328 E40.94861
G1 X186.942 Y136.302 E41.00885
G1 X182.294 Y137.615 E41.16949
G1 X180.373 Y137.459 E41.23359
G1 X177.71 Y136.678 E41.32589
G1 X176.275 Y137.624 E41.38306
G1 X173.784 Y138.321 E41.46909
G1 X171.836 Y138.458 E41.53404
G1 X170.184 Y137.974 E41.5913
G1 X168.994 Y138.303 E41.63236
G1 X167.063 Y138.44 E41.69675
G1 X164.753 Y137.763 E41.77681
G1 X163.615 Y138.08 E41.8161
G1 X161.684 Y138.217 E41.88049
G1 X159.087 Y137.457 E41.97049
G1 X158.394 Y137.084 E41.99667
G1 X157.604 Y136.85 E42.02407
G1 X157.11 Y136.97 E42.04098
G1 X155.217 Y137.003 E42.10395
G1 X152.694 Y136.218 E42.19183
G1 X151.148 Y135.377 E42.25037
G1 X149.289 Y133.518 E42.33781
G1 X149.118 Y133.245 E42.34852
G1 X148.765 Y132.892 E42.36513
G1 X147.91 Y131.341 E42.42403
G1 X96.443 Y131.706 E44.13588
G1 X95.017 Y131.687 E44.18331
G1 X93.95 Y131.687 E44.2188
G1 X74.47 Y131.277 E44.86685
G1 X74.346 Y131.473 E44.87456
G1 X71.836 Y133.983 E44.99263
G1 X70.324 Y134.95 E45.05232
G1 X66.34 Y136.074 E45.19
G1 X64.418 Y135.918 E45.25414
G1 X61.327 Y135.012 E45.36127
G1 X59.774 Y134.173 E45.41998
G1 X57.178 Y131.577 E45.54209
G1 X56.222 Y130.088 E45.60094
G1 X55.237 Y126.727 E45.71743
G1 X55.098 Y124.713 E45.78457
G1 X56.137 Y121.171 E45.90735
G1 X56.897 Y119.716 E45.96194
G1 X59.303 Y117.171 E46.07843
G1 X59.448 Y117.06 E46.0845
G1 X57.26 Y114.872 E46.18742
G1 X56.314 Y113.412 E46.24528
G1 X55.334 Y110.082 E46.36073
G1 X55.195 Y108.057 E46.42824
G1 X56.22 Y104.568 E46.54919
G1 X56.968 Y103.131 E46.60308
G1 X59.405 Y100.561 E46.72087
G1 X60.926 Y99.488 E46.78278
G0 F6000 X61.1 Y99.855
G1 F1200 X64.562 Y98.889 E46.90233
G1 X66.332 Y98.759 E46.96136
G1 X69.837 Y99.745 E47.08246
G1 X71.36 Y100.539 E47.13959
G1 X73.849 Y103.159 E47.25978
G1 X74.371 Y103.982 E47.2922
G1 X95.054 Y103.981 E47.98012
G1 X96.474 Y103.969 E48.02735
G1 X148.308 Y103.969 E49.75135
G1 X148.86 Y102.088 E49.81655
G1 X149.576 Y100.711 E49.86817
G1 X151.333 Y98.86 E49.95306
G1 X152.785 Y97.892 E50.0111
G1 X155.258 Y97.202 E50.09649
G1 X157.033 Y97.072 E50.15569
G1 X159.566 Y97.785 E50.24321
G1 X161.49 Y97.249 E50.30964
G1 X163.268 Y97.119 E50.36893
G1 X165.27 Y97.683 E50.43811
G1 X166.817 Y97.25 E50.49154
G1 X168.593 Y97.12 E50.55077
G1 X169.755 Y97.447 E50.59092
G1 X171.08 Y97.076 E50.63668
G1 X172.855 Y96.946 E50.69588
G1 X175.415 Y97.666 E50.78433
G1 X177.017 Y98.54 E50.84503
G1 X178.544 Y100.243 E50.9211
G1 X180.512 Y99.692 E50.98908
G1 X182.287 Y99.562 E51.04827
G1 X186.576 Y100.762 E51.1964
G1 X188.161 Y101.586 E51.25582
G1 X191.182 Y104.782 E51.40209
G1 X192.006 Y106.077 E51.45314
G1 X193.23 Y110.253 E51.59788
G1 X193.232 Y112.156 E51.66117
G1 X192.093 Y116.233 E51.80197
G1 X191.318 Y117.701 E51.85718
G1 X190.392 Y118.627 E51.90074
G1 X191.034 Y119.3 E51.93167
G1 X191.863 Y120.603 E51.98304
G1 X193.059 Y124.712 E52.12537
G1 X193.061 Y126.601 E52.1882
G1 X191.946 Y130.592 E52.32603
G1 X191.171 Y132.06 E52.38124
G1 X188.215 Y135.016 E52.52028
G1 X186.778 Y135.933 E52.57698
G1 X182.255 Y137.21 E52.73329
G1 X180.446 Y137.063 E52.79366
G1 X177.609 Y136.231 E52.89199
G1 X177.458 Y136.369 E52.8988
G1 X176.107 Y137.256 E52.95255
G1 X173.716 Y137.925 E53.03513
G1 X171.88 Y138.054 E53.09635
G1 X170.188 Y137.558 E53.15499
G1 X168.928 Y137.907 E53.19848
G1 X167.107 Y138.036 E53.25919
G1 X164.757 Y137.347 E53.34065
G1 X163.548 Y137.684 E53.38239
G1 X161.727 Y137.813 E53.44311
G1 X159.24 Y137.085 E53.5293
G1 X158.546 Y136.711 E53.55552
G1 X157.614 Y136.436 E53.58784
G1 X157.058 Y136.571 E53.60687
G1 X155.275 Y136.602 E53.66618
G1 X152.848 Y135.847 E53.75072
G1 X151.392 Y135.055 E53.80585
G1 X149.603 Y133.266 E53.88999
G1 X149.432 Y132.993 E53.90071
G1 X149.087 Y132.648 E53.91694
G1 X148.304 Y131.228 E53.97087
G1 X148.21 Y130.939 E53.98098
G1 X96.448 Y131.306 E55.70263
G1 X95.022 Y131.287 E55.75007
G1 X93.958 Y131.287 E55.78545
G1 X74.231 Y130.872 E56.44172
G1 X74.063 Y131.19 E56.45368
G1 X71.584 Y133.669 E56.57029
G1 X70.158 Y134.581 E56.62659
G1 X66.301 Y135.669 E56.75988
G1 X64.491 Y135.522 E56.82028
G1 X61.479 Y134.639 E56.92467
G1 X60.016 Y133.849 E56.97997
G1 X57.492 Y131.325 E57.0987
G1 X56.59 Y129.92 E57.15423
G1 X55.633 Y126.655 E57.26739
G1 X55.502 Y124.758 E57.33063
G1 X56.511 Y121.317 E57.4499
G1 X57.224 Y119.953 E57.50109
G1 X59.594 Y117.446 E57.61584
G1 X60.067 Y117.113 E57.63508
G1 X57.574 Y114.62 E57.75234
G1 X56.681 Y113.242 E57.80696
G1 X55.73 Y110.009 E57.91904
G1 X55.599 Y108.102 E57.98262
G1 X56.593 Y104.718 E58.09992
G1 X57.298 Y103.364 E58.1507
G1 X59.667 Y100.865 E58.26523
G1 X61.1 Y99.855 E58.32354
G0 F6000 X61.274 Y100.221
G1 F1200 X64.629 Y99.285 E58.43939
G1 X66.292 Y99.163 E58.49485
G1 X69.687 Y100.118 E58.61215
G1 X71.118 Y100.864 E58.66582
G1 X73.531 Y103.404 E58.78235
G1 X74.151 Y104.382 E58.82086
G1 X95.057 Y104.381 E59.5162
