;FLAVOR:Marlin
;TIME:21008
;Filament used: 14.4692m
;Layer height: 0.2
;MINX:1.345
;MINY:26.376
;MINZ:0.2
;MAXX:233.653
;MAXY:208.619
;MAXZ:6.8
;TARGET_MACHINE.NAME:Creality Ender-3
;Generated with Cura_SteamEngine 5.10.2
M140 S50
M105
M190 S50
M104 S200
M105
M109 S200
; Ender 3 Custom Start G-code
G92 E0 ; Reset Extruder
G28 ; Home all axes
G1 Z2.0 F3000 ; Move Z Axis up little to prevent scratching of Heat Bed
G1 X0.1 Y20 Z0.3 F5000.0 ; Move to start position
G1 X0.1 Y200.0 Z0.3 F1500.0 E15 ; Draw the first line
G1 X0.4 Y200.0 Z0.3 F5000.0 ; Move to side a little
G1 X0.4 Y20 Z0.3 F1500.0 E30 ; Draw the second line
G92 E0 ; Reset Extruder
G1 Z2.0 F3000 ; Move Z Axis up little to prevent scratching of Heat Bed
G1 X5 Y20 Z0.3 F5000.0 ; Move over to prevent blob squish
M82 ;absolute extrusion mode
G92 E0
G92 E0
G1 F2700 E-5
;LAYER_COUNT:34
;LAYER:0
M107
G0 F6000 X33.821 Y46.241 Z0.2
;TYPE:SKIRT
G1 F2700 E0
G1 F1200 X40.12 Y41.447 E0.26328
G1 X40.665 Y41.042 E0.28586
G1 X41.209 Y40.666 E0.30786
G1 X42.318 Y39.951 E0.35175
G1 X48.311 Y36.229 E0.58639
G1 X48.965 Y35.836 E0.61177
G1 X49.506 Y35.533 E0.63239
G1 X50.319 Y35.127 E0.66261
G1 X56.503 Y32.15 E0.89089
G1 X57.217 Y31.819 E0.91706
G1 X58.098 Y31.456 E0.94875
G1 X59.184 Y31.067 E0.98712
G1 X65.099 Y29.054 E1.19494
G1 X65.812 Y28.823 E1.21986
G1 X66.674 Y28.583 E1.24963
G1 X67.246 Y28.453 E1.26914
G1 X73.625 Y27.172 E1.48554
G1 X74.484 Y27.013 E1.51459
G1 X75.58 Y26.867 E1.55137
G1 X76.072 Y26.836 E1.56776
G1 X76.919 Y26.817 E1.59594
G1 X149.311 Y26.376 E4.00376
G1 X178.732 Y26.377 E4.9823
G1 X179.418 Y26.388 E5.00512
G1 X180.349 Y26.442 E5.03614
G1 X180.991 Y26.526 E5.05767
G1 X182.172 Y26.719 E5.09747
G1 X185.994 Y27.415 E5.22669
G1 X186.825 Y27.579 E5.25486
G1 X187.703 Y27.793 E5.28491
G1 X188.604 Y28.095 E5.31652
G1 X189.611 Y28.483 E5.35241
G1 X193.244 Y29.956 E5.4828
G1 X193.927 Y30.245 E5.50747
G1 X194.777 Y30.651 E5.5388
G1 X195.819 Y31.28 E5.57928
G1 X196.658 Y31.854 E5.61309
G1 X198.951 Y33.477 E5.70653
G1 X199.49 Y33.871 E5.72874
G1 X200.459 Y34.67 E5.77051
G1 X201.468 Y35.612 E5.81642
G1 X203.354 Y37.438 E5.90373
G1 X203.896 Y37.978 E5.92918
G1 X204.707 Y38.884 E5.96962
G1 X205.152 Y39.443 E5.99339
G1 X230.696 Y72.394 E7.38008
G1 X231.129 Y72.971 E7.40408
G1 X231.676 Y73.777 E7.43648
G1 X232.15 Y74.627 E7.46885
G1 X232.547 Y75.515 E7.5012
G1 X232.864 Y76.437 E7.53363
G1 X233.098 Y77.382 E7.56601
G1 X233.248 Y78.347 E7.59849
G1 X233.313 Y79.345 E7.63175
G1 X233.333 Y80.501 E7.67021
G1 X233.332 Y82.823 E7.74744
G1 X233.322 Y83.543 E7.77138
G1 X233.296 Y84.138 E7.79119
G1 X233.089 Y86.629 E7.87433
G1 X232.948 Y89.141 E7.95801
G1 X232.875 Y91.68 E8.04249
G1 X232.875 Y94.193 E8.12608
G1 X232.946 Y96.697 E8.20939
G1 X233.09 Y99.245 E8.29428
G1 X233.284 Y101.634 E8.374
G1 X233.32 Y102.257 E8.39475
G1 X233.333 Y102.887 E8.41571
G1 X233.322 Y104.31 E8.46304
G1 X233.296 Y104.905 E8.48285
G1 X233.264 Y105.277 E8.49527
G1 X232.963 Y107.948 E8.58467
G1 X232.746 Y110.46 E8.66853
G1 X232.606 Y112.963 E8.75191
G1 X232.533 Y115.502 E8.83639
G1 X232.533 Y118.014 E8.91994
G1 X232.604 Y120.527 E9.00356
G1 X232.745 Y123.029 E9.0869
G1 X232.958 Y125.53 E9.17039
G1 X233.249 Y128.147 E9.25797
G1 X233.293 Y128.76 E9.27841
G1 X233.317 Y129.424 E9.30051
G1 X233.326 Y130.884 E9.34907
G1 X233.305 Y131.493 E9.36934
G1 X233.256 Y132.295 E9.39606
G1 X233.161 Y133.565 E9.43842
G1 X233.044 Y136.096 E9.52269
G1 X232.998 Y138.555 E9.60449
G1 X233.024 Y141.095 E9.68898
G1 X233.122 Y143.663 E9.77445
G1 X233.287 Y146.15 E9.85735
G1 X233.44 Y147.837 E9.91369
G1 X233.547 Y148.906 E9.94942
G1 X233.591 Y149.531 E9.97026
G1 X233.615 Y150.277 E9.99509
G1 X233.653 Y153.077 E10.08822
G1 X233.653 Y153.829 E10.11324
G1 X233.613 Y154.731 E10.14327
G1 X233.473 Y155.766 E10.178
G1 X233.257 Y156.715 E10.21037
G1 X232.958 Y157.641 E10.24274
G1 X232.607 Y158.474 E10.2728
G1 X232.116 Y159.4 E10.30766
G1 X231.562 Y160.245 E10.34127
G1 X230.897 Y161.162 E10.37895
G1 X206.049 Y194.183 E11.75344
G1 X205.531 Y194.849 E11.78151
G1 X204.799 Y195.675 E11.81821
G1 X204.19 Y196.296 E11.84714
G1 X202.194 Y198.283 E11.94082
G1 X201.598 Y198.86 E11.96841
G1 X200.637 Y199.681 E12.01045
G1 X199.554 Y200.5 E12.05561
G1 X197.489 Y202.004 E12.14058
G1 X196.861 Y202.449 E12.16618
G1 X196.031 Y202.979 E12.19893
G1 X195.007 Y203.5 E12.23714
G1 X194.065 Y203.915 E12.27138
G1 X190.526 Y205.408 E12.39913
G1 X189.741 Y205.725 E12.42729
G1 X188.823 Y206.047 E12.45965
G1 X187.952 Y206.272 E12.48957
G1 X186.881 Y206.5 E12.52599
G1 X183.002 Y207.267 E12.6575
G1 X182.239 Y207.406 E12.6833
G1 X181.268 Y207.537 E12.71589
G1 X180.66 Y207.575 E12.73615
G1 X179.416 Y207.615 E12.77754
G1 X150.431 Y208.029 E13.74169
G1 X78.166 Y208.619 E16.14531
G1 X77.309 Y208.613 E16.17382
G1 X75.988 Y208.521 E16.21786
G1 X75.379 Y208.429 E16.23834
G1 X68.64 Y207.181 E16.4663
G1 X67.684 Y206.986 E16.49875
G1 X67.014 Y206.814 E16.52175
G1 X66.341 Y206.609 E16.54515
G1 X59.905 Y204.517 E16.77024
G1 X59.244 Y204.291 E16.79347
G1 X58.376 Y203.951 E16.82448
G1 X57.378 Y203.507 E16.86081
G1 X51.325 Y200.7 E17.08273
G1 X50.645 Y200.373 E17.10782
G1 X50.146 Y200.115 E17.12651
G1 X49.729 Y199.882 E17.1424
G1 X42.856 Y195.752 E17.40909
G1 X42.377 Y195.453 E17.42787
G1 X41.833 Y195.092 E17.44959
G1 X40.924 Y194.448 E17.48664
G1 X34.607 Y189.781 E17.74786
G1 X33.722 Y189.098 E17.78504
G1 X32.938 Y188.431 E17.81928
G1 X26.593 Y182.879 E18.0997
G1 X25.948 Y182.297 E18.1286
G1 X25.21 Y181.591 E18.16256
G1 X18.576 Y174.879 E18.47645
G1 X17.985 Y174.264 E18.50482
G1 X17.189 Y173.331 E18.54561
G1 X16.526 Y172.455 E18.58215
G1 X10.321 Y163.989 E18.93126
G1 X9.832 Y163.304 E18.95925
G1 X9.789 Y163.226 E18.96222
G1 X9.421 Y162.683 E18.98403
G1 X8.979 Y161.895 E19.01408
G1 X8.395 Y160.522 E19.06371
G1 X8.136 Y159.776 E19.08997
G1 X3.631 Y146.138 E19.56768
G1 X3.38 Y145.343 E19.59541
G1 X3.226 Y144.807 E19.61396
G1 X3.129 Y144.399 E19.62791
G1 X3.023 Y143.844 E19.6467
G1 X2.937 Y143.301 E19.66499
G1 X1.512 Y132.745 E20.01926
G1 X1.4 Y131.782 E20.05151
G1 X1.35 Y130.986 E20.07804
G1 X1.345 Y130.491 E20.0945
G1 X1.355 Y129.84 E20.11616
G1 X1.719 Y121.924 E20.37972
G1 X1.804 Y119.302 E20.46698
G1 X1.814 Y116.811 E20.54983
G1 X1.718 Y113.452 E20.66159
G1 X1.375 Y106.074 E20.90725
G1 X1.367 Y105.552 E20.92462
G1 X1.426 Y104.505 E20.95949
G1 X1.533 Y103.511 E20.99275
G1 X2.722 Y93.663 E21.32267
G1 X2.84 Y92.778 E21.35237
G1 X3.069 Y91.606 E21.39208
G1 X3.341 Y90.637 E21.42556
G1 X7.71 Y76.74 E21.91008
G1 X7.993 Y75.883 E21.9401
G1 X8.342 Y74.974 E21.97248
G1 X8.736 Y74.162 E22.0025
G1 X9.367 Y73.13 E22.04273
G1 X9.883 Y72.38 E22.07301
G1 X16.046 Y63.719 E22.42656
G1 X16.55 Y63.032 E22.4549
G1 X17.35 Y62.065 E22.49665
G1 X18.051 Y61.313 E22.53084
G1 X24.421 Y54.68 E22.83671
G1 X25.136 Y53.965 E22.87034
G1 X25.545 Y53.579 E22.88905
G1 X32.237 Y47.551 E23.18861
G1 X33.009 Y46.881 E23.22261
G1 X33.821 Y46.241 E23.257
G0 F6000 X34.063 Y46.559
G1 F1200 X40.358 Y41.768 E23.52011
G1 X40.893 Y41.371 E23.54227
G1 X41.426 Y41.002 E23.56383
G1 X42.529 Y40.291 E23.60748
G1 X48.517 Y36.572 E23.84193
G1 X49.161 Y36.185 E23.86692
G1 X49.685 Y35.891 E23.8869
G1 X50.492 Y35.487 E23.91692
G1 X56.672 Y32.513 E24.14503
G1 X57.369 Y32.189 E24.17059
G1 X58.233 Y31.833 E24.20167
G1 X59.313 Y31.446 E24.23983
G1 X65.222 Y29.434 E24.44744
G1 X65.919 Y29.208 E24.47181
G1 X66.763 Y28.973 E24.50095
G1 X67.325 Y28.845 E24.52012
G1 X73.698 Y27.565 E24.73632
G1 X74.537 Y27.409 E24.76471
G1 X75.605 Y27.266 E24.80055
G1 X76.081 Y27.236 E24.81641
G1 X76.921 Y27.217 E24.84436
G1 X149.311 Y26.776 E27.2521
G1 X178.726 Y26.777 E28.23045
G1 X179.395 Y26.787 E28.2527
G1 X180.326 Y26.841 E28.28372
G1 X180.926 Y26.921 E28.30385
G1 X182.1 Y27.113 E28.34342
G1 X185.922 Y27.809 E28.47263
G1 X186.73 Y27.968 E28.50002
G1 X187.608 Y28.182 E28.53008
G1 X188.46 Y28.468 E28.55997
G1 X189.461 Y28.854 E28.59565
G1 X193.088 Y30.324 E28.72582
G1 X193.755 Y30.606 E28.7499
G1 X194.571 Y30.994 E28.77995
G1 X195.593 Y31.61 E28.81964
G1 X196.427 Y32.181 E28.85326
G1 X198.715 Y33.8 E28.94648
G1 X199.236 Y34.18 E28.96793
G1 X200.205 Y34.979 E29.0097
G1 X201.19 Y35.899 E29.05453
G1 X203.072 Y37.721 E29.14166
G1 X203.598 Y38.245 E29.16635
G1 X204.394 Y39.133 E29.20602
G1 X204.836 Y39.688 E29.22961
G1 X230.376 Y72.634 E30.6161
G1 X230.798 Y73.196 E30.63947
G1 X231.327 Y73.972 E30.67071
G1 X231.785 Y74.791 E30.70192
G1 X232.169 Y75.646 E30.73309
G1 X232.476 Y76.534 E30.76434
G1 X232.703 Y77.444 E30.79554
G1 X232.849 Y78.373 E30.82682
G1 X232.913 Y79.352 E30.85945
G1 X232.933 Y80.501 E30.89767
G1 X232.932 Y82.817 E30.9747
G1 X232.922 Y83.526 E30.99828
G1 X232.897 Y84.105 E31.01756
G1 X232.691 Y86.596 E31.10069
G1 X232.548 Y89.13 E31.18511
G1 X232.475 Y91.669 E31.26959
G1 X232.475 Y94.193 E31.35354
G1 X232.546 Y96.708 E31.43722
G1 X232.691 Y99.277 E31.5228
G1 X232.885 Y101.657 E31.60223
G1 X232.92 Y102.265 E31.62248
G1 X232.933 Y102.884 E31.64307
G1 X232.922 Y104.293 E31.68994
G1 X232.897 Y104.872 E31.70921
G1 X232.867 Y105.232 E31.72123
G1 X232.564 Y107.914 E31.811
G1 X232.348 Y110.426 E31.89486
G1 X232.206 Y112.952 E31.97901
G1 X232.133 Y115.491 E32.06349
G1 X232.133 Y118.014 E32.1474
G1 X232.204 Y120.538 E32.23139
G1 X232.346 Y123.063 E32.3155
G1 X232.56 Y125.574 E32.39932
G1 X232.85 Y128.176 E32.4864
G1 X232.893 Y128.775 E32.50637
G1 X232.917 Y129.426 E32.52804
G1 X232.926 Y130.871 E32.5761
G1 X232.906 Y131.468 E32.59597
G1 X232.857 Y132.265 E32.62253
G1 X232.762 Y133.535 E32.66488
G1 X232.644 Y136.077 E32.74952
G1 X232.598 Y138.548 E32.83172
G1 X232.624 Y141.11 E32.91694
G1 X232.722 Y143.678 E33.00241
G1 X232.888 Y146.177 E33.08571
G1 X233.042 Y147.877 E33.14249
G1 X233.148 Y148.934 E33.17782
G1 X233.191 Y149.544 E33.19816
G1 X233.215 Y150.282 E33.22272
G1 X233.253 Y153.082 E33.31586
G1 X233.253 Y153.811 E33.3401
G1 X233.213 Y154.713 E33.37013
G1 X233.083 Y155.678 E33.40252
G1 X232.876 Y156.593 E33.43372
G1 X232.589 Y157.486 E33.46492
G1 X232.238 Y158.319 E33.49498
G1 X231.781 Y159.181 E33.52743
G1 X231.238 Y160.01 E33.56039
G1 X230.577 Y160.921 E33.59783
G1 X205.733 Y193.937 E34.97211
G1 X205.215 Y194.603 E35.00018
G1 X204.513 Y195.395 E35.03538
G1 X203.908 Y196.013 E35.06414
G1 X201.916 Y197.996 E35.15763
G1 X201.338 Y198.556 E35.18439
G1 X200.396 Y199.362 E35.22563
G1 X199.319 Y200.177 E35.27055
G1 X197.258 Y201.678 E35.35535
G1 X196.645 Y202.112 E35.38033
G1 X195.85 Y202.622 E35.41175
G1 X194.826 Y203.143 E35.44996
G1 X193.91 Y203.546 E35.48325
G1 X190.376 Y205.037 E35.61082
G1 X189.608 Y205.348 E35.63838
G1 X188.723 Y205.66 E35.66959
G1 X187.869 Y205.881 E35.69893
G1 X186.804 Y206.108 E35.73515
G1 X182.93 Y206.873 E35.86649
G1 X182.167 Y207.012 E35.89228
G1 X181.243 Y207.138 E35.9233
G1 X180.647 Y207.175 E35.94316
G1 X179.41 Y207.215 E35.98432
G1 X150.428 Y207.629 E36.94837
G1 X78.168 Y208.219 E39.35182
G1 X77.337 Y208.214 E39.37946
G1 X76.048 Y208.125 E39.42244
G1 X75.439 Y208.033 E39.44292
G1 X68.72 Y206.789 E39.6702
G1 X67.784 Y206.599 E39.70196
G1 X67.13 Y206.431 E39.72442
G1 X66.465 Y206.229 E39.74754
G1 X60.034 Y204.138 E39.97246
G1 X59.39 Y203.918 E39.99509
G1 X58.538 Y203.585 E40.02552
G1 X57.546 Y203.144 E40.06162
G1 X51.498 Y200.339 E40.28336
G1 X50.829 Y200.018 E40.30804
G1 X50.341 Y199.766 E40.32631
G1 X49.935 Y199.539 E40.34178
G1 X43.067 Y195.412 E40.60828
G1 X42.598 Y195.12 E40.62665
G1 X42.064 Y194.766 E40.64796
G1 X41.162 Y194.126 E40.68475
G1 X34.851 Y189.464 E40.94571
G1 X33.981 Y188.793 E40.98226
G1 X33.201 Y188.13 E41.01631
G1 X26.861 Y182.582 E41.29651
G1 X26.224 Y182.008 E41.32503
G1 X25.494 Y181.31 E41.35863
G1 X18.864 Y174.602 E41.67232
G1 X18.289 Y174.004 E41.69991
G1 X17.508 Y173.089 E41.73992
G1 X16.849 Y172.219 E41.77623
G1 X10.647 Y163.757 E42.12517
G1 X10.158 Y163.072 E42.15316
G1 X10.142 Y163.034 E42.15454
G1 X9.77 Y162.487 E42.17654
G1 X9.328 Y161.699 E42.20659
G1 X8.773 Y160.391 E42.25385
G1 X8.516 Y159.651 E42.2799
G1 X4.012 Y146.018 E42.75744
G1 X3.764 Y145.232 E42.78485
G1 X3.615 Y144.714 E42.80278
G1 X3.522 Y144.324 E42.81612
G1 X3.418 Y143.781 E42.83451
G1 X3.333 Y143.247 E42.85249
G1 X1.909 Y132.699 E43.2065
G1 X1.799 Y131.757 E43.23804
G1 X1.75 Y130.982 E43.26387
G1 X1.745 Y130.497 E43.28
G1 X1.755 Y129.858 E43.30126
G1 X2.119 Y121.942 E43.56483
G1 X2.204 Y119.315 E43.65225
G1 X2.214 Y116.813 E43.73546
G1 X2.118 Y113.441 E43.84766
G1 X1.775 Y106.068 E44.09315
G1 X1.767 Y105.546 E44.11052
G1 X1.824 Y104.548 E44.14377
G1 X1.93 Y103.559 E44.17685
G1 X3.118 Y93.716 E44.5066
G1 X3.233 Y92.855 E44.5355
G1 X3.462 Y91.683 E44.57521
G1 X3.723 Y90.757 E44.60721
G1 X8.09 Y76.865 E45.09155
G1 X8.367 Y76.026 E45.12094
G1 X8.702 Y75.149 E45.15217
G1 X9.096 Y74.337 E45.18218
G1 X9.696 Y73.357 E45.2204
G1 X10.209 Y72.612 E45.25049
G1 X16.369 Y63.956 E45.60385
G1 X16.873 Y63.269 E45.63219
G1 X17.643 Y62.338 E45.67237
G1 X18.34 Y61.59 E45.70638
G1 X24.704 Y54.963 E46.01197
G1 X25.41 Y54.256 E46.0452
G1 X25.813 Y53.876 E46.06362
G1 X32.499 Y47.853 E46.36292
G1 X33.257 Y47.195 E46.39631
G1 X34.063 Y46.559 E46.43046
G0 F6000 X34.305 Y46.877
G1 F1200 X40.596 Y42.089 E46.69341
G1 X41.121 Y41.7 E46.71514
G1 X41.643 Y41.338 E46.73627
G1 X42.74 Y40.631 E46.77967
G1 X48.723 Y36.915 E47.01393
G1 X49.357 Y36.534 E47.03853
G1 X49.864 Y36.249 E47.05787
G1 X50.665 Y35.847 E47.08768
G1 X56.841 Y32.876 E47.31563
G1 X57.521 Y32.559 E47.34058
G1 X58.368 Y32.21 E47.37105
G1 X59.442 Y31.825 E47.409
G1 X65.346 Y29.814 E47.61644
G1 X66.026 Y29.593 E47.64023
G1 X66.852 Y29.363 E47.66874
G1 X67.404 Y29.237 E47.68758
G1 X73.772 Y27.958 E47.90361
G1 X74.59 Y27.805 E47.93129
G1 X75.63 Y27.665 E47.96619
G1 X76.09 Y27.636 E47.98152
G1 X76.923 Y27.617 E48.00923
G1 X149.311 Y27.176 E50.41691
G1 X178.72 Y27.177 E51.39506
G1 X179.372 Y27.186 E51.41674
G1 X180.273 Y27.238 E51.44676
G1 X180.861 Y27.316 E51.46649
G1 X182.028 Y27.507 E51.50582
G1 X185.845 Y28.202 E51.63486
G1 X186.635 Y28.357 E51.66164
G1 X187.513 Y28.571 E51.6917
G1 X188.316 Y28.841 E51.71987
G1 X189.311 Y29.225 E51.75535
G1 X192.932 Y30.692 E51.88529
G1 X193.583 Y30.967 E51.90879
G1 X194.399 Y31.355 E51.93885
G1 X195.367 Y31.94 E51.97647
G1 X196.196 Y32.508 E52.00989
G1 X198.48 Y34.124 E52.10295
G1 X198.982 Y34.489 E52.12359
G1 X199.932 Y35.272 E52.16454
G1 X200.912 Y36.186 E52.20911
G1 X202.79 Y38.005 E52.29607
G1 X203.3 Y38.512 E52.31999
G1 X204.081 Y39.383 E52.3589
G1 X204.52 Y39.933 E52.3823
G1 X230.056 Y72.874 E53.76857
G1 X230.468 Y73.422 E53.79138
G1 X230.978 Y74.168 E53.82143
G1 X231.42 Y74.955 E53.85145
G1 X231.791 Y75.778 E53.88148
G1 X232.088 Y76.631 E53.91152
G1 X232.308 Y77.507 E53.94156
G1 X232.45 Y78.399 E53.9716
G1 X232.513 Y79.359 E54.0036
G1 X232.533 Y80.501 E54.04159
G1 X232.532 Y82.811 E54.11842
G1 X232.522 Y83.509 E54.14164
G1 X232.498 Y84.072 E54.16038
G1 X232.293 Y86.563 E54.24351
G1 X232.148 Y89.119 E54.32866
G1 X232.075 Y91.658 E54.41315
G1 X232.075 Y94.193 E54.49746
G1 X232.146 Y96.719 E54.58151
G1 X232.292 Y99.31 E54.66782
G1 X232.486 Y101.68 E54.74691
G1 X232.52 Y102.274 E54.7667
G1 X232.533 Y102.881 E54.78689
G1 X232.522 Y104.276 E54.83329
G1 X232.498 Y104.84 E54.85207
G1 X232.47 Y105.187 E54.86365
G1 X232.165 Y107.88 E54.95379
G1 X231.95 Y110.392 E55.03765
G1 X231.806 Y112.941 E55.12256
G1 X231.733 Y115.48 E55.20704
G1 X231.733 Y118.014 E55.29132
G1 X231.804 Y120.549 E55.37567
G1 X231.947 Y123.097 E55.46055
G1 X232.162 Y125.618 E55.5447
G1 X232.451 Y128.205 E55.63128
G1 X232.493 Y128.79 E55.65079
G1 X232.517 Y129.429 E55.67206
G1 X232.526 Y130.858 E55.71959
G1 X232.507 Y131.443 E55.73906
