;FLAVOR:Marlin
;TIME:23864
;Filament used: 16.6176m
;Layer height: 0.2
;MINX:0
;MINY:22.369
;MINZ:0.2
;MAXX:235
;MAXY:212.625
;MAXZ:7.2
;TARGET_MACHINE.NAME:Creality Ender-3
;Generated with Cura_SteamEngine 5.10.2
M140 S50
M105
M190 S50
M104 S200
M105
M109 S200
; Ender 3 Custom Start G-code
G92 E0 ; Reset Extruder
G28 ; Home all axes
G1 Z2.0 F3000 ; Move Z Axis up little to prevent scratching of Heat Bed
G1 X0.1 Y20 Z0.3 F5000.0 ; Move to start position
G1 X0.1 Y200.0 Z0.3 F1500.0 E15 ; Draw the first line
G1 X0.4 Y200.0 Z0.3 F5000.0 ; Move to side a little
G1 X0.4 Y20 Z0.3 F1500.0 E30 ; Draw the second line
G92 E0 ; Reset Extruder
G1 Z2.0 F3000 ; Move Z Axis up little to prevent scratching of Heat Bed
G1 X5 Y20 Z0.3 F5000.0 ; Move over to prevent blob squish
M82 ;absolute extrusion mode
G92 E0
G92 E0
G1 F2700 E-5
;LAYER_COUNT:36
;LAYER:0
M107
G0 F6000 X0.00 Y83.598 Z0.2
;TYPE:SKIRT
G1 F2700 E0
G1 F1200 X2.802 Y74.688 E0.31066
G1 X3.033 Y73.991 E0.33508
G1 X3.389 Y73.066 E0.36804
G1 X3.783 Y72.254 E0.39806
G1 X4.413 Y71.223 E0.43825
G1 X4.962 Y70.427 E0.47041
G1 X11.419 Y61.354 E0.8408
G1 X11.963 Y60.614 E0.87135
G1 X12.744 Y59.669 E0.91212
G1 X13.47 Y58.892 E0.94749
G1 X20.167 Y51.918 E1.26908
G1 X20.672 Y51.407 E1.29297
G1 X21.085 Y51.007 E1.31209
G1 X28.232 Y44.558 E1.63227
G1 X28.903 Y43.97 E1.66195
G1 X29.295 Y43.643 E1.67893
G1 X30.02 Y43.077 E1.70952
G1 X36.664 Y38.021 E1.98721
G1 X37.168 Y37.65 E2.00802
G1 X37.703 Y37.28 E2.02966
G1 X38.821 Y36.557 E2.07394
G1 X45.115 Y32.651 E2.32031
G1 X45.808 Y32.232 E2.34725
G1 X46.344 Y31.931 E2.3677
G1 X47.207 Y31.5 E2.39978
G1 X53.829 Y28.315 E2.64418
G1 X54.465 Y28.021 E2.66748
G1 X55.328 Y27.668 E2.6985
G1 X56.362 Y27.295 E2.73506
G1 X62.566 Y25.182 E2.95304
G1 X63.389 Y24.914 E2.98183
G1 X64.237 Y24.677 E3.01111
G1 X64.82 Y24.544 E3.031
G1 X71.731 Y23.157 E3.26545
G1 X72.441 Y23.025 E3.28947
G1 X73.521 Y22.884 E3.32569
G1 X74.1 Y22.849 E3.34499
G1 X74.87 Y22.833 E3.3706
G1 X150.903 Y22.369 E5.89952
G1 X181.678 Y22.369 E6.9231
G1 X182.504 Y22.381 E6.95057
G1 X183.463 Y22.438 E6.98253
G1 X184.076 Y22.52 E7.0031
G1 X185.299 Y22.719 E7.04431
G1 X189.447 Y23.476 E7.18455
G1 X190.175 Y23.62 E7.20923
G1 X191.053 Y23.833 E7.23928
G1 X191.977 Y24.142 E7.27169
G1 X192.956 Y24.52 E7.30659
G1 X196.706 Y26.038 E7.44115
G1 X197.512 Y26.378 E7.47024
G1 X198.38 Y26.792 E7.50223
G1 X199.43 Y27.426 E7.54302
G1 X200.255 Y27.99 E7.57626
G1 X202.667 Y29.696 E7.67453
G1 X203.279 Y30.143 E7.69973
G1 X204.23 Y30.927 E7.74072
G1 X205.223 Y31.853 E7.78588
G1 X207.205 Y33.771 E7.87762
G1 X207.849 Y34.413 E7.90786
G1 X208.637 Y35.296 E7.94723
G1 X209.183 Y35.981 E7.97636
G1 X235 Y69.286 E9.37793
G0 F6000 X235 Y69.939
G1 F1200 X208.867 Y36.226 E10.79666
G1 X208.324 Y35.545 E10.82563
G1 X207.551 Y34.68 E10.86421
G1 X206.923 Y34.054 E10.8937
G1 X204.945 Y32.14 E10.98525
G1 X203.976 Y31.236 E11.02933
G1 X203.025 Y30.452 E11.07032
G1 X202.431 Y30.019 E11.09477
G1 X200.024 Y28.317 E11.19282
G1 X199.204 Y27.756 E11.22586
G1 X198.208 Y27.153 E11.26459
G1 X197.34 Y26.739 E11.29657
G1 X196.551 Y26.407 E11.32505
G1 X192.806 Y24.891 E11.45942
G1 X191.833 Y24.515 E11.49412
G1 X190.959 Y24.222 E11.52478
G1 X190.081 Y24.009 E11.55483
G1 X189.375 Y23.87 E11.57876
G1 X185.227 Y23.113 E11.719
G1 X184.012 Y22.915 E11.75994
G1 X183.41 Y22.835 E11.78014
G1 X182.48 Y22.78 E11.81113
G1 X181.673 Y22.769 E11.83797
G1 X150.905 Y22.769 E12.86132
G1 X74.872 Y23.233 E15.39024
G1 X74.108 Y23.249 E15.41565
G1 X73.573 Y23.281 E15.43348
G1 X72.493 Y23.422 E15.4697
G1 X71.804 Y23.55 E15.49301
G1 X64.899 Y24.936 E15.72725
G1 X64.326 Y25.067 E15.7468
G1 X63.497 Y25.299 E15.77544
G1 X62.69 Y25.562 E15.80367
G1 X56.491 Y27.674 E16.02148
G1 X55.463 Y28.044 E16.05782
G1 X54.617 Y28.391 E16.08823
G1 X53.997 Y28.678 E16.11096
G1 X47.38 Y31.86 E16.35517
G1 X46.523 Y32.289 E16.38704
G1 X46.004 Y32.581 E16.40685
G1 X45.322 Y32.993 E16.43335
G1 X39.032 Y36.897 E16.67958
G1 X37.92 Y37.616 E16.72362
G1 X37.395 Y37.979 E16.74485
G1 X36.901 Y38.343 E16.76526
G1 X30.262 Y43.395 E17.04273
G1 X29.541 Y43.958 E17.07316
G1 X29.159 Y44.277 E17.08971
G1 X28.496 Y44.859 E17.11905
G1 X21.353 Y51.304 E17.43904
G1 X20.951 Y51.694 E17.45767
G1 X20.452 Y52.199 E17.48129
G1 X13.758 Y59.169 E17.80271
G1 X13.037 Y59.942 E17.83787
G1 X12.271 Y60.869 E17.87786
G1 X11.741 Y61.591 E17.90765
G1 X5.288 Y70.659 E18.27783
G1 X4.742 Y71.45 E18.30979
G1 X4.143 Y72.429 E18.34797
G1 X3.749 Y73.241 E18.37799
G1 X3.413 Y74.117 E18.40919
G1 X3.182 Y74.814 E18.43361
G1 X0.00 Y84.933 E18.78642
G0 F6000 X0.00 Y86.268
G1 F1200 X3.562 Y74.94 E19.18138
G1 X3.787 Y74.26 E19.2052
G1 X4.109 Y73.416 E19.23525
G1 X4.503 Y72.604 E19.26527
G1 X5.071 Y71.677 E19.30143
G1 X5.614 Y70.891 E19.3332
G1 X12.064 Y61.827 E19.70321
G1 X12.579 Y61.124 E19.73219
G1 X13.33 Y60.215 E19.77141
G1 X14.046 Y59.446 E19.80636
G1 X20.737 Y52.48 E20.12761
G1 X21.23 Y51.981 E20.15094
G1 X21.621 Y51.601 E20.16908
G1 X28.76 Y45.16 E20.48888
G1 X29.416 Y44.584 E20.51792
G1 X29.787 Y44.273 E20.53402
G1 X30.504 Y43.713 E20.56428
G1 X37.139 Y38.665 E20.84157
G1 X37.622 Y38.308 E20.86154
G1 X38.137 Y37.952 E20.88237
G1 X39.243 Y37.237 E20.92617
G1 X45.529 Y33.335 E21.17225
G1 X46.197 Y32.932 E21.1982
G1 X46.705 Y32.653 E21.21747
G1 X46.702 Y32.647 E21.2177
G1 X47.553 Y32.22 E21.24936
G1 X54.165 Y29.041 E21.49338
G1 X54.769 Y28.761 E21.51552
G1 X55.598 Y28.42 E21.54534
G1 X56.62 Y28.053 E21.58145
G1 X62.814 Y25.942 E21.7991
G1 X63.602 Y25.685 E21.82667
G1 X64.416 Y25.463 E21.85473
G1 X64.415 Y25.457 E21.85493
G1 X64.978 Y25.328 E21.87414
G1 X71.877 Y23.943 E22.10818
G1 X72.545 Y23.819 E22.13078
G1 X73.625 Y23.678 E22.16701
G1 X74.116 Y23.649 E22.18337
G1 X74.874 Y23.633 E22.20858
G1 X150.907 Y23.169 E24.7375
G1 X181.668 Y23.169 E25.76061
G1 X182.457 Y23.179 E25.78686
G1 X183.358 Y23.232 E25.81688
G1 X183.948 Y23.31 E25.83667
G1 X185.155 Y23.507 E25.87735
G1 X189.298 Y24.263 E26.01742
G1 X189.987 Y24.398 E26.04077
G1 X190.865 Y24.611 E26.07082
G1 X191.689 Y24.888 E26.09973
G1 X192.656 Y25.262 E26.13422
G1 X196.396 Y26.776 E26.26842
G1 X197.185 Y27.108 E26.29689
G1 X198.001 Y27.495 E26.32693
G1 X198.978 Y28.086 E26.3649
G1 X199.793 Y28.644 E26.39776
G1 X202.196 Y30.343 E26.49564
G1 X202.771 Y30.761 E26.51928
G1 X203.703 Y31.529 E26.55945
G1 X204.667 Y32.427 E26.60327
G1 X206.641 Y34.338 E26.69465
G1 X207.253 Y34.947 E26.72337
G1 X208.011 Y35.794 E26.76117
G1 X208.551 Y36.471 E26.78997
G1 X235 Y70.592 E28.22587
G1 F2700 E23.22587
G0 F6000 X235 Y164.512
G1 F2700 E28.22587
G1 F1200 X210.032 Y197.691 E29.60697
G1 X209.486 Y198.393 E29.63654
G1 X208.776 Y199.195 E29.67217
G1 X208.158 Y199.827 E29.70157
G1 X206.003 Y201.97 E29.80265
G1 X205.411 Y202.543 E29.83006
G1 X204.46 Y203.358 E29.87171
G1 X203.432 Y204.137 E29.91461
G1 X201.085 Y205.846 E30.01118
G1 X200.524 Y206.242 E30.03401
G1 X199.679 Y206.78 E30.06733
G1 X198.657 Y207.3 E30.10547
G1 X197.706 Y207.718 E30.14002
G1 X193.925 Y209.312 E30.2765
G1 X193.165 Y209.62 E30.30377
G1 X192.232 Y209.948 E30.33667
G1 X191.363 Y210.173 E30.36652
G1 X190.331 Y210.393 E30.40162
G1 X186.184 Y211.211 E30.54221
G1 X185.366 Y211.361 E30.56987
G1 X184.412 Y211.491 E30.60189
G1 X183.791 Y211.53 E30.62258
G1 X182.542 Y211.57 E30.66415
G1 X151.872 Y212.008 E31.68434
G1 X76.162 Y212.625 E34.20255
G1 X75.304 Y212.619 E34.23109
G1 X73.983 Y212.527 E34.27513
G1 X73.374 Y212.435 E34.29561
G1 X66.27 Y211.119 E34.53591
G1 X65.314 Y210.924 E34.56837
G1 X64.646 Y210.752 E34.59131
G1 X64.029 Y210.566 E34.61274
G1 X57.305 Y208.381 E34.84789
G1 X56.501 Y208.107 E34.87615
G1 X55.64 Y207.77 E34.9069
G1 X54.653 Y207.331 E34.94283
G1 X48.174 Y204.327 E35.18036
G1 X47.546 Y204.024 E35.20355
G1 X47.001 Y203.74 E35.22399
G1 X46.107 Y203.224 E35.25832
G1 X39.412 Y199.198 E35.51816
G1 X38.907 Y198.883 E35.53795
G1 X38.357 Y198.518 E35.55991
G1 X37.283 Y197.753 E35.60376
G1 X30.904 Y193.038 E35.8676
G1 X30.175 Y192.483 E35.89807
G1 X29.696 Y192.099 E35.91849
G1 X29.111 Y191.598 E35.94411
G1 X22.38 Y185.708 E36.24159
G1 X21.737 Y185.131 E36.27033
G1 X20.998 Y184.422 E36.30439
G1 X13.998 Y177.338 E36.63563
G1 X13.408 Y176.724 E36.66395
G1 X12.597 Y175.773 E36.70552
G1 X11.993 Y174.975 E36.73881
G1 X5.36 Y165.926 E37.11197
G1 X4.869 Y165.235 E37.14017
G1 X4.342 Y164.416 E37.17256
G1 X3.921 Y163.618 E37.20257
G1 X3.458 Y162.488 E37.24319
G1 X3.159 Y161.625 E37.27356
G1 X0.00 Y152.067 E37.60838
G0 F6000 X0.00 Y150.791
G1 F1200 X3.539 Y161.499 E37.98347
G1 X3.836 Y162.357 E38.01367
G1 X4.275 Y163.431 E38.05226
G1 X4.696 Y164.229 E38.08227
G1 X5.205 Y165.018 E38.1135
G1 X5.686 Y165.694 E38.1411
G1 X12.316 Y174.739 E38.5141
G1 X12.916 Y175.532 E38.54717
G1 X13.712 Y176.464 E38.58794
G1 X14.286 Y177.061 E38.61548
G1 X21.283 Y184.141 E38.94656
G1 X22.014 Y184.842 E38.98024
G1 X22.647 Y185.41 E39.00853
G1 X29.374 Y191.297 E39.30585
G1 X29.956 Y191.795 E39.33133
G1 X30.425 Y192.171 E39.35132
G1 X31.146 Y192.72 E39.38146
G1 X37.521 Y197.431 E39.64511
G1 X38.589 Y198.192 E39.68872
G1 X39.128 Y198.55 E39.71024
G1 X39.623 Y198.858 E39.72964
G1 X46.313 Y202.881 E39.98928
G1 X47.201 Y203.394 E40.02339
G1 X47.73 Y203.669 E40.04322
G1 X48.348 Y203.967 E40.06604
G1 X54.821 Y206.968 E40.30334
G1 X55.802 Y207.404 E40.33905
G1 X56.647 Y207.734 E40.36922
G1 X57.434 Y208.002 E40.39687
G1 X64.153 Y210.186 E40.63186
G1 X64.761 Y210.369 E40.65298
G1 X65.414 Y210.537 E40.6754
G1 X66.35 Y210.727 E40.70717
G1 X73.434 Y212.039 E40.94679
G1 X74.043 Y212.131 E40.96727
G1 X75.332 Y212.22 E41.01025
G1 X76.164 Y212.225 E41.03792
G1 X151.869 Y211.608 E43.55596
G1 X182.536 Y211.17 E44.57606
G1 X183.778 Y211.13 E44.61739
G1 X184.387 Y211.092 E44.63768
G1 X185.312 Y210.965 E44.66874
G1 X186.112 Y210.818 E44.69579
G1 X190.254 Y210.001 E44.83621
G1 X191.28 Y209.782 E44.8711
G1 X192.131 Y209.561 E44.90034
G1 X193.015 Y209.249 E44.93152
G1 X193.775 Y208.941 E44.9588
G1 X197.551 Y207.349 E45.09509
G1 X198.476 Y206.943 E45.12869
G1 X199.498 Y206.423 E45.16683
G1 X200.293 Y205.915 E45.19821
G1 X200.854 Y205.519 E45.22105
G1 X203.19 Y203.818 E45.31716
G1 X204.218 Y203.039 E45.36006
G1 X205.151 Y202.239 E45.40094
G1 X205.725 Y201.683 E45.42752
G1 X207.876 Y199.543 E45.52844
G1 X208.49 Y198.915 E45.55765
G1 X209.17 Y198.147 E45.59177
G1 X209.716 Y197.445 E45.62135
G1 X235 Y163.846 E47.01992
G0 F6000 X235 Y163.18
G1 F1200 X209.4 Y197.2 E48.43601
G1 X208.87 Y197.882 E48.46474
G1 X208.204 Y198.635 E48.49817
G1 X207.594 Y199.259 E48.52719
G1 X205.447 Y201.396 E48.62795
G1 X204.891 Y201.935 E48.6537
G1 X203.976 Y202.72 E48.6938
G1 X202.948 Y203.499 E48.7367
G1 X200.623 Y205.192 E48.83236
G1 X200.077 Y205.578 E48.8546
G1 X199.317 Y206.066 E48.88464
G1 X198.295 Y206.586 E48.92278
G1 X197.396 Y206.98 E48.95543
G1 X193.624 Y208.57 E49.09157
G1 X192.881 Y208.872 E49.11825
G1 X192.03 Y209.174 E49.14828
G1 X191.196 Y209.391 E49.17695
G1 X190.177 Y209.609 E49.2116
G1 X186.04 Y210.425 E49.35185
G1 X185.257 Y210.569 E49.37833
G1 X184.362 Y210.693 E49.40838
G1 X183.765 Y210.73 E49.42828
G1 X182.53 Y210.77 E49.46938
G1 X151.866 Y211.208 E50.48937
G1 X76.166 Y211.825 E53.00724
G1 X75.359 Y211.821 E53.03409
G1 X74.102 Y211.735 E53.07599
G1 X73.507 Y211.646 E53.096
G1 X66.43 Y210.335 E53.33539
G1 X65.513 Y210.149 E53.36651
G1 X64.876 Y209.986 E53.38838
G1 X64.277 Y209.806 E53.40918
G1 X57.563 Y207.623 E53.644
G1 X56.792 Y207.361 E53.67108
G1 X55.964 Y207.038 E53.70064
G1 X54.989 Y206.605 E53.73612
G1 X48.522 Y203.607 E53.97321
G1 X47.914 Y203.314 E53.99565
G1 X47.401 Y203.048 E54.01487
G1 X46.519 Y202.538 E54.04876
G1 X39.834 Y198.518 E54.30821
G1 X39.349 Y198.217 E54.3272
G1 X38.821 Y197.866 E54.34828
G1 X37.759 Y197.109 E54.39166
G1 X31.388 Y192.402 E54.65512
G1 X30.675 Y191.859 E54.68493
G1 X30.216 Y191.491 E54.7045
G1 X29.637 Y190.996 E54.72983
G1 X22.914 Y185.112 E55.02699
G1 X22.291 Y184.553 E55.05483
G1 X21.568 Y183.86 E55.08813
G1 X14.574 Y176.783 E55.41907
G1 X14.016 Y176.204 E55.44581
G1 X13.235 Y175.291 E55.48578
G1 X12.639 Y174.503 E55.51864
G1 X6.012 Y165.462 E55.89147
G1 X5.541 Y164.801 E55.91847
G1 X5.05 Y164.042 E55.94853
G1 X4.629 Y163.244 E55.97854
G1 X4.214 Y162.226 E56.01511
G1 X3.919 Y161.373 E56.04513
G1 X0.00 Y149.515 E56.46051
G1 F2700 E51.46051
;MESH:Mira_blade.stl
G0 F6000 X8.068 Y143.536
G0 X7.866 Y129.785
;TYPE:WALL-INNER
G1 F2700 E56.46051
G1 F774.2 X7.847 Y129.252 E56.488
G1 F902.3 X7.827 Y128.72 E56.51155
G1 F1081.1 X7.808 Y128.187 E56.53124
G1 F2700 E51.53124
G0 F6000 X9.882 Y143.009
G0 X14.917 Y158.332
G0 X22.259 Y168.323
G0 X29.939 Y176.092
G0 X37.623 Y182.822
G0 X45.276 Y188.475
G0 X52.896 Y193.059
G0 X60.478 Y196.574
G0 X68.031 Y199.028
G0 X75.515 Y200.425
G0 X117.313 Y200.434
G0 X75.521 Y200.8
G0 X117.498 Y200.555
G0 X117.5 Y200.671
G1 F2700 E56.53124
G1 F1116.3 X151.977 Y200.388 E57.764
G1 F1111.1 X183.295 Y199.941 E58.88908
G1 X188.843 Y198.845 E59.09222
G1 F1116.3 X193.875 Y196.725 E59.28746
G1 F1113.7 X197.343 Y194.197 E59.44126
G1 F1111.1 X200.442 Y191.114 E59.59828
G1 F1113.7 X203.035 Y187.671 E59.75275
G1 F1124.1 X205.628 Y184.229 E59.90576
G1 F1137.4 X208.221 Y180.786 E60.057
G1 F1148.3 X210.814 Y177.343 E60.20681
G1 F1159.4 X213.408 Y173.901 E60.35518
G1 F1170.7 X216.001 Y170.458 E60.50212
G1 F1182.3 X218.594 Y167.015 E60.64763
G1 F1194 X221.187 Y163.573 E60.79168
G1 F1209.1 X223.78 Y160.13 E60.93396
G1 F1221.4 X226.373 Y156.687 E61.07481
G1 F1209.1 X227.309 Y155.437 E61.12636
G1 F1206 X227.317 Y155.083 E61.13808
G1 F1153.8 X227.283 Y154.335 E61.16398
G1 F1095.9 X227.253 Y152.263 E61.23945
G1 X226.816 Y152.268 E61.25536
G1 X226.846 Y154.355 E61.33138
G1 F1151.1 X226.92 Y155.01 E61.35423
G1 F1200 X226.902 Y155.326 E61.36476
G1 F1209.1 X226.059 Y156.455 E61.41127
G1 F1221.4 X223.464 Y159.893 E61.55203
G1 F1209.1 X220.87 Y163.33 E61.69418
G1 F1194 X218.275 Y166.768 E61.83816
G1 F1182.3 X215.68 Y170.206 E61.98357
G1 F1170.7 X213.085 Y173.643 E62.13039
G1 F1159.4 X210.491 Y177.081 E62.27865
G1 F1148.3 X207.896 Y180.519 E62.42836
G1 F1137.4 X205.301 Y183.957 E62.57951
G1 F1124.1 X202.707 Y187.394 E62.73239
G1 F1113.7 X200.112 Y190.832 E62.88676
G1 F1111.1 X197.064 Y193.869 E63.04132
G1 F1113.7 X193.664 Y196.351 E63.19218
G1 F1116.3 X188.717 Y198.432 E63.38407
G1 F1111.1 X183.25 Y199.512 E63.58425
G1 X151.966 Y199.956 E64.70811
G1 F1113.7 X113.739 Y200.273 E66.07813
G1 F1118.9 X75.511 Y200.589 E67.44183
G1 F1116.3 X67.99 Y199.188 E67.71536
G1 X60.417 Y196.726 E68.00008
G1 X52.813 Y193.2 E68.29977
G1 X45.202 Y188.624 E68.6173
G1 F1118.9 X37.513 Y182.949 E68.95819
G1 F1116.3 X29.814 Y176.202 E69.32421
G1 F1111.1 X22.134 Y168.432 E69.71665
G1 F1116.3 X14.772 Y158.407 E70.16136
G1 F1121.5 X9.917 Y143.684 E70.71308
G1 F1106 X9.717 Y143.051 E70.73703
G1 F1095.9 X8.134 Y131.315 E71.16833
G1 X8.136 Y131.111 E71.17576
G1 F1200 X8.061 Y130.164 E71.20735
G1 F933.9 X7.866 Y129.785 E71.22557
G1 X7.701 Y130.177 E71.24375
G1 F1194 X7.695 Y131.341 E71.28266
G1 F1095.9 X9.29 Y143.148 E71.71657
G1 F1111.1 X14.392 Y158.603 E72.3012
G1 F1116.3 X21.806 Y168.715 E72.74952
G1 F1111.1 X29.524 Y176.52 E73.14381
G1 F1116.3 X37.252 Y183.286 E73.51105
G1 X44.954 Y188.976 E73.85344
G1 F1113.7 X52.609 Y193.58 E74.17357
G1 F1116.3 X60.262 Y197.126 E74.47515
G1 X67.884 Y199.606 E74.76173
G1 X75.467 Y201.015 E75.0375
G1 F1121.5 X117.5 Y200.671 E76.53343
G0 F6000 X117.5 Y201.085
;TYPE:WALL-OUTER
G1 F1200 X151.982 Y200.804 E77.68035
G1 X183.339 Y200.356 E78.72339
G1 X188.965 Y199.243 E78.91414
G1 X194.08 Y197.088 E79.09875
G1 X197.613 Y194.515 E79.24412
G1 X200.756 Y191.388 E79.39158
G1 X227.719 Y155.558 E80.88302
