;FLAVOR:Marlin
;TIME:9502
;Filament used: 5.34869m
;Layer height: 0.2
;MINX:53.934
;MINY:99.5
;MINZ:0.2
;MAXX:181.046
;MAXY:135.5
;MAXZ:61.4
;Generated with Cura_SteamEngine 4.8.0
M140 S50
M105
M190 S50
M104 S200
M105
M109 S200
M82 ;absolute extrusion mode
; Ender 3 Custom Start G-code
G92 E0 ; Reset Extruder
G28 ; Home all axes
G1 Z2.0 F3000 ; Move Z Axis up little to prevent scratching of Heat Bed
G1 X0.1 Y20 Z0.3 F5000.0 ; Move to start position
G1 X0.1 Y200.0 Z0.3 F1500.0 E15 ; Draw the first line
G1 X0.4 Y200.0 Z0.3 F5000.0 ; Move to side a little
G1 X0.4 Y20 Z0.3 F1500.0 E30 ; Draw the second line
G92 E0 ; Reset Extruder
G1 Z2.0 F3000 ; Move Z Axis up little to prevent scratching of Heat Bed
G1 X5 Y20 Z0.3 F5000.0 ; Move over to prevent blob squish
G92 E0
G92 E0
G1 F2700 E-5
;LAYER_COUNT:307
;LAYER:0
M107
G0 F6000 X60.189 Y112.589 Z0.2
;TYPE:SKIRT
G1 F2700 E0
G1 F1200 X61.051 Y112.22 E0.03119
G1 X61.942 Y111.926 E0.06239
G1 X62.854 Y111.709 E0.09357
G1 X63.684 Y111.581 E0.12151
G1 X64.693 Y111.466 E0.15528
G1 X65.531 Y111.382 E0.18329
G1 X68.022 Y111.062 E0.26683
G1 X70.497 Y110.671 E0.35017
G1 X72.969 Y110.21 E0.4338
G1 X75.406 Y109.683 E0.51673
G1 X77.867 Y109.078 E0.60102
G1 X80.317 Y108.401 E0.68556
G1 X82.718 Y107.664 E0.7691
G1 X85.096 Y106.86 E0.85259
G1 X87.435 Y105.995 E0.93553
G1 X89.825 Y105.034 E1.02121
G1 X92.075 Y104.054 E1.10284
G1 X94.355 Y102.983 E1.18662
G1 X96.177 Y102.048 E1.25473
G1 X97.286 Y101.49 E1.29602
G1 X97.911 Y101.199 E1.31895
G1 X98.752 Y100.84 E1.34937
G1 X99.069 Y100.711 E1.36075
G1 X99.302 Y100.62 E1.36907
G1 X100.595 Y100.205 E1.41424
G1 X101.39 Y100.003 E1.44152
G1 X101.745 Y99.919 E1.45365
G1 X101.996 Y99.864 E1.4622
G1 X103.284 Y99.661 E1.50557
G1 X104.085 Y99.583 E1.53233
G1 X104.479 Y99.552 E1.54548
G1 X104.822 Y99.531 E1.55691
G1 X105.109 Y99.517 E1.56646
G1 X105.309 Y99.51 E1.57312
G1 X105.582 Y99.504 E1.5822
G1 X105.989 Y99.5 E1.59574
G1 X139.791 Y99.5 E2.72
G1 X140.653 Y99.511 E2.74867
G1 X140.968 Y99.52 E2.75915
G1 X141.413 Y99.542 E2.77397
G1 X141.893 Y99.576 E2.78998
G1 X142.55 Y99.635 E2.81192
G1 X143.822 Y99.825 E2.85469
G1 X144.156 Y99.895 E2.86604
G1 X144.572 Y99.99 E2.88024
G1 X145.211 Y100.15 E2.90215
G1 X146.451 Y100.54 E2.94538
G1 X147.192 Y100.822 E2.97175
G1 X147.576 Y100.977 E2.98552
G1 X147.807 Y101.075 E2.99387
G1 X148.95 Y101.64 E3.03628
G1 X150.117 Y102.304 E3.08093
G1 X152.228 Y103.523 E3.16201
G1 X154.473 Y104.737 E3.2469
G1 X156.696 Y105.858 E3.3297
G1 X158.975 Y106.928 E3.41344
G1 X161.297 Y107.939 E3.49768
G1 X163.651 Y108.888 E3.58209
G1 X165.99 Y109.75 E3.665
G1 X168.351 Y110.547 E3.74788
G1 X170.812 Y111.302 E3.8335
G1 X172.137 Y111.677 E3.8793
G1 X172.954 Y111.902 E3.90749
G1 X173.847 Y112.189 E3.93869
G1 X174.712 Y112.551 E3.96987
G1 X175.543 Y112.985 E4.00106
G1 X176.335 Y113.489 E4.03228
G1 X177.08 Y114.058 E4.06346
G1 X177.774 Y114.689 E4.09466
G1 X178.412 Y115.377 E4.12586
G1 X178.989 Y116.116 E4.15705
G1 X179.501 Y116.902 E4.18825
G1 X179.944 Y117.728 E4.21942
G1 X180.315 Y118.59 E4.25063
G1 X180.612 Y119.479 E4.28181
G1 X180.831 Y120.391 E4.313
G1 X180.972 Y121.318 E4.34419
G1 X181.033 Y122.197 E4.3735
G1 X181.042 Y122.515 E4.38408
G1 X181.046 Y122.814 E4.39402
G1 X181.046 Y123.92 E4.43081
G1 X181.036 Y124.642 E4.45483
G1 X180.983 Y125.579 E4.48604
G1 X180.85 Y126.507 E4.51722
G1 X180.639 Y127.421 E4.54842
G1 X180.351 Y128.313 E4.5796
G1 X179.988 Y129.178 E4.6108
G1 X179.552 Y130.009 E4.64201
G1 X179.048 Y130.799 E4.67318
G1 X178.478 Y131.544 E4.70438
G1 X177.846 Y132.237 E4.73557
G1 X177.158 Y132.874 E4.76676
G1 X176.418 Y133.45 E4.79795
G1 X175.631 Y133.961 E4.82916
G1 X174.804 Y134.403 E4.86034
G1 X173.942 Y134.773 E4.89154
G1 X173.052 Y135.069 E4.92274
G1 X172.14 Y135.287 E4.95393
G1 X171.213 Y135.427 E4.98511
G1 X170.402 Y135.484 E5.01215
G1 X170.101 Y135.494 E5.02217
G1 X169.736 Y135.5 E5.03431
G1 X65.499 Y135.499 E8.50124
G1 X64.801 Y135.49 E8.52446
G1 X63.865 Y135.438 E8.55564
G1 X62.936 Y135.306 E8.58685
G1 X62.022 Y135.096 E8.61804
G1 X61.129 Y134.809 E8.64924
G1 X60.264 Y134.446 E8.68044
G1 X59.433 Y134.012 E8.71162
G1 X58.642 Y133.508 E8.74282
G1 X57.897 Y132.938 E8.77402
G1 X57.203 Y132.307 E8.80521
G1 X56.566 Y131.62 E8.83637
G1 X55.989 Y130.88 E8.86759
G1 X55.477 Y130.094 E8.89878
G1 X55.034 Y129.267 E8.92999
G1 X54.663 Y128.406 E8.96117
G1 X54.367 Y127.516 E8.99237
G1 X54.148 Y126.604 E9.02356
G1 X54.007 Y125.677 E9.05475
G1 X53.947 Y124.788 E9.08438
G1 X53.938 Y124.455 E9.09546
G1 X53.934 Y124.169 E9.10498
G1 X53.934 Y123.001 E9.14383
G1 X53.944 Y122.342 E9.16575
G1 X53.998 Y121.406 E9.19693
G1 X54.132 Y120.478 E9.22812
G1 X54.345 Y119.564 E9.25933
G1 X54.634 Y118.672 E9.29052
G1 X54.998 Y117.808 E9.3217
G1 X55.435 Y116.978 E9.3529
G1 X55.941 Y116.188 E9.3841
G1 X56.512 Y115.444 E9.41529
G1 X57.144 Y114.751 E9.44649
G1 X57.833 Y114.115 E9.47768
G1 X58.574 Y113.54 E9.50887
G1 X59.361 Y113.03 E9.54006
G1 X60.189 Y112.589 E9.57126
G0 F6000 X60.561 Y112.857
G1 F1200 X61.415 Y112.513 E9.60189
G1 X62.296 Y112.245 E9.63251
G1 X63.196 Y112.054 E9.66312
G1 X63.73 Y111.979 E9.68105
G1 X64.732 Y111.864 E9.7146
G1 X65.589 Y111.778 E9.74324
G1 X68.069 Y111.459 E9.82641
G1 X70.556 Y111.067 E9.91015
G1 X73.055 Y110.6 E9.9947
G1 X75.514 Y110.069 E10.07837
G1 X77.972 Y109.465 E10.16256
G1 X80.403 Y108.793 E10.24645
G1 X82.849 Y108.043 E10.33154
G1 X85.231 Y107.237 E10.41518
G1 X87.587 Y106.366 E10.49872
G1 X89.942 Y105.418 E10.58316
G1 X92.268 Y104.405 E10.66754
G1 X94.54 Y103.337 E10.75104
G1 X96.357 Y102.405 E10.81896
G1 X97.466 Y101.847 E10.86025
G1 X98.068 Y101.567 E10.88233
G1 X98.909 Y101.208 E10.91275
G1 X99.215 Y101.083 E10.92374
G1 X99.448 Y100.992 E10.93206
G1 X100.694 Y100.592 E10.97559
G1 X101.489 Y100.39 E11.00287
G1 X101.83 Y100.31 E11.01452
G1 X102.081 Y100.255 E11.02306
G1 X103.323 Y100.059 E11.06488
G1 X104.124 Y99.981 E11.09165
G1 X104.503 Y99.951 E11.1043
G1 X104.846 Y99.93 E11.11573
G1 X105.123 Y99.916 E11.12495
G1 X105.323 Y99.909 E11.13161
G1 X105.881 Y99.901 E11.15017
G1 X139.791 Y99.9 E12.27802
G1 X140.647 Y99.911 E12.30649
G1 X140.951 Y99.92 E12.31661
G1 X141.388 Y99.941 E12.33116
G1 X141.857 Y99.974 E12.3468
G1 X142.514 Y100.033 E12.36874
G1 X143.74 Y100.216 E12.40997
G1 X144.074 Y100.286 E12.42132
G1 X144.475 Y100.378 E12.435
G1 X145.114 Y100.538 E12.45691
G1 X146.309 Y100.914 E12.49858
G1 X147.05 Y101.196 E12.52495
G1 X147.42 Y101.345 E12.53821
G1 X147.651 Y101.443 E12.54656
G1 X148.752 Y101.987 E12.5874
G1 X149.917 Y102.65 E12.63199
G1 X152.044 Y103.879 E12.71369
G1 X154.282 Y105.089 E12.79831
G1 X156.525 Y106.219 E12.88185
G1 X158.824 Y107.299 E12.96633
G1 X161.136 Y108.306 E13.0502
G1 X163.499 Y109.258 E13.13494
G1 X165.861 Y110.129 E13.21867
G1 X168.243 Y110.933 E13.30228
G1 X170.683 Y111.681 E13.38717
G1 X172.028 Y112.062 E13.43366
G1 X172.848 Y112.288 E13.46195
G1 X173.724 Y112.57 E13.49256
G1 X174.573 Y112.928 E13.52321
G1 X175.387 Y113.357 E13.55381
G1 X176.161 Y113.856 E13.58444
G1 X176.889 Y114.42 E13.61507
G1 X177.565 Y115.045 E13.64569
G1 X178.184 Y115.726 E13.6763
G1 X178.741 Y116.459 E13.70692
G1 X179.234 Y117.237 E13.73755
G1 X179.656 Y118.055 E13.76817
G1 X180.006 Y118.906 E13.79877
G1 X180.281 Y119.785 E13.8294
G1 X180.479 Y120.684 E13.86002
G1 X180.598 Y121.597 E13.89065
G1 X180.633 Y122.208 E13.911
G1 X180.642 Y122.526 E13.92158
G1 X180.646 Y122.815 E13.93119
G1 X180.646 Y123.915 E13.96778
G1 X180.636 Y124.637 E13.9918
G1 X180.583 Y125.556 E14.02241
G1 X180.451 Y126.467 E14.05303
G1 X180.24 Y127.363 E14.08365
G1 X179.952 Y128.238 E14.11428
G1 X179.59 Y129.084 E14.14489
G1 X179.155 Y129.896 E14.17553
G1 X178.652 Y130.666 E14.20612
G1 X178.083 Y131.391 E14.23677
G1 X177.454 Y132.063 E14.26739
G1 X176.769 Y132.678 E14.29801
G1 X176.033 Y133.231 E14.32862
G1 X175.252 Y133.718 E14.35924
G1 X174.432 Y134.136 E14.38985
G1 X173.578 Y134.481 E14.42048
G1 X172.698 Y134.751 E14.4511
G1 X171.797 Y134.943 E14.48174
G1 X170.884 Y135.056 E14.51234
G1 X170.389 Y135.084 E14.52883
G1 X170.088 Y135.094 E14.53885
G1 X169.736 Y135.1 E14.55055
G1 X65.504 Y135.099 E18.01732
G1 X64.806 Y135.09 E18.04054
G1 X63.887 Y135.038 E18.07116
G1 X62.976 Y134.907 E18.10177
G1 X62.08 Y134.697 E18.13238
G1 X61.205 Y134.41 E18.16301
G1 X60.358 Y134.048 E18.19364
G1 X59.546 Y133.614 E18.22426
G1 X58.775 Y133.112 E18.25487
G1 X58.05 Y132.544 E18.2855
G1 X57.377 Y131.915 E18.31614
G1 X56.762 Y131.231 E18.34673
G1 X56.208 Y130.496 E18.37734
G1 X55.72 Y129.715 E18.40797
G1 X55.301 Y128.895 E18.4386
G1 X54.955 Y128.042 E18.46922
G1 X54.685 Y127.162 E18.49983
G1 X54.492 Y126.261 E18.53048
G1 X54.378 Y125.348 E18.56108
G1 X54.347 Y124.777 E18.5801
G1 X54.338 Y124.444 E18.59118
G1 X54.334 Y124.169 E18.60033
G1 X54.334 Y123.007 E18.63898
G1 X54.344 Y122.348 E18.6609
G1 X54.398 Y121.429 E18.69152
G1 X54.532 Y120.518 E18.72214
G1 X54.744 Y119.622 E18.75277
G1 X55.033 Y118.748 E18.78338
G1 X55.396 Y117.902 E18.814
G1 X55.832 Y117.091 E18.84463
G1 X56.337 Y116.321 E18.87525
G1 X56.906 Y115.598 E18.90585
G1 X57.536 Y114.926 E18.93649
G1 X58.222 Y114.312 E18.96711
G1 X58.958 Y113.76 E18.99771
G1 X59.74 Y113.274 E19.02834
G1 X60.561 Y112.857 E19.05896
G0 F6000 X60.931 Y113.131
G1 F1200 X61.776 Y112.813 E19.08899
G1 X62.647 Y112.571 E19.11906
G1 X63.776 Y112.376 E19.15717
G1 X64.772 Y112.262 E19.19051
G1 X65.609 Y112.178 E19.21849
G1 X68.146 Y111.852 E19.30356
G1 X70.626 Y111.46 E19.38707
G1 X73.142 Y110.991 E19.47219
G1 X75.589 Y110.462 E19.55546
G1 X78.06 Y109.855 E19.64009
G1 X80.554 Y109.166 E19.72615
G1 X82.957 Y108.428 E19.80976
G1 X85.345 Y107.621 E19.8936
G1 X87.769 Y106.724 E19.97956
G1 X90.085 Y105.792 E20.0626
G1 X92.419 Y104.776 E20.14726
G1 X94.703 Y103.703 E20.23119
G1 X96.536 Y102.762 E20.29972
G1 X97.645 Y102.204 E20.34101
G1 X98.225 Y101.935 E20.36228
G1 X99.066 Y101.576 E20.39269
G1 X99.36 Y101.456 E20.40325
G1 X99.593 Y101.365 E20.41157
G1 X100.792 Y100.98 E20.45346
G1 X101.587 Y100.778 E20.48074
G1 X101.916 Y100.7 E20.49199
G1 X102.167 Y100.645 E20.50053
G1 X103.361 Y100.457 E20.54073
G1 X104.162 Y100.379 E20.5675
G1 X104.528 Y100.35 E20.57971
G1 X104.871 Y100.329 E20.59114
G1 X105.137 Y100.316 E20.6
G1 X105.337 Y100.309 E20.60666
G1 X105.885 Y100.301 E20.62488
G1 X139.791 Y100.3 E21.7526
G1 X140.641 Y100.311 E21.78088
G1 X140.934 Y100.319 E21.79063
G1 X141.362 Y100.34 E21.80488
G1 X141.564 Y100.353 E21.81161
G1 X141.821 Y100.373 E21.82018
G1 X142.478 Y100.432 E21.84212
G1 X143.658 Y100.608 E21.8818
G1 X143.992 Y100.678 E21.89315
G1 X144.378 Y100.766 E21.90632
G1 X145.017 Y100.926 E21.92823
G1 X146.167 Y101.288 E21.96833
G1 X146.908 Y101.57 E21.9947
G1 X147.264 Y101.713 E22.00746
G1 X147.495 Y101.811 E22.01581
G1 X148.554 Y102.335 E22.05511
G1 X149.717 Y102.997 E22.09962
G1 X151.833 Y104.219 E22.18089
G1 X154.091 Y105.44 E22.26627
G1 X156.354 Y106.581 E22.35056
G1 X158.644 Y107.656 E22.4347
G1 X160.993 Y108.679 E22.51991
G1 X163.378 Y109.64 E22.60544
G1 X165.71 Y110.5 E22.68811
G1 X168.103 Y111.308 E22.77211
G1 X170.598 Y112.073 E22.85891
G1 X171.874 Y112.434 E22.90302
G1 X172.742 Y112.673 E22.93296
G1 X173.601 Y112.951 E22.96299
G1 X174.433 Y113.304 E22.99305
G1 X175.23 Y113.729 E23.02309
G1 X175.986 Y114.222 E23.05311
G1 X176.695 Y114.781 E23.08314
G1 X177.353 Y115.4 E23.11319
G1 X177.953 Y116.075 E23.14322
G1 X178.491 Y116.801 E23.17328
G1 X178.962 Y117.571 E23.2033
G1 X179.364 Y118.38 E23.23335
G1 X179.693 Y119.221 E23.26338
G1 X179.946 Y120.088 E23.29342
G1 X180.121 Y120.974 E23.32346
G1 X180.233 Y122.219 E23.36504
G1 X180.242 Y122.537 E23.37562
G1 X180.246 Y122.815 E23.38486
G1 X180.246 Y123.909 E23.42125
G1 X180.236 Y124.631 E23.44527
G1 X180.184 Y125.533 E23.47532
G1 X180.052 Y126.426 E23.50534
G1 X179.841 Y127.304 E23.53537
G1 X179.554 Y128.161 E23.56543
G1 X179.192 Y128.988 E23.59546
G1 X178.758 Y129.78 E23.6255
G1 X178.256 Y130.531 E23.65554
G1 X177.689 Y131.234 E23.68558
G1 X177.063 Y131.885 E23.71562
G1 X176.381 Y132.477 E23.74566
G1 X175.65 Y133.007 E23.77569
G1 X174.874 Y133.47 E23.80574
G1 X174.061 Y133.863 E23.83578
G1 X173.216 Y134.182 E23.86582
G1 X172.347 Y134.425 E23.89583
G1 X171.459 Y134.59 E23.92587
G1 X170.376 Y134.684 E23.96203
G1 X170.075 Y134.694 E23.97204
G1 X169.736 Y134.7 E23.98332
G1 X65.509 Y134.699 E27.44993
G1 X64.811 Y134.69 E27.47314
G1 X63.91 Y134.639 E27.50316
G1 X63.016 Y134.507 E27.53322
G1 X62.138 Y134.298 E27.56323
G1 X61.281 Y134.011 E27.59329
G1 X60.454 Y133.65 E27.62331
G1 X59.661 Y133.217 E27.65336
G1 X58.91 Y132.716 E27.68338
G1 X58.206 Y132.15 E27.71343
G1 X57.555 Y131.524 E27.74347
G1 X56.962 Y130.843 E27.7735
G1 X56.432 Y130.112 E27.80353
G1 X55.968 Y129.337 E27.83357
G1 X55.574 Y128.524 E27.86362
G1 X55.254 Y127.68 E27.89364
G1 X55.01 Y126.81 E27.9237
G1 X54.844 Y125.922 E27.95374
G1 X54.747 Y124.767 E27.9923
G1 X54.738 Y124.434 E28.00337
G1 X54.734 Y124.168 E28.01222
G1 X54.734 Y123.013 E28.05064
G1 X54.744 Y122.354 E28.07256
G1 X54.798 Y121.453 E28.10258
G1 X54.931 Y120.559 E28.13264
G1 X55.143 Y119.682 E28.16265
G1 X55.431 Y118.826 E28.19269
G1 X55.794 Y117.999 E28.22273
G1 X56.229 Y117.207 E28.25278
G1 X56.732 Y116.457 E28.28282
G1 X57.3 Y115.755 E28.31285
G1 X57.927 Y115.105 E28.34289
G1 X58.609 Y114.514 E28.37291
G1 X59.341 Y113.985 E28.40295
G1 X60.117 Y113.523 E28.43298
G1 X60.931 Y113.131 E28.46303
G1 F2700 E23.46303
;MESH:Ender_3_board_fan_guard.stl
G0 F6000 X102.176 Y120.289
G0 X101.058 Y121.229
G0 X102.778 Y122.214
G0 X103.471 Y122.538
G0 X105.481 Y123.1
;TYPE:WALL-INNER
G1 F2700 E28.46303
G1 F1200 X140.521 Y123.1 E29.62847
G1 X141.468 Y123.017 E29.66009
G1 X142.412 Y122.763 E29.6926
G1 X143.296 Y122.351 E29.72504
G1 X144.096 Y121.789 E29.75756
G1 X144.787 Y121.099 E29.79004
G1 X145.346 Y120.297 E29.82255
G1 X145.758 Y119.413 E29.85499
G1 X146.01 Y118.47 E29.88745
G1 X146.096 Y117.497 E29.91994
G1 X146.011 Y116.529 E29.95226
G1 X145.756 Y115.58 E29.98494
G1 X145.343 Y114.695 E30.01743
G1 X144.781 Y113.896 E30.04992
G1 X144.091 Y113.206 E30.08237
G1 X143.289 Y112.646 E30.11491
G1 X142.405 Y112.235 E30.14733
G1 X141.464 Y111.983 E30.17973
G1 X140.519 Y111.9 E30.21128
G1 X105.465 Y111.9 E31.37718
G1 X104.517 Y111.983 E31.40884
G1 X103.573 Y112.237 E31.44135
G1 X102.69 Y112.649 E31.47376
G1 X101.89 Y113.21 E31.50626
G1 X101.198 Y113.901 E31.53878
G1 X100.639 Y114.703 E31.5713
G1 X100.227 Y115.588 E31.60377
G1 X99.976 Y116.531 E31.63622
G1 X99.89 Y117.503 E31.66868
G1 X99.975 Y118.471 E31.701
G1 X100.229 Y119.419 E31.73364
G1 X100.642 Y120.305 E31.76615
G1 X101.204 Y121.105 E31.79867
G1 X101.895 Y121.794 E31.83113
G1 X102.696 Y122.354 E31.86363
G1 X103.58 Y122.765 E31.89606
G1 X104.522 Y123.018 E31.9285
G1 X105.481 Y123.1 E31.96051
G0 F6000 X105.498 Y122.7
;TYPE:WALL-OUTER
G1 F1200 X140.504 Y122.7 E33.12482
G1 X141.398 Y122.622 E33.15466
G1 X142.274 Y122.386 E33.18484
G1 X143.095 Y122.003 E33.21497
G1 X143.838 Y121.482 E33.24515
G1 X144.479 Y120.841 E33.2753
G1 X144.998 Y120.097 E33.30547
G1 X145.381 Y119.276 E33.33561
G1 X145.615 Y118.4 E33.36576
G1 X145.694 Y117.497 E33.39591
G1 X145.616 Y116.599 E33.42589
G1 X145.379 Y115.718 E33.45624
G1 X144.995 Y114.896 E33.48641
G1 X144.474 Y114.154 E33.51657
G1 X143.833 Y113.514 E33.54669
G1 X143.089 Y112.994 E33.57688
G1 X142.268 Y112.612 E33.607
G1 X141.394 Y112.378 E33.6371
G1 X140.502 Y112.3 E33.66688
G1 X105.482 Y112.3 E34.83165
G1 X104.587 Y112.378 E34.86153
G1 X103.711 Y112.614 E34.8917
G1 X102.891 Y112.997 E34.9218
G1 X102.148 Y113.518 E34.95199
G1 X101.506 Y114.159 E34.98216
G1 X100.987 Y114.903 E35.01233
G1 X100.604 Y115.725 E35.04249
G1 X100.371 Y116.6 E35.07261
G1 X100.292 Y117.503 E35.10276
G1 X100.37 Y118.401 E35.13274
G1 X100.606 Y119.282 E35.16307
G1 X100.99 Y120.104 E35.19325
G1 X101.511 Y120.846 E35.22341
G1 X102.153 Y121.486 E35.25356
G1 X102.897 Y122.006 E35.28375
G1 X103.717 Y122.388 E35.31383
G1 X104.591 Y122.622 E35.34393
G1 X105.498 Y122.7 E35.37421
G0 F6000 X105.48 Y123.139
G1 F2700 E30.37421
G0 F6000 X103.986 Y122.715
G0 X101.772 Y121.941
G0 X99.692 Y122.256
G0 X98.271 Y123.038
;TYPE:WALL-INNER
G1 F2700 E35.37421
G1 F1200 X98.754 Y122.848 E35.39147
