;FLAVOR:Marlin
;TIME:723
;Filament used: 0.399811m
;Layer height: 0.2
;MINX:103.794
;MINY:84.1
;MINZ:0.2
;MAXX:140.742
;MAXY:150.9
;MAXZ:3.2
;Generated with Cura_SteamEngine 4.13.1
M140 S60
M105
M190 S60
M104 S200
M105
M109 S200
M82 ;absolute extrusion mode
; Ender 3 Custom Start G-code
G92 E0 ; Reset Extruder
G28 ; Home all axes
G1 Z2.0 F3000 ; Move Z Axis up little to prevent scratching of Heat Bed
G1 X0.1 Y20 Z0.3 F5000.0 ; Move to start position
G1 X0.1 Y200.0 Z0.3 F1500.0 E15 ; Draw the first line
G1 X0.4 Y200.0 Z0.3 F5000.0 ; Move to side a little
G1 X0.4 Y20 Z0.3 F1500.0 E30 ; Draw the second line
G92 E0 ; Reset Extruder
G1 Z2.0 F3000 ; Move Z Axis up little to prevent scratching of Heat Bed
G1 X5 Y20 Z0.3 F5000.0 ; Move over to prevent blob squish
G92 E0
G92 E0
G1 F2700 E-5
;LAYER_COUNT:16
;LAYER:0
M107
G0 F6000 X106.912 Y88.361 Z0.2
;TYPE:SKIRT
G1 F2700 E0
G1 F1200 X107.518 Y87.645 E0.0312
G1 X108.184 Y86.984 E0.06241
G1 X108.903 Y86.382 E0.0936
G1 X109.671 Y85.844 E0.12479
G1 X110.482 Y85.373 E0.15598
G1 X111.33 Y84.972 E0.18718
G1 X112.209 Y84.646 E0.21836
G1 X113.113 Y84.395 E0.24956
G1 X114.035 Y84.222 E0.28076
G1 X115.119 Y84.121 E0.31697
G1 X115.566 Y84.107 E0.33185
G1 X116.164 Y84.1 E0.35174
G1 X118.704 Y84.1 E0.43622
G1 X120.673 Y84.127 E0.50172
G1 X120.969 Y84.135 E0.51157
G1 X123.889 Y84.134 E0.60868
G1 X125.943 Y84.101 E0.67701
G1 X128.211 Y84.1 E0.75244
G1 X129.066 Y84.111 E0.78088
G1 X130.002 Y84.165 E0.81207
G1 X130.931 Y84.298 E0.84328
G1 X131.844 Y84.509 E0.87445
G1 X132.737 Y84.798 E0.90567
G1 X133.601 Y85.161 E0.93684
G1 X134.431 Y85.597 E0.96802
G1 X135.222 Y86.102 E0.99923
G1 X135.966 Y86.673 E1.03042
G1 X136.659 Y87.305 E1.06162
G1 X137.296 Y87.994 E1.09283
G1 X137.872 Y88.734 E1.12402
G1 X138.382 Y89.521 E1.15521
G1 X138.824 Y90.348 E1.1864
G1 X139.193 Y91.21 E1.21759
G1 X139.488 Y92.1 E1.24877
G1 X139.706 Y93.012 E1.27996
G1 X139.79 Y93.502 E1.29649
G1 X139.841 Y93.849 E1.30816
G1 X140.241 Y96.38 E1.39338
G1 X140.422 Y97.356 E1.4264
G1 X140.573 Y98.233 E1.456
G1 X140.693 Y99.163 E1.48719
G1 X140.728 Y99.754 E1.50688
G1 X140.738 Y100.073 E1.51749
G1 X140.742 Y100.58 E1.53436
G1 X140.732 Y101.26 E1.55698
G1 X140.723 Y101.572 E1.56736
G1 X140.694 Y102.209 E1.58857
G1 X140.6 Y103.859 E1.64353
G1 X140.527 Y106.386 E1.72762
G1 X140.518 Y107.749 E1.77295
G1 X140.519 Y126.222 E2.38737
G1 X140.556 Y128.816 E2.47365
G1 X140.671 Y131.496 E2.56287
G1 X140.715 Y132.252 E2.58806
G1 X140.728 Y132.555 E2.59815
G1 X140.738 Y132.887 E2.60919
G1 X140.742 Y133.38 E2.62559
G1 X140.732 Y134.06 E2.64821
G1 X140.723 Y134.357 E2.65809
G1 X140.701 Y134.876 E2.67537
G1 X140.591 Y136.832 E2.74053
G1 X140.517 Y139.431 E2.82701
G1 X140.507 Y140.06 E2.84793
G1 X140.452 Y140.996 E2.87912
G1 X140.318 Y141.925 E2.91034
G1 X140.106 Y142.838 E2.94151
G1 X139.816 Y143.73 E2.97271
G1 X139.451 Y144.594 E3.0039
G1 X139.014 Y145.424 E3.0351
G1 X138.508 Y146.214 E3.0663
G1 X137.937 Y146.958 E3.0975
G1 X137.304 Y147.65 E3.12869
G1 X136.615 Y148.286 E3.15988
G1 X135.874 Y148.861 E3.19107
G1 X135.087 Y149.37 E3.22225
G1 X134.259 Y149.811 E3.25345
G1 X133.397 Y150.18 E3.28463
G1 X132.506 Y150.474 E3.31584
G1 X131.593 Y150.691 E3.34705
G1 X130.666 Y150.829 E3.37823
G1 X129.79 Y150.886 E3.40742
G1 X129.4 Y150.896 E3.4204
G1 X129.118 Y150.9 E3.42978
G1 X125.28 Y150.899 E3.55743
G1 X123.66 Y150.876 E3.61132
G1 X121.027 Y150.876 E3.69889
G1 X120.006 Y150.898 E3.73286
G1 X119.728 Y150.9 E3.7421
G1 X115.516 Y150.899 E3.8822
G1 X114.818 Y150.89 E3.90541
G1 X113.882 Y150.838 E3.93659
G1 X112.953 Y150.706 E3.9678
G1 X112.039 Y150.496 E3.99899
G1 X111.146 Y150.209 E4.03019
G1 X110.281 Y149.846 E4.06139
G1 X109.45 Y149.412 E4.09257
G1 X108.659 Y148.908 E4.12377
G1 X107.914 Y148.338 E4.15497
G1 X107.22 Y147.707 E4.18617
G1 X106.583 Y147.02 E4.21733
G1 X106.006 Y146.28 E4.24854
G1 X105.494 Y145.494 E4.27974
G1 X105.051 Y144.667 E4.31094
G1 X104.68 Y143.806 E4.34212
G1 X104.384 Y142.916 E4.37332
G1 X104.165 Y142.004 E4.40451
G1 X104.024 Y141.077 E4.4357
G1 X103.964 Y140.185 E4.46544
G1 X103.955 Y139.848 E4.47665
G1 X103.951 Y139.434 E4.49042
G1 X103.914 Y136.838 E4.57677
G1 X103.818 Y134.574 E4.65214
G1 X103.798 Y133.906 E4.67437
G1 X103.794 Y133.415 E4.6907
G1 X103.804 Y132.738 E4.71322
G1 X103.813 Y132.43 E4.72347
G1 X103.867 Y131.178 E4.76515
G1 X103.942 Y128.518 E4.85365
G1 X103.951 Y127.215 E4.89699
G1 X103.95 Y106.617 E5.58209
G1 X103.913 Y104.016 E5.6686
G1 X103.817 Y101.746 E5.74417
G1 X103.798 Y101.112 E5.76527
G1 X103.794 Y100.605 E5.78213
G1 X103.805 Y99.92 E5.80492
G1 X103.86 Y98.984 E5.8361
G1 X103.936 Y98.397 E5.85579
G1 X103.999 Y98 E5.86916
G1 X104.368 Y95.843 E5.94194
G1 X104.506 Y94.897 E5.97374
G1 X104.719 Y93.478 E6.02147
G1 X104.898 Y92.557 E6.05267
G1 X105.154 Y91.655 E6.08386
G1 X105.486 Y90.778 E6.11505
G1 X105.892 Y89.933 E6.14623
G1 X106.368 Y89.125 E6.17742
G1 X106.912 Y88.361 E6.20861
G0 F6000 X107.29 Y88.526
G1 F1200 X107.893 Y87.83 E6.23924
G1 X108.554 Y87.189 E6.26987
G1 X109.268 Y86.608 E6.30048
G1 X110.03 Y86.091 E6.33111
G1 X110.833 Y85.642 E6.36171
G1 X111.673 Y85.264 E6.39235
G1 X112.542 Y84.961 E6.42295
G1 X113.434 Y84.734 E6.45357
G1 X114.343 Y84.585 E6.48421
G1 X115.137 Y84.521 E6.5107
G1 X115.571 Y84.507 E6.52514
G1 X116.164 Y84.5 E6.54487
G1 X118.704 Y84.5 E6.62935
G1 X120.667 Y84.527 E6.69464
G1 X120.992 Y84.535 E6.70546
G1 X123.896 Y84.534 E6.80204
G1 X125.95 Y84.501 E6.87037
G1 X128.211 Y84.5 E6.94557
G1 X129.06 Y84.511 E6.97381
G1 X129.979 Y84.564 E7.00443
G1 X130.89 Y84.697 E7.03505
G1 X131.786 Y84.908 E7.06566
G1 X132.661 Y85.196 E7.0963
G1 X133.507 Y85.56 E7.12693
G1 X134.318 Y85.995 E7.15754
G1 X135.089 Y86.498 E7.18816
G1 X135.813 Y87.067 E7.21879
G1 X136.484 Y87.697 E7.2494
G1 X137.099 Y88.382 E7.28002
G1 X137.652 Y89.118 E7.31064
G1 X138.139 Y89.9 E7.34128
G1 X138.556 Y90.72 E7.37188
G1 X138.901 Y91.574 E7.40251
G1 X139.17 Y92.454 E7.43312
G1 X139.394 Y93.561 E7.47068
G1 X139.44 Y93.872 E7.48114
G1 X139.846 Y96.445 E7.56778
G1 X140.028 Y97.423 E7.60086
G1 X140.179 Y98.3 E7.63046
G1 X140.296 Y99.214 E7.66111
G1 X140.328 Y99.767 E7.67953
G1 X140.338 Y100.086 E7.69015
G1 X140.342 Y100.574 E7.70638
G1 X140.332 Y101.254 E7.729
G1 X140.323 Y101.555 E7.73902
G1 X140.295 Y102.186 E7.76002
G1 X140.201 Y103.84 E7.81512
G1 X140.127 Y106.418 E7.9009
G1 X140.118 Y107.746 E7.94507
G1 X140.119 Y126.228 E8.55979
G1 X140.156 Y128.839 E8.64664
G1 X140.272 Y131.537 E8.73646
G1 X140.315 Y132.275 E8.76105
G1 X140.328 Y132.567 E8.77077
G1 X140.338 Y132.899 E8.78181
G1 X140.342 Y133.374 E8.79761
G1 X140.332 Y134.054 E8.82023
G1 X140.324 Y134.341 E8.82978
G1 X140.301 Y134.854 E8.84686
G1 X140.191 Y136.8 E8.91169
G1 X140.117 Y139.412 E8.9986
G1 X140.107 Y140.054 E9.01996
G1 X140.053 Y140.973 E9.05057
G1 X139.919 Y141.884 E9.0812
G1 X139.706 Y142.78 E9.11183
G1 X139.417 Y143.654 E9.14245
G1 X139.053 Y144.499 E9.17305
G1 X138.617 Y145.31 E9.20368
G1 X138.113 Y146.08 E9.23428
G1 X137.543 Y146.804 E9.26493
G1 X136.913 Y147.475 E9.29554
G1 X136.227 Y148.089 E9.32617
G1 X135.49 Y148.641 E9.35679
G1 X134.708 Y149.127 E9.38741
G1 X133.887 Y149.543 E9.41803
G1 X133.033 Y149.887 E9.44865
G1 X132.152 Y150.155 E9.47928
G1 X131.251 Y150.346 E9.50991
G1 X130.338 Y150.457 E9.5405
G1 X129.78 Y150.487 E9.55909
G1 X129.39 Y150.497 E9.57206
G1 X129.118 Y150.5 E9.58111
G1 X125.285 Y150.499 E9.7086
G1 X123.665 Y150.476 E9.76248
G1 X121.018 Y150.476 E9.85052
G1 X120.003 Y150.498 E9.88429
G1 X119.725 Y150.5 E9.89354
G1 X115.521 Y150.499 E10.03336
G1 X114.823 Y150.49 E10.05658
G1 X113.904 Y150.438 E10.08719
G1 X112.993 Y150.307 E10.1178
G1 X112.097 Y150.097 E10.14841
G1 X111.222 Y149.81 E10.17904
G1 X110.375 Y149.448 E10.20968
G1 X109.563 Y149.014 E10.2403
G1 X108.792 Y148.512 E10.2709
G1 X108.067 Y147.944 E10.30153
G1 X107.394 Y147.315 E10.33217
G1 X106.779 Y146.631 E10.36277
G1 X106.225 Y145.896 E10.39338
G1 X105.737 Y145.115 E10.42401
G1 X105.318 Y144.295 E10.45464
G1 X104.972 Y143.442 E10.48525
G1 X104.702 Y142.562 E10.51587
G1 X104.509 Y141.661 E10.54651
G1 X104.395 Y140.748 E10.57712
G1 X104.364 Y140.174 E10.59624
G1 X104.355 Y139.837 E10.60745
G1 X104.314 Y136.815 E10.70797
G1 X104.218 Y134.562 E10.78297
G1 X104.198 Y133.894 E10.8052
G1 X104.194 Y133.42 E10.82097
G1 X104.204 Y132.743 E10.84349
G1 X104.213 Y132.447 E10.85334
G1 X104.266 Y131.207 E10.89462
G1 X104.342 Y128.531 E10.98366
G1 X104.351 Y127.218 E11.02733
G1 X104.35 Y106.611 E11.71272
G1 X104.313 Y103.993 E11.7998
G1 X104.217 Y101.734 E11.87501
G1 X104.198 Y101.1 E11.8961
G1 X104.194 Y100.612 E11.91233
G1 X104.205 Y99.927 E11.93512
G1 X104.26 Y99.008 E11.96574
G1 X104.331 Y98.459 E11.98415
G1 X104.394 Y98.067 E11.99736
G1 X104.76 Y95.928 E12.06954
G1 X104.901 Y94.957 E12.10217
G1 X105.114 Y93.538 E12.14989
G1 X105.291 Y92.634 E12.18053
G1 X105.544 Y91.749 E12.21115
G1 X105.874 Y90.889 E12.24178
G1 X106.277 Y90.062 E12.27238
G1 X106.75 Y89.272 E12.30301
G1 X107.29 Y88.526 E12.33364
G0 F6000 X107.668 Y88.694
G1 F1200 X108.267 Y88.018 E12.36368
G1 X108.923 Y87.397 E12.39372
G1 X109.632 Y86.837 E12.42377
G1 X110.387 Y86.342 E12.4538
G1 X111.183 Y85.916 E12.48383
G1 X112.014 Y85.561 E12.51388
G1 X112.872 Y85.282 E12.54389
G1 X113.752 Y85.079 E12.57393
G1 X114.647 Y84.955 E12.60398
G1 X115.154 Y84.921 E12.62088
G1 X115.577 Y84.907 E12.63496
G1 X116.164 Y84.9 E12.65448
G1 X118.704 Y84.9 E12.73896
G1 X120.661 Y84.927 E12.80406
G1 X120.981 Y84.935 E12.81471
G1 X123.902 Y84.934 E12.91186
G1 X125.956 Y84.901 E12.98019
G1 X128.211 Y84.9 E13.05519
G1 X129.054 Y84.911 E13.08323
G1 X129.956 Y84.964 E13.11328
G1 X130.849 Y85.096 E13.1433
G1 X131.727 Y85.307 E13.17334
G1 X132.583 Y85.595 E13.20338
G1 X133.411 Y85.958 E13.23345
G1 X134.202 Y86.392 E13.26346
G1 X134.953 Y86.894 E13.2935
G1 X135.656 Y87.461 E13.32354
G1 X136.306 Y88.088 E13.35358
G1 X136.898 Y88.77 E13.38361
G1 X137.428 Y89.501 E13.41365
G1 X137.89 Y90.277 E13.44368
G1 X138.283 Y91.09 E13.47372
G1 X138.601 Y91.935 E13.50375
G1 X138.844 Y92.805 E13.53379
G1 X138.998 Y93.619 E13.56134
G1 X139.035 Y93.871 E13.56982
G1 X139.452 Y96.509 E13.65865
G1 X139.634 Y97.491 E13.69186
G1 X139.785 Y98.368 E13.72146
G1 X139.899 Y99.264 E13.7515
G1 X139.928 Y99.779 E13.76866
G1 X139.938 Y100.098 E13.77927
G1 X139.942 Y100.568 E13.79491
G1 X139.932 Y101.248 E13.81753
G1 X139.924 Y101.537 E13.82714
G1 X139.896 Y102.164 E13.84802
G1 X139.801 Y103.843 E13.90395
G1 X139.727 Y106.404 E13.98917
G1 X139.718 Y107.743 E14.0337
G1 X139.719 Y126.234 E14.64871
G1 X139.756 Y128.826 E14.73493
G1 X139.873 Y131.545 E14.82545
G1 X139.916 Y132.298 E14.85054
G1 X139.928 Y132.579 E14.85989
G1 X139.938 Y132.911 E14.87094
G1 X139.942 Y133.368 E14.88614
G1 X139.932 Y134.048 E14.90876
G1 X139.924 Y134.324 E14.91794
G1 X139.902 Y134.831 E14.93482
G1 X139.791 Y136.801 E15.00045
G1 X139.718 Y139.349 E15.08523
G1 X139.707 Y140.048 E15.10848
G1 X139.653 Y140.949 E15.1385
G1 X139.519 Y141.842 E15.16854
G1 X139.307 Y142.72 E15.19858
G1 X139.019 Y143.576 E15.22862
G1 X138.655 Y144.403 E15.25867
G1 X138.22 Y145.194 E15.28869
G1 X137.717 Y145.944 E15.31873
G1 X137.149 Y146.646 E15.34876
G1 X136.522 Y147.296 E15.3788
G1 X135.839 Y147.887 E15.40884
G1 X135.107 Y148.416 E15.43888
G1 X134.331 Y148.878 E15.46892
G1 X133.517 Y149.269 E15.49895
G1 X132.672 Y149.587 E15.52898
G1 X131.802 Y149.829 E15.55902
G1 X130.913 Y149.993 E15.58909
G1 X129.769 Y150.087 E15.62726
G1 X129.379 Y150.097 E15.64024
G1 X129.118 Y150.1 E15.64892
G1 X125.291 Y150.099 E15.77621
G1 X123.671 Y150.076 E15.83009
G1 X121.009 Y150.076 E15.91863
G1 X120 Y150.098 E15.9522
G1 X119.722 Y150.1 E15.96145
G1 X115.526 Y150.099 E16.10101
G1 X114.828 Y150.09 E16.12422
G1 X113.927 Y150.039 E16.15424
G1 X113.033 Y149.907 E16.1843
G1 X112.155 Y149.698 E16.21431
G1 X111.298 Y149.411 E16.24437
G1 X110.471 Y149.05 E16.27439
G1 X109.678 Y148.617 E16.30444
G1 X108.927 Y148.116 E16.33446
G1 X108.223 Y147.55 E16.36451
G1 X107.572 Y146.924 E16.39455
G1 X106.979 Y146.243 E16.42458
G1 X106.449 Y145.512 E16.45461
G1 X105.985 Y144.737 E16.48466
G1 X105.591 Y143.924 E16.5147
G1 X105.271 Y143.08 E16.54473
G1 X105.027 Y142.21 E16.57478
G1 X104.861 Y141.322 E16.60482
G1 X104.764 Y140.163 E16.64351
G1 X104.755 Y139.826 E16.65472
G1 X104.714 Y136.828 E16.75444
G1 X104.622 Y134.684 E16.82582
G1 X104.598 Y133.882 E16.85251
G1 X104.594 Y133.426 E16.86767
G1 X104.604 Y132.749 E16.89019
G1 X104.612 Y132.464 E16.89968
G1 X104.668 Y131.167 E16.94285
G1 X104.742 Y128.545 E17.0301
G1 X104.751 Y127.22 E17.07417
G1 X104.75 Y106.605 E17.75983
G1 X104.713 Y104.006 E17.84628
G1 X104.621 Y101.853 E17.91795
G1 X104.598 Y101.088 E17.94341
G1 X104.594 Y100.618 E17.95904
G1 X104.605 Y99.933 E17.98183
G1 X104.66 Y99.032 E18.01185
G1 X104.726 Y98.521 E18.02899
G1 X104.788 Y98.134 E18.04202
G1 X105.159 Y95.968 E18.11511
G1 X105.297 Y95.016 E18.14711
G1 X105.51 Y93.597 E18.19483
G1 X105.683 Y92.711 E18.22486
G1 X105.935 Y91.843 E18.25492
G1 X106.262 Y91.001 E18.28496
G1 X106.662 Y90.192 E18.31498
G1 X107.132 Y89.421 E18.34501
G1 X107.668 Y88.694 E18.37505
G1 F2700 E13.37505
;MESH:Connector.stl
G0 F6000 X114.351 Y99.445
G0 X115.76 Y100.29
G0 X119.45 Y139.3
;TYPE:WALL-INNER
G1 F2700 E18.37505
G1 F1200 X115.551 Y139.3 E18.50473
G1 X115.55 Y100.5 E19.79523
G1 X115.522 Y100.5 E19.79616
G1 X115.586 Y99.679 E19.82355
G1 X116.115 Y95.7 E19.95705
G1 X118.862 Y95.7 E20.04842
G1 X119.497 Y100.5 E20.20946
G1 X119.449 Y100.5 E20.21106
G1 X119.45 Y139.3 E21.50155
G0 F6000 X119.85 Y139.7
;TYPE:WALL-OUTER
G1 F1200 X115.151 Y139.7 E21.65784
G1 X115.15 Y133.7 E21.8574
G1 X114.993 Y133.7 E21.86262
G1 X114.993 Y133.1 E21.88258
G1 X115.151 Y133.1 E21.88783
G1 X115.15 Y100.9 E22.95881
G1 X114.993 Y100.9 E22.96403
G1 X114.993 Y100.3 E22.98399
G1 X115.136 Y100.3 E22.98874
G1 X115.189 Y99.626 E23.01123
G1 X115.764 Y95.3 E23.15638
G1 X119.228 Y95.3 E23.27159
G1 X119.255 Y95.622 E23.28234
G1 X119.874 Y100.3 E23.43929
G1 X120.007 Y100.3 E23.44371
G1 X120.007 Y100.9 E23.46367
G1 X119.849 Y100.9 E23.46892
G1 X119.85 Y133.1 E24.5399
G1 X120.007 Y133.1 E24.54512
G1 X120.007 Y133.7 E24.56507
G1 X119.849 Y133.7 E24.57033
G1 X119.85 Y139.7 E24.76989
G0 F6000 X119.58 Y139.43
G0 X119.34 Y138.91
G0 X119.06 Y138.91
;TYPE:SKIN
G1 F1200 X115.941 Y138.91 E24.87363
G1 X115.94 Y100.147 E26.16289
G1 X115.972 Y99.73 E26.1768
G1 X116.456 Y96.09 E26.29893
G1 X118.521 Y96.09 E26.36762
G1 X119.059 Y100.159 E26.50413
G1 X119.06 Y138.91 E27.79299
G0 F6000 X119.34 Y138.91
G0 X116.687 Y139.19
G0 X116.687 Y138.749
G1 F1200 X116.099 Y138.161 E27.82065
G0 F6000 X116.099 Y137.595
G1 F1200 X117.253 Y138.749 E27.87493
G0 F6000 X117.818 Y138.749
G1 F1200 X116.099 Y137.03 E27.95579
G0 F6000 X116.099 Y136.464
G1 F1200 X118.384 Y138.749 E28.06327
G0 F6000 X118.9 Y138.698
G1 F1200 X116.099 Y135.898 E28.19499
G0 F6000 X116.099 Y135.333
G1 F1200 X118.9 Y138.133 E28.32672
G0 F6000 X118.9 Y137.567
G1 F1200 X116.099 Y134.767 E28.45845
G0 F6000 X116.099 Y134.201
G1 F1200 X118.9 Y137.001 E28.59018
G0 F6000 X118.9 Y136.436
G1 F1200 X116.099 Y133.636 E28.7219
G0 F6000 X116.099 Y133.07
G1 F1200 X118.9 Y135.87 E28.85363
G0 F6000 X118.9 Y135.304
G1 F1200 X116.099 Y132.504 E28.98536
G0 F6000 X116.099 Y131.939
G1 F1200 X118.9 Y134.739 E29.11708
G0 F6000 X118.9 Y134.173
G1 F1200 X116.099 Y131.373 E29.24881
G0 F6000 X116.099 Y130.807
G1 F1200 X118.9 Y133.607 E29.38054
G0 F6000 X118.9 Y133.042
G1 F1200 X116.099 Y130.241 E29.51229
G0 F6000 X116.099 Y129.676
G1 F1200 X118.9 Y132.476 E29.64401
G0 F6000 X118.9 Y131.91
G1 F1200 X116.099 Y129.11 E29.77574
G0 F6000 X116.099 Y128.544
G1 F1200 X118.9 Y131.345 E29.90749
G0 F6000 X118.9 Y130.779
G1 F1200 X116.099 Y127.979 E30.03922
G0 F6000 X116.099 Y127.413
G1 F1200 X118.9 Y130.213 E30.17095
G0 F6000 X118.9 Y129.648
G1 F1200 X116.099 Y126.847 E30.3027
G0 F6000 X116.099 Y126.282
G1 F1200 X118.9 Y129.082 E30.43442
G0 F6000 X118.9 Y128.516
G1 F1200 X116.099 Y125.716 E30.56615
G0 F6000 X116.099 Y125.15
G1 F1200 X118.9 Y127.95 E30.69788
G0 F6000 X118.9 Y127.385
G1 F1200 X116.099 Y124.585 E30.8296
G0 F6000 X116.099 Y124.019
G1 F1200 X118.9 Y126.819 E30.96133
G0 F6000 X118.9 Y126.253
