;FLAVOR:Marlin
;TIME:39566
;Filament used: 27.3588m
;Layer height: 0.2
;MINX:36
;MINY:66.5
;MINZ:0.2
;MAXX:199
;MAXY:168.5
;MAXZ:101
;Generated with Cura_SteamEngine 4.8.0
M140 S60
M105
M190 S60
M104 S200
M105
M109 S200
M82 ;absolute extrusion mode
; Ender 3 Custom Start G-code
G92 E0 ; Reset Extruder
G28 ; Home all axes
G1 Z2.0 F3000 ; Move Z Axis up little to prevent scratching of Heat Bed
G1 X0.1 Y20 Z0.3 F5000.0 ; Move to start position
G1 X0.1 Y200.0 Z0.3 F1500.0 E15 ; Draw the first line
G1 X0.4 Y200.0 Z0.3 F5000.0 ; Move to side a little
G1 X0.4 Y20 Z0.3 F1500.0 E30 ; Draw the second line
G92 E0 ; Reset Extruder
G1 Z2.0 F3000 ; Move Z Axis up little to prevent scratching of Heat Bed
G1 X5 Y20 Z0.3 F5000.0 ; Move over to prevent blob squish
G92 E0
G92 E0
G1 F2700 E-5
;LAYER_COUNT:505
;LAYER:0
M107
G0 F6000 X43.096 Y103.979 Z0.2
;TYPE:SKIRT
G1 F2700 E0
G1 F1200 X43.986 Y103.683 E0.0312
G1 X44.898 Y103.464 E0.06239
G1 X45.825 Y103.323 E0.09358
G1 X46.701 Y103.263 E0.12278
G1 X47.022 Y103.254 E0.13346
G1 X47.33 Y103.25 E0.14371
G1 X63.201 Y103.251 E0.67158
G1 X63.898 Y103.261 E0.69476
G1 X64.675 Y103.3 E0.72064
G1 X65.107 Y103.341 E0.73507
G1 X67.514 Y103.614 E0.81564
G1 X70.039 Y103.828 E0.89993
G1 X72.555 Y103.969 E0.98374
G1 X75.08 Y104.04 E1.06775
G1 X77.604 Y104.04 E1.1517
G1 X80.089 Y103.969 E1.23439
G1 X82.622 Y103.824 E1.31877
G1 X85.109 Y103.613 E1.40179
G1 X87.623 Y103.325 E1.48595
G1 X90.12 Y102.97 E1.56984
G1 X92.583 Y102.546 E1.65296
G1 X95.044 Y102.053 E1.73644
G1 X97.544 Y101.477 E1.82177
G1 X99.924 Y100.856 E1.90358
G1 X102.385 Y100.141 E1.98882
G1 X104.78 Y99.369 E2.07251
G1 X107.138 Y98.537 E2.15568
G1 X109.459 Y97.641 E2.23843
G1 X112.013 Y96.57 E2.33054
G1 X177.911 Y67.719 E4.72317
G1 X178.726 Y67.375 E4.7526
G1 X179.605 Y67.047 E4.7838
G1 X180.508 Y66.796 E4.81497
G1 X181.43 Y66.623 E4.84617
G1 X182.661 Y66.515 E4.88728
G1 X182.984 Y66.505 E4.89802
G1 X183.324 Y66.5 E4.90933
G1 X187.293 Y66.5 E5.04134
G1 X188.149 Y66.511 E5.06982
G1 X189.085 Y66.565 E5.101
G1 X190.013 Y66.697 E5.13218
G1 X190.927 Y66.909 E5.16338
G1 X191.819 Y67.198 E5.19457
G1 X192.684 Y67.561 E5.22577
G1 X193.514 Y67.997 E5.25695
G1 X194.305 Y68.502 E5.28817
G1 X195.049 Y69.073 E5.31936
G1 X195.742 Y69.705 E5.35055
G1 X196.379 Y70.393 E5.38174
G1 X196.954 Y71.134 E5.41293
G1 X197.465 Y71.92 E5.44412
G1 X197.907 Y72.748 E5.47533
G1 X198.276 Y73.61 E5.50652
G1 X198.571 Y74.5 E5.53771
G1 X198.789 Y75.412 E5.56889
G1 X198.929 Y76.34 E5.60011
G1 X198.987 Y77.201 E5.62881
G1 X198.996 Y77.521 E5.63946
G1 X199 Y77.83 E5.64974
G1 X198.999 Y156.9 E8.27961
G1 X198.99 Y157.627 E8.3038
G1 X198.939 Y158.564 E8.33501
G1 X198.807 Y159.492 E8.36618
G1 X198.598 Y160.406 E8.39737
G1 X198.311 Y161.299 E8.42856
G1 X197.949 Y162.165 E8.45978
G1 X197.515 Y162.996 E8.49096
G1 X197.011 Y163.787 E8.52216
G1 X196.442 Y164.532 E8.55334
G1 X195.811 Y165.227 E8.58456
G1 X195.124 Y165.865 E8.61574
G1 X194.385 Y166.442 E8.64693
G1 X193.599 Y166.954 E8.67813
G1 X192.773 Y167.397 E8.7093
G1 X191.911 Y167.769 E8.74053
G1 X191.022 Y168.065 E8.77169
G1 X190.11 Y168.285 E8.8029
G1 X189.183 Y168.426 E8.83408
G1 X188.299 Y168.487 E8.86356
G1 X187.978 Y168.496 E8.87424
G1 X187.67 Y168.5 E8.88448
G1 X47.565 Y168.499 E13.54439
G1 X46.867 Y168.49 E13.56761
G1 X45.931 Y168.438 E13.59879
G1 X45.002 Y168.306 E13.63
G1 X44.088 Y168.096 E13.66119
G1 X43.195 Y167.809 E13.69239
G1 X42.33 Y167.446 E13.72359
G1 X41.499 Y167.012 E13.75477
G1 X40.708 Y166.508 E13.78597
G1 X39.963 Y165.938 E13.81716
G1 X39.269 Y165.307 E13.84836
G1 X38.632 Y164.62 E13.87952
G1 X38.055 Y163.88 E13.91073
G1 X37.543 Y163.094 E13.94193
G1 X37.1 Y162.267 E13.97314
G1 X36.729 Y161.406 E14.00432
G1 X36.433 Y160.516 E14.03551
G1 X36.214 Y159.604 E14.06671
G1 X36.073 Y158.677 E14.0979
G1 X36.013 Y157.788 E14.12753
G1 X36.004 Y157.455 E14.13861
G1 X36 Y157.158 E14.14849
G1 X36.001 Y114.804 E15.55719
G1 X36.01 Y114.115 E15.58011
G1 X36.062 Y113.179 E15.61129
G1 X36.194 Y112.25 E15.6425
G1 X36.404 Y111.336 E15.67369
G1 X36.692 Y110.444 E15.70487
G1 X37.054 Y109.579 E15.73605
G1 X37.489 Y108.748 E15.76725
G1 X37.993 Y107.957 E15.79845
G1 X38.563 Y107.212 E15.82964
G1 X39.194 Y106.518 E15.86084
G1 X39.882 Y105.88 E15.89205
G1 X40.621 Y105.304 E15.92321
G1 X41.407 Y104.792 E15.95441
G1 X42.234 Y104.349 E15.98562
G1 X43.096 Y103.979 E16.01682
G0 F6000 X43.46 Y104.271
G1 F1200 X44.34 Y104 E16.04744
G1 X45.24 Y103.808 E16.07805
G1 X46.154 Y103.694 E16.10869
G1 X46.712 Y103.663 E16.12727
G1 X47.033 Y103.654 E16.13795
G1 X47.33 Y103.65 E16.14783
G1 X63.195 Y103.651 E16.6755
G1 X63.892 Y103.661 E16.69869
G1 X64.641 Y103.698 E16.72363
G1 X65.062 Y103.738 E16.7377
G1 X67.506 Y104.015 E16.81951
G1 X70.017 Y104.228 E16.90332
G1 X72.522 Y104.369 E16.98677
G1 X75.069 Y104.44 E17.07152
G1 X77.58 Y104.44 E17.15503
G1 X80.124 Y104.367 E17.23968
G1 X82.639 Y104.224 E17.32347
G1 X85.154 Y104.009 E17.40742
G1 X87.693 Y103.72 E17.49241
G1 X90.174 Y103.366 E17.57577
G1 X92.693 Y102.933 E17.66078
G1 X95.107 Y102.449 E17.74267
G1 X97.63 Y101.868 E17.82878
G1 X100.056 Y101.235 E17.91217
G1 X102.482 Y100.53 E17.9962
G1 X104.899 Y99.751 E18.08066
G1 X107.278 Y98.911 E18.16457
G1 X109.579 Y98.023 E18.2466
G1 X112.278 Y96.891 E18.34395
G1 X178.203 Y68.029 E20.73755
G1 X178.881 Y67.743 E20.76203
G1 X179.744 Y67.423 E20.79264
G1 X180.632 Y67.178 E20.82328
G1 X181.537 Y67.012 E20.85388
G1 X182.673 Y66.915 E20.8918
G1 X182.996 Y66.905 E20.90255
G1 X183.324 Y66.9 E20.91346
G1 X187.293 Y66.9 E21.04547
G1 X188.143 Y66.911 E21.07374
G1 X189.062 Y66.964 E21.10436
G1 X189.973 Y67.097 E21.13498
G1 X190.869 Y67.308 E21.1656
G1 X191.743 Y67.596 E21.1962
G1 X192.59 Y67.959 E21.22685
G1 X193.401 Y68.394 E21.25746
G1 X194.171 Y68.898 E21.28807
G1 X194.895 Y69.467 E21.3187
G1 X195.567 Y70.097 E21.34934
G1 X196.182 Y70.782 E21.37995
G1 X196.735 Y71.518 E21.41057
G1 X197.222 Y72.299 E21.44119
G1 X197.639 Y73.12 E21.47181
G1 X197.984 Y73.974 E21.50245
G1 X198.253 Y74.854 E21.53305
G1 X198.445 Y75.755 E21.56369
G1 X198.558 Y76.668 E21.59429
G1 X198.587 Y77.212 E21.61241
G1 X198.596 Y77.532 E21.62306
G1 X198.6 Y77.83 E21.63297
G1 X198.599 Y156.895 E24.26268
G1 X198.59 Y157.622 E24.28686
G1 X198.539 Y158.541 E24.31748
G1 X198.408 Y159.453 E24.34812
G1 X198.198 Y160.349 E24.37873
G1 X197.912 Y161.224 E24.40935
G1 X197.551 Y162.071 E24.43997
G1 X197.117 Y162.883 E24.47059
G1 X196.615 Y163.655 E24.50122
G1 X196.047 Y164.38 E24.53186
G1 X195.419 Y165.053 E24.56247
G1 X194.735 Y165.669 E24.59309
G1 X194 Y166.223 E24.6237
G1 X193.22 Y166.712 E24.65432
G1 X192.4 Y167.131 E24.68495
G1 X191.547 Y167.477 E24.71556
G1 X190.667 Y167.748 E24.74619
G1 X189.767 Y167.941 E24.7768
G1 X188.853 Y168.056 E24.80744
G1 X188.288 Y168.087 E24.82626
G1 X187.967 Y168.096 E24.83694
G1 X187.67 Y168.1 E24.84682
G1 X47.57 Y168.099 E29.50657
G1 X46.872 Y168.09 E29.52978
G1 X45.953 Y168.038 E29.5604
G1 X45.042 Y167.907 E29.59101
G1 X44.146 Y167.697 E29.62162
G1 X43.271 Y167.41 E29.65225
G1 X42.424 Y167.048 E29.68288
G1 X41.612 Y166.614 E29.71351
G1 X40.841 Y166.112 E29.74411
G1 X40.116 Y165.544 E29.77474
G1 X39.443 Y164.915 E29.80538
G1 X38.828 Y164.231 E29.83597
G1 X38.274 Y163.496 E29.86659
G1 X37.786 Y162.715 E29.89722
G1 X37.367 Y161.895 E29.92784
G1 X37.021 Y161.042 E29.95846
G1 X36.751 Y160.162 E29.98907
G1 X36.558 Y159.261 E30.01972
G1 X36.444 Y158.348 E30.05032
G1 X36.413 Y157.777 E30.06934
G1 X36.404 Y157.444 E30.08042
G1 X36.4 Y157.158 E30.08994
G1 X36.401 Y114.81 E31.49844
G1 X36.41 Y114.121 E31.52135
G1 X36.462 Y113.201 E31.552
G1 X36.593 Y112.29 E31.58261
G1 X36.804 Y111.394 E31.61323
G1 X37.091 Y110.519 E31.64386
G1 X37.453 Y109.673 E31.67446
G1 X37.887 Y108.861 E31.70509
G1 X38.389 Y108.089 E31.73572
G1 X38.957 Y107.365 E31.76632
G1 X39.586 Y106.692 E31.79696
G1 X40.271 Y106.077 E31.82758
G1 X41.006 Y105.523 E31.85819
G1 X41.787 Y105.035 E31.88882
G1 X42.607 Y104.616 E31.91945
G1 X43.46 Y104.271 E31.95005
G0 F6000 X42.977 Y104.89
G1 F1200 X43.822 Y104.57 E31.98011
G1 X44.692 Y104.326 E32.01016
G1 X45.579 Y104.16 E32.04017
G1 X46.723 Y104.063 E32.07836
G1 X47.044 Y104.054 E32.08904
G1 X47.33 Y104.05 E32.09855
G1 X63.189 Y104.051 E32.62603
G1 X63.886 Y104.061 E32.64921
G1 X64.607 Y104.097 E32.67322
G1 X65.017 Y104.136 E32.68692
G1 X67.428 Y104.409 E32.76762
G1 X69.996 Y104.627 E32.85334
G1 X72.523 Y104.769 E32.93752
G1 X75.058 Y104.84 E33.02187
G1 X77.592 Y104.84 E33.10615
G1 X80.156 Y104.767 E33.19146
G1 X82.662 Y104.624 E33.27495
G1 X85.201 Y104.407 E33.3597
G1 X87.719 Y104.12 E33.444
G1 X90.226 Y103.763 E33.52822
G1 X92.767 Y103.326 E33.61397
G1 X95.203 Y102.838 E33.69661
G1 X97.723 Y102.257 E33.78262
G1 X100.163 Y101.621 E33.86649
G1 X102.579 Y100.918 E33.95018
G1 X105.039 Y100.126 E34.03613
G1 X107.419 Y99.286 E34.12008
G1 X109.741 Y98.389 E34.20287
G1 X112.39 Y97.279 E34.2984
G1 X178.232 Y68.452 E36.689
G1 X179.037 Y68.112 E36.71807
G1 X179.883 Y67.798 E36.74808
G1 X180.755 Y67.56 E36.77815
G1 X181.644 Y67.401 E36.80818
G1 X182.685 Y67.315 E36.84293
G1 X183.008 Y67.305 E36.85367
G1 X183.324 Y67.3 E36.86418
G1 X187.293 Y67.3 E36.99619
G1 X188.137 Y67.311 E37.02427
G1 X189.039 Y67.364 E37.05432
G1 X189.932 Y67.496 E37.08434
G1 X190.81 Y67.707 E37.11438
G1 X191.666 Y67.995 E37.14442
G1 X192.493 Y68.357 E37.17444
G1 X193.285 Y68.792 E37.2045
G1 X194.036 Y69.294 E37.23454
G1 X194.739 Y69.861 E37.26458
G1 X195.389 Y70.488 E37.29462
G1 X195.981 Y71.17 E37.32466
G1 X196.511 Y71.901 E37.35469
G1 X196.973 Y72.677 E37.38473
G1 X197.366 Y73.49 E37.41476
G1 X197.684 Y74.335 E37.44479
G1 X197.927 Y75.205 E37.47483
G1 X198.092 Y76.093 E37.50487
G1 X198.187 Y77.223 E37.54259
G1 X198.196 Y77.543 E37.55324
G1 X198.2 Y77.83 E37.56278
G1 X198.199 Y156.89 E40.19233
G1 X198.19 Y157.617 E40.21651
G1 X198.139 Y158.519 E40.24656
G1 X198.008 Y159.413 E40.27661
G1 X197.799 Y160.291 E40.30663
G1 X197.513 Y161.148 E40.33668
G1 X197.152 Y161.976 E40.36672
G1 X196.72 Y162.768 E40.39673
G1 X196.219 Y163.52 E40.42678
G1 X195.653 Y164.224 E40.45683
G1 X195.028 Y164.875 E40.48684
G1 X194.347 Y165.469 E40.5169
G1 X193.616 Y166 E40.54695
G1 X192.842 Y166.464 E40.57696
G1 X192.029 Y166.858 E40.60701
G1 X191.185 Y167.178 E40.63703
G1 X190.315 Y167.423 E40.6671
G1 X189.428 Y167.589 E40.69711
G1 X188.277 Y167.687 E40.73553
G1 X187.956 Y167.696 E40.74621
G1 X187.67 Y167.7 E40.75573
G1 X47.575 Y167.699 E45.4153
G1 X46.877 Y167.69 E45.43852
G1 X45.976 Y167.639 E45.46854
G1 X45.082 Y167.507 E45.49859
G1 X44.204 Y167.298 E45.52861
G1 X43.347 Y167.011 E45.55867
G1 X42.52 Y166.65 E45.58868
G1 X41.727 Y166.217 E45.61874
G1 X40.976 Y165.716 E45.64876
G1 X40.272 Y165.15 E45.67881
G1 X39.621 Y164.524 E45.70884
G1 X39.028 Y163.843 E45.73888
G1 X38.498 Y163.112 E45.76891
G1 X38.034 Y162.337 E45.79895
G1 X37.64 Y161.524 E45.829
G1 X37.32 Y160.68 E45.85902
G1 X37.076 Y159.81 E45.88908
G1 X36.91 Y158.922 E45.91912
G1 X36.813 Y157.767 E45.95767
G1 X36.804 Y157.434 E45.96875
G1 X36.8 Y157.158 E45.97793
G1 X36.801 Y114.815 E47.38627
G1 X36.81 Y114.126 E47.40919
G1 X36.862 Y113.224 E47.43924
G1 X36.993 Y112.331 E47.46926
G1 X37.203 Y111.452 E47.49931
G1 X37.489 Y110.596 E47.52933
G1 X37.851 Y109.768 E47.55939
G1 X38.284 Y108.976 E47.58941
G1 X38.785 Y108.225 E47.61944
G1 X39.351 Y107.521 E47.64948
G1 X39.977 Y106.87 E47.67952
G1 X40.659 Y106.277 E47.70958
G1 X41.39 Y105.747 E47.73961
G1 X42.164 Y105.283 E47.76962
G1 X42.977 Y104.89 E47.79966
G1 F2700 E42.79966
;MESH:Holder.stl
G0 F6000 X47.414 Y113.585
G0 X47.414 Y114.664
G0 X62.178 Y115.322
G0 X62.35 Y121.6
;TYPE:WALL-INNER
G1 F2700 E47.79966
G1 F1200 X62.35 Y115.15 E48.01419
G1 X49.068 Y115.15 E48.45595
G1 X48.4 Y115.236 E48.47835
G1 X48.4 Y121.6 E48.69002
G1 X62.35 Y121.6 E49.15399
G0 F6000 X61.95 Y121.2
;TYPE:WALL-OUTER
G1 F1200 X61.95 Y115.55 E49.34191
G1 X49.094 Y115.55 E49.76951
G1 X48.8 Y115.588 E49.77937
G1 X48.8 Y121.2 E49.96602
G1 X61.95 Y121.2 E50.40339
G1 F2700 E45.40339
G0 F6000 X62.25 Y121.2
G0 X62.532 Y115.032
G0 X62.968 Y115.032
G0 X63.322 Y121.928
G0 X82.592 Y121.939
G0 X90.299 Y118.534
G0 X94.724 Y118.215
G0 X94.889 Y118.1
;TYPE:WALL-INNER
G1 F2700 E50.40339
G1 F1200 X147.969 Y118.1 E52.16884
G1 X148.6 Y117.982 E52.19019
G1 X148.6 Y93.543 E53.00304
G1 X94.689 Y117.146 E54.96045
G1 X94.889 Y118.1 E54.99287
G0 F6000 X95.214 Y117.7
;TYPE:WALL-OUTER
G1 F1200 X147.932 Y117.7 E56.74627
G1 X148.2 Y117.65 E56.75534
G1 X148.2 Y94.155 E57.53679
G1 X95.147 Y117.382 E59.46304
G1 X95.214 Y117.7 E59.47385
G1 F2700 E54.47385
G0 F6000 X95.214 Y118
G0 X148.9 Y117.982
;TYPE:WALL-INNER
G1 F2700 E59.47385
G1 F1200 X148.9 Y118.1 E59.47734
G1 X182.1 Y118.1 E60.58158
G1 X182.1 Y78.876 E61.88617
G1 X148.9 Y93.411 E63.0916
G1 X148.9 Y93.543 E63.09552
G1 X148.9 Y117.982 E63.70668
G0 F6000 X149.3 Y117.7
;TYPE:WALL-OUTER
G1 F1200 X181.7 Y117.7 E64.78431
G1 X181.7 Y79.488 E66.05524
G1 X149.3 Y93.673 E67.23162
G1 X149.3 Y117.7 E68.03076
G1 F2700 E63.03076
G0 F6000 X149 Y117.7
G0 X181.928 Y118.572
G0 X182.1 Y139.35
;TYPE:WALL-INNER
G1 F2700 E68.03076
G1 F1200 X182.1 Y118.4 E68.72756
G1 X148.9 Y118.4 E69.55782
G1 X147.969 Y118.4 E69.58878
G1 X94.889 Y118.4 E70.91619
G1 X91.824 Y118.4 E71.01813
G1 X82.747 Y122.375 E71.34771
G1 X82.691 Y122.4 E71.34975
G1 X82.626 Y122.4 E71.35191
G1 X63.15 Y122.4 E71.99969
G1 X48.4 Y122.4 E72.49027
G1 X48.4 Y139.35 E73.05403
G1 X182.1 Y139.35 E77.50091
G0 F6000 X181.7 Y138.95
;TYPE:WALL-OUTER
G1 F1200 X181.7 Y118.8 E78.17111
G1 X91.908 Y118.8 E81.1576
G1 X82.773 Y122.8 E81.48928
G1 X48.8 Y122.8 E82.61923
G1 X48.8 Y138.95 E83.15638
G1 X181.7 Y138.95 E87.57665
G0 F6000 X182 Y138.95
G0 X182.1 Y156.6
;TYPE:WALL-INNER
G1 F1200 X182.1 Y139.65 E88.14041
G1 X48.4 Y139.65 E91.48393
G1 X48.4 Y156.6 E92.04769
G1 X182.1 Y156.6 E96.49457
G0 F6000 X181.7 Y156.2
;TYPE:WALL-OUTER
G1 F1200 X181.7 Y140.05 E97.03172
G1 X48.8 Y140.05 E101.45199
G1 X48.8 Y156.2 E101.98914
G1 X181.7 Y156.2 E106.40942
G0 F6000 X182 Y156.2
G0 X182.282 Y156.718
G0 X187.4 Y156.9
;TYPE:WALL-INNER
G1 F1200 X182.1 Y156.9 E106.58569
G1 X48.4 Y156.9 E109.92921
G1 X47.6 Y156.9 E109.95582
G1 X47.6 Y114.85 E111.35441
G1 X48.4 Y114.85 E111.38102
G1 X49.068 Y114.85 E111.40011
G1 X62.35 Y114.85 E111.73226
G1 X63.15 Y114.85 E111.75887
G1 X63.15 Y122.1 E112.00001
G1 X82.626 Y122.1 E112.48706
G1 X91.703 Y118.126 E112.73444
G1 X94.568 Y116.872 E112.83845
G1 X148.479 Y93.269 E114.30528
G1 X148.779 Y93.137 E114.31618
G1 X181.979 Y78.601 E115.22102
G1 X183.123 Y78.1 E115.26256
G1 X187.4 Y78.1 E115.40481
G1 X187.4 Y156.9 E118.02571
G0 F6000 X187.8 Y157.3
;TYPE:WALL-OUTER
G1 F1200 X47.2 Y157.3 E122.70208
G1 X47.2 Y114.45 E124.12728
G1 X63.55 Y114.45 E124.67108
G1 X63.55 Y121.7 E124.91222
G1 X82.542 Y121.7 E125.5439
G1 X183.041 Y77.7 E129.19283
G1 X187.8 Y77.7 E129.35112
G1 X187.8 Y157.3 E131.99862
G0 F6000 X187.53 Y157.03
G0 X187.29 Y156.51
G0 X187.01 Y156.51
;TYPE:SKIN
G1 F1200 X182.49 Y156.51 E132.14896
G1 X182.49 Y78.802 E134.73354
G1 X183.203 Y78.49 E134.75942
G1 X187.01 Y78.49 E134.88604
G1 X187.01 Y156.51 E137.481
G0 F6000 X187.29 Y156.51
G0 X182.937 Y156.79
G0 X182.937 Y156.35
G1 F1200 X182.649 Y156.062 E137.49455
G0 F6000 X182.649 Y155.496
G1 F1200 X183.503 Y156.35 E137.53472
G0 F6000 X184.069 Y156.35
G1 F1200 X182.649 Y154.93 E137.60151
G0 F6000 X182.649 Y154.364
G1 F1200 X184.634 Y156.35 E137.6949
G0 F6000 X185.2 Y156.35
G1 F1200 X182.649 Y153.799 E137.81489
G0 F6000 X182.649 Y153.233
G1 F1200 X185.766 Y156.35 E137.9615
G0 F6000 X186.331 Y156.35
G1 F1200 X182.649 Y152.667 E138.13472
G0 F6000 X182.649 Y152.102
G1 F1200 X186.849 Y156.302 E138.33227
G0 F6000 X186.849 Y155.736
G1 F1200 X182.649 Y151.536 E138.52983
G0 F6000 X182.649 Y150.97
G1 F1200 X186.849 Y155.171 E138.72741
G0 F6000 X186.849 Y154.605
G1 F1200 X182.649 Y150.405 E138.92496
G0 F6000 X182.649 Y149.839
G1 F1200 X186.849 Y154.039 E139.12252
G0 F6000 X186.849 Y153.473
G1 F1200 X182.649 Y149.273 E139.32007
G0 F6000 X182.649 Y148.708
G1 F1200 X186.849 Y152.908 E139.51763
G0 F6000 X186.849 Y152.342
G1 F1200 X182.649 Y148.142 E139.71518
G0 F6000 X182.649 Y147.576
G1 F1200 X186.849 Y151.776 E139.91274
G0 F6000 X186.849 Y151.211
