;FLAVOR:Marlin
;TIME:12418
;Filament used: 9.01479m
;Layer height: 0.2
;MINX:40.75
;MINY:70.5
;MINZ:0.2
;MAXX:194.25
;MAXY:164.5
;MAXZ:18.6
;Generated with Cura_SteamEngine 4.8.0
M140 S50
M105
M190 S50
M104 S200
M105
M109 S200
M82 ;absolute extrusion mode
; Ender 3 Custom Start G-code
G92 E0 ; Reset Extruder
G28 ; Home all axes
G1 Z2.0 F3000 ; Move Z Axis up little to prevent scratching of Heat Bed
G1 X0.1 Y20 Z0.3 F5000.0 ; Move to start position
G1 X0.1 Y200.0 Z0.3 F1500.0 E15 ; Draw the first line
G1 X0.4 Y200.0 Z0.3 F5000.0 ; Move to side a little
G1 X0.4 Y20 Z0.3 F1500.0 E30 ; Draw the second line
G92 E0 ; Reset Extruder
G1 Z2.0 F3000 ; Move Z Axis up little to prevent scratching of Heat Bed
G1 X5 Y20 Z0.3 F5000.0 ; Move over to prevent blob squish
G92 E0
G92 E0
G1 F2700 E-5
;LAYER_COUNT:93
;LAYER:0
M107
G0 F6000 X46.162 Y82.039 Z0.2
;TYPE:SKIRT
G1 F2700 E0
G1 F1200 X46.989 Y81.597 E0.03119
G1 X47.851 Y81.227 E0.06239
G1 X48.741 Y80.931 E0.09358
G1 X49.653 Y80.713 E0.12477
G1 X50.58 Y80.572 E0.15596
G1 X51.451 Y80.513 E0.18499
G1 X51.772 Y80.504 E0.19567
G1 X52.08 Y80.5 E0.20592
G1 X66.175 Y80.5 E0.67472
G1 X68.783 Y80.463 E0.76147
G1 X71.304 Y80.356 E0.8454
G1 X73.799 Y80.179 E0.92859
G1 X76.299 Y79.931 E1.01215
G1 X78.792 Y79.612 E1.09574
G1 X81.285 Y79.221 E1.17967
G1 X83.775 Y78.758 E1.26391
G1 X86.239 Y78.228 E1.34774
G1 X88.641 Y77.639 E1.43
G1 X91.097 Y76.963 E1.51472
G1 X93.507 Y76.225 E1.59855
G1 X95.899 Y75.418 E1.68251
G1 X98.239 Y74.555 E1.76547
G1 X100.595 Y73.609 E1.84991
G1 X102.903 Y72.605 E1.93362
G1 X104.717 Y71.763 E2.00014
G1 X105.405 Y71.472 E2.02498
G1 X105.53 Y71.424 E2.02944
G1 X106.131 Y71.213 E2.05062
G1 X106.385 Y71.132 E2.05949
G1 X107.298 Y70.884 E2.09096
G1 X107.404 Y70.86 E2.09457
G1 X107.823 Y70.773 E2.10881
G1 X108.119 Y70.718 E2.11882
G1 X109.298 Y70.564 E2.15837
G1 X109.43 Y70.554 E2.16277
G1 X110.048 Y70.525 E2.18335
G1 X111.235 Y70.502 E2.22283
G1 X111.449 Y70.5 E2.22995
G1 X123.962 Y70.502 E2.64614
G1 X124.411 Y70.508 E2.66107
G1 X124.801 Y70.52 E2.67405
G1 X125.435 Y70.551 E2.69516
G1 X126.706 Y70.688 E2.73768
G1 X126.826 Y70.708 E2.74173
G1 X127.265 Y70.79 E2.75658
G1 X127.519 Y70.843 E2.76521
G1 X128.52 Y71.102 E2.7996
G1 X128.63 Y71.136 E2.80343
G1 X129.082 Y71.286 E2.81927
G1 X129.362 Y71.386 E2.82916
G1 X130.201 Y71.725 E2.85925
G1 X131.25 Y72.201 E2.89757
G1 X132.375 Y72.725 E2.93885
G1 X134.672 Y73.714 E3.02202
G1 X137.058 Y74.665 E3.10745
G1 X139.391 Y75.516 E3.19005
G1 X141.782 Y76.313 E3.27388
G1 X144.184 Y77.04 E3.35735
G1 X146.624 Y77.703 E3.44145
G1 X149.043 Y78.289 E3.52423
G1 X151.557 Y78.823 E3.60971
G1 X153.998 Y79.267 E3.69223
G1 X156.495 Y79.651 E3.77626
G1 X158.964 Y79.959 E3.85901
G1 X161.493 Y80.202 E3.94352
G1 X163.989 Y80.371 E4.02672
G1 X166.55 Y80.471 E4.11197
G1 X168.815 Y80.5 E4.18731
G1 X182.701 Y80.501 E4.64916
G1 X183.399 Y80.511 E4.67238
G1 X184.335 Y80.565 E4.70356
G1 X185.263 Y80.697 E4.73473
G1 X186.177 Y80.909 E4.76594
G1 X187.069 Y81.198 E4.79713
G1 X187.934 Y81.561 E4.82833
G1 X188.764 Y81.997 E4.85951
G1 X189.555 Y82.502 E4.89072
G1 X190.299 Y83.073 E4.92192
G1 X190.992 Y83.705 E4.95311
G1 X191.629 Y84.393 E4.9843
G1 X192.204 Y85.134 E5.01549
G1 X192.715 Y85.92 E5.04668
G1 X193.157 Y86.748 E5.07789
G1 X193.526 Y87.61 E5.10908
G1 X193.821 Y88.5 E5.14026
G1 X194.039 Y89.412 E5.17145
G1 X194.179 Y90.34 E5.20267
G1 X194.237 Y91.201 E5.23137
G1 X194.246 Y91.521 E5.24202
G1 X194.25 Y91.83 E5.25229
G1 X194.249 Y152.9 E7.28349
G1 X194.24 Y153.627 E7.30767
G1 X194.189 Y154.564 E7.33888
G1 X194.057 Y155.492 E7.37006
G1 X193.848 Y156.406 E7.40124
G1 X193.561 Y157.299 E7.43244
G1 X193.199 Y158.165 E7.46366
G1 X192.765 Y158.996 E7.49484
G1 X192.261 Y159.787 E7.52604
G1 X191.692 Y160.532 E7.55722
G1 X191.061 Y161.227 E7.58844
G1 X190.374 Y161.865 E7.61962
G1 X189.635 Y162.442 E7.65081
G1 X188.849 Y162.954 E7.68201
G1 X188.023 Y163.397 E7.71318
G1 X187.161 Y163.769 E7.74441
G1 X186.272 Y164.065 E7.77557
G1 X185.36 Y164.285 E7.80677
G1 X184.433 Y164.426 E7.83796
G1 X183.549 Y164.487 E7.86743
G1 X183.228 Y164.496 E7.87811
G1 X182.92 Y164.5 E7.88836
G1 X52.315 Y164.499 E12.2323
G1 X51.617 Y164.49 E12.25552
G1 X50.681 Y164.438 E12.2867
G1 X49.752 Y164.306 E12.3179
G1 X48.838 Y164.096 E12.3491
G1 X47.945 Y163.809 E12.38029
G1 X47.08 Y163.446 E12.41149
G1 X46.249 Y163.012 E12.44268
G1 X45.458 Y162.508 E12.47387
G1 X44.713 Y161.938 E12.50507
G1 X44.019 Y161.307 E12.53627
G1 X43.382 Y160.62 E12.56743
G1 X42.805 Y159.88 E12.59864
G1 X42.293 Y159.094 E12.62984
G1 X41.85 Y158.267 E12.66104
G1 X41.479 Y157.406 E12.69222
G1 X41.183 Y156.516 E12.72342
G1 X40.964 Y155.604 E12.75462
G1 X40.823 Y154.677 E12.7858
G1 X40.763 Y153.788 E12.81544
G1 X40.754 Y153.455 E12.82652
G1 X40.75 Y153.158 E12.8364
G1 X40.751 Y92.025 E14.86969
G1 X40.76 Y91.36 E14.89181
G1 X40.813 Y90.424 E14.92299
G1 X40.945 Y89.495 E14.9542
G1 X41.156 Y88.581 E14.9854
G1 X41.444 Y87.689 E15.01657
G1 X41.807 Y86.824 E15.04778
G1 X42.242 Y85.993 E15.07897
G1 X42.746 Y85.203 E15.11014
G1 X43.316 Y84.458 E15.14134
G1 X43.948 Y83.764 E15.17256
G1 X44.636 Y83.127 E15.20374
G1 X45.376 Y82.551 E15.23493
G1 X46.162 Y82.039 E15.26613
G0 F6000 X46.541 Y82.282
G1 F1200 X47.361 Y81.864 E15.29675
G1 X48.215 Y81.519 E15.32738
G1 X49.095 Y81.249 E15.358
G1 X49.995 Y81.057 E15.3886
G1 X50.909 Y80.943 E15.41924
G1 X51.462 Y80.913 E15.43766
G1 X51.783 Y80.904 E15.44834
G1 X52.08 Y80.9 E15.45822
G1 X66.181 Y80.9 E15.92722
G1 X68.806 Y80.863 E16.01454
G1 X71.314 Y80.756 E16.09803
G1 X73.834 Y80.578 E16.18205
G1 X76.349 Y80.329 E16.26611
G1 X78.838 Y80.01 E16.34957
G1 X81.39 Y79.609 E16.43549
G1 X83.821 Y79.157 E16.51773
G1 X86.313 Y78.621 E16.60251
G1 X88.77 Y78.019 E16.68665
G1 X91.215 Y77.346 E16.771
G1 X93.615 Y76.611 E16.85448
G1 X96.029 Y75.797 E16.93921
G1 X98.379 Y74.93 E17.02252
G1 X100.767 Y73.971 E17.10811
G1 X103.069 Y72.969 E17.19162
G1 X104.886 Y72.126 E17.25824
G1 X105.548 Y71.845 E17.28216
G1 X105.673 Y71.797 E17.28661
G1 X106.252 Y71.594 E17.30702
G1 X106.506 Y71.513 E17.31589
G1 X107.386 Y71.274 E17.34622
G1 X107.492 Y71.25 E17.34983
G1 X107.897 Y71.166 E17.36359
G1 X108.193 Y71.111 E17.3736
G1 X109.328 Y70.963 E17.41167
G1 X109.46 Y70.953 E17.41607
G1 X110.056 Y70.925 E17.43592
G1 X111.243 Y70.902 E17.47541
G1 X111.449 Y70.9 E17.48226
G1 X123.957 Y70.902 E17.89828
G1 X124.406 Y70.908 E17.91321
G1 X124.782 Y70.92 E17.92572
G1 X125.416 Y70.951 E17.94684
G1 X126.641 Y71.082 E17.98781
G1 X126.761 Y71.102 E17.99186
G1 X127.183 Y71.181 E18.00614
G1 X127.437 Y71.234 E18.01477
G1 X128.402 Y71.484 E18.04792
G1 X128.512 Y71.518 E18.05175
G1 X128.947 Y71.663 E18.067
G1 X129.227 Y71.763 E18.07689
G1 X130.036 Y72.09 E18.10591
G1 X131.081 Y72.563 E18.14407
G1 X132.214 Y73.09 E18.18563
G1 X134.545 Y74.095 E18.27005
G1 X136.909 Y75.037 E18.35469
G1 X139.243 Y75.888 E18.43732
G1 X141.676 Y76.699 E18.52262
G1 X144.068 Y77.423 E18.60574
G1 X146.497 Y78.083 E18.68946
G1 X148.972 Y78.682 E18.77416
G1 X151.474 Y79.214 E18.85923
G1 X153.937 Y79.662 E18.9425
G1 X156.456 Y80.049 E19.02726
G1 X158.909 Y80.355 E19.10948
G1 X161.465 Y80.601 E19.19489
G1 X163.982 Y80.771 E19.2788
G1 X166.529 Y80.871 E19.36357
G1 X168.81 Y80.9 E19.43945
G1 X182.695 Y80.901 E19.90126
G1 X183.393 Y80.911 E19.92448
G1 X184.312 Y80.964 E19.9551
G1 X185.223 Y81.097 E19.98572
G1 X186.119 Y81.308 E20.01634
G1 X186.993 Y81.596 E20.04694
G1 X187.84 Y81.959 E20.07759
G1 X188.651 Y82.394 E20.1082
G1 X189.421 Y82.898 E20.13881
G1 X190.145 Y83.467 E20.16944
G1 X190.817 Y84.097 E20.20007
G1 X191.432 Y84.782 E20.23069
G1 X191.985 Y85.518 E20.26131
G1 X192.472 Y86.299 E20.29192
G1 X192.889 Y87.12 E20.32255
G1 X193.234 Y87.974 E20.35319
G1 X193.503 Y88.854 E20.38379
G1 X193.695 Y89.755 E20.41443
G1 X193.808 Y90.668 E20.44503
G1 X193.837 Y91.212 E20.46315
G1 X193.846 Y91.532 E20.4738
G1 X193.85 Y91.83 E20.48371
G1 X193.849 Y152.895 E22.51474
G1 X193.84 Y153.622 E22.53892
G1 X193.789 Y154.541 E22.56953
G1 X193.658 Y155.453 E22.60018
G1 X193.448 Y156.349 E22.63079
G1 X193.162 Y157.224 E22.66141
G1 X192.801 Y158.071 E22.69203
G1 X192.367 Y158.883 E22.72265
G1 X191.865 Y159.655 E22.75328
G1 X191.297 Y160.38 E22.78391
G1 X190.669 Y161.053 E22.81453
G1 X189.985 Y161.669 E22.84514
G1 X189.25 Y162.223 E22.87576
G1 X188.47 Y162.712 E22.90638
G1 X187.65 Y163.131 E22.937
G1 X186.797 Y163.477 E22.96762
G1 X185.917 Y163.748 E22.99825
G1 X185.017 Y163.941 E23.02886
G1 X184.103 Y164.056 E23.0595
G1 X183.538 Y164.087 E23.07832
G1 X183.217 Y164.096 E23.089
G1 X182.92 Y164.1 E23.09888
G1 X52.32 Y164.099 E27.44265
G1 X51.622 Y164.09 E27.46587
G1 X50.703 Y164.038 E27.49649
G1 X49.792 Y163.907 E27.5271
G1 X48.896 Y163.697 E27.55771
G1 X48.021 Y163.41 E27.58833
G1 X47.174 Y163.048 E27.61897
G1 X46.362 Y162.614 E27.64959
G1 X45.591 Y162.112 E27.68019
G1 X44.866 Y161.544 E27.71083
G1 X44.193 Y160.915 E27.74146
G1 X43.578 Y160.231 E27.77206
G1 X43.024 Y159.496 E27.80267
G1 X42.536 Y158.715 E27.8333
G1 X42.117 Y157.895 E27.86393
G1 X41.771 Y157.042 E27.89454
G1 X41.501 Y156.162 E27.92516
G1 X41.308 Y155.261 E27.95581
G1 X41.194 Y154.348 E27.98641
G1 X41.163 Y153.777 E28.00543
G1 X41.154 Y153.444 E28.01651
G1 X41.15 Y153.158 E28.02602
G1 X41.151 Y92.031 E30.05911
G1 X41.16 Y91.366 E30.08123
G1 X41.212 Y90.446 E30.11188
G1 X41.344 Y89.535 E30.1425
G1 X41.555 Y88.639 E30.17312
G1 X41.842 Y87.764 E30.20374
G1 X42.205 Y86.918 E30.23436
G1 X42.639 Y86.106 E30.26499
G1 X43.142 Y85.335 E30.2956
G1 X43.711 Y84.611 E30.32623
G1 X44.339 Y83.939 E30.35682
G1 X45.024 Y83.323 E30.38746
G1 X45.76 Y82.77 E30.41808
G1 X46.541 Y82.282 E30.44871
G0 F6000 X46.919 Y82.531
G1 F1200 X47.732 Y82.138 E30.47875
G1 X48.577 Y81.818 E30.5088
G1 X49.446 Y81.575 E30.53881
G1 X50.334 Y81.409 E30.56886
G1 X51.473 Y81.313 E30.60687
G1 X51.794 Y81.304 E30.61756
G1 X52.08 Y81.3 E30.62707
G1 X66.187 Y81.3 E31.09627
G1 X68.793 Y81.263 E31.18295
G1 X71.358 Y81.154 E31.26834
G1 X73.865 Y80.976 E31.35194
G1 X76.406 Y80.725 E31.43686
G1 X78.914 Y80.404 E31.52096
G1 X81.419 Y80.01 E31.6053
G1 X83.906 Y79.548 E31.68943
G1 X86.42 Y79.007 E31.77496
G1 X88.866 Y78.408 E31.85872
G1 X91.31 Y77.735 E31.94303
G1 X93.745 Y76.99 E32.02773
G1 X96.147 Y76.179 E32.11205
G1 X98.56 Y75.289 E32.19759
G1 X100.867 Y74.363 E32.28027
G1 X103.269 Y73.318 E32.3674
G1 X105.054 Y72.489 E32.43286
G1 X105.692 Y72.219 E32.4559
G1 X105.817 Y72.171 E32.46035
G1 X106.374 Y71.975 E32.47999
G1 X106.628 Y71.894 E32.48886
G1 X107.475 Y71.664 E32.51805
G1 X107.581 Y71.64 E32.52167
G1 X107.97 Y71.56 E32.53487
G1 X108.266 Y71.505 E32.54489
G1 X109.358 Y71.362 E32.58152
G1 X109.49 Y71.352 E32.58592
G1 X110.063 Y71.325 E32.605
G1 X111.25 Y71.302 E32.64449
G1 X111.449 Y71.3 E32.65111
G1 X123.951 Y71.302 E33.06692
G1 X124.4 Y71.308 E33.08186
G1 X124.762 Y71.319 E33.09391
G1 X125.396 Y71.35 E33.11502
G1 X126.575 Y71.477 E33.15446
G1 X126.695 Y71.497 E33.1585
G1 X127.101 Y71.573 E33.17224
G1 X127.355 Y71.626 E33.18087
G1 X128.284 Y71.866 E33.21279
G1 X128.394 Y71.9 E33.21662
G1 X128.813 Y72.039 E33.2313
G1 X129.093 Y72.139 E33.24119
G1 X129.871 Y72.454 E33.2691
G1 X130.912 Y72.926 E33.30712
G1 X132.065 Y73.463 E33.34942
G1 X134.374 Y74.458 E33.43305
G1 X136.772 Y75.413 E33.5189
G1 X139.105 Y76.264 E33.6015
G1 X141.517 Y77.068 E33.68606
G1 X143.985 Y77.815 E33.77182
G1 X146.403 Y78.472 E33.85516
G1 X148.9 Y79.077 E33.94062
G1 X151.385 Y79.604 E34.02511
G1 X153.883 Y80.059 E34.10956
G1 X156.347 Y80.438 E34.19247
G1 X158.923 Y80.759 E34.27881
G1 X161.4 Y80.997 E34.36158
G1 X163.975 Y81.171 E34.44742
G1 X166.508 Y81.271 E34.53173
G1 X168.805 Y81.3 E34.60814
G1 X182.689 Y81.301 E35.06992
G1 X183.387 Y81.311 E35.09314
G1 X184.289 Y81.364 E35.12319
G1 X185.182 Y81.496 E35.15321
G1 X186.06 Y81.707 E35.18325
G1 X186.916 Y81.995 E35.21329
G1 X187.743 Y82.357 E35.24331
G1 X188.535 Y82.792 E35.27337
G1 X189.286 Y83.294 E35.30341
G1 X189.989 Y83.861 E35.33345
G1 X190.639 Y84.488 E35.36349
G1 X191.231 Y85.17 E35.39353
G1 X191.761 Y85.901 E35.42356
G1 X192.223 Y86.677 E35.4536
G1 X192.616 Y87.49 E35.48363
G1 X192.934 Y88.335 E35.51366
G1 X193.177 Y89.205 E35.5437
G1 X193.342 Y90.093 E35.57374
G1 X193.437 Y91.223 E35.61146
G1 X193.446 Y91.543 E35.62211
G1 X193.45 Y91.83 E35.63165
G1 X193.449 Y152.89 E37.66252
G1 X193.44 Y153.617 E37.6867
G1 X193.389 Y154.519 E37.71675
G1 X193.258 Y155.413 E37.7468
G1 X193.049 Y156.291 E37.77682
G1 X192.763 Y157.148 E37.80687
G1 X192.402 Y157.976 E37.83691
G1 X191.97 Y158.768 E37.86692
G1 X191.469 Y159.52 E37.89697
G1 X190.903 Y160.224 E37.92701
G1 X190.278 Y160.875 E37.95703
G1 X189.597 Y161.469 E37.98709
G1 X188.866 Y162 E38.01714
G1 X188.092 Y162.464 E38.04715
G1 X187.279 Y162.858 E38.0772
G1 X186.435 Y163.178 E38.10722
G1 X185.565 Y163.423 E38.13728
G1 X184.678 Y163.589 E38.1673
G1 X183.527 Y163.687 E38.20572
G1 X183.206 Y163.696 E38.2164
G1 X182.92 Y163.7 E38.22591
G1 X52.325 Y163.699 E42.56952
G1 X51.627 Y163.69 E42.59274
G1 X50.726 Y163.639 E42.62275
G1 X49.832 Y163.507 E42.65281
G1 X48.954 Y163.298 E42.68283
G1 X48.097 Y163.011 E42.71289
G1 X47.27 Y162.65 E42.7429
G1 X46.477 Y162.217 E42.77295
G1 X45.726 Y161.716 E42.80298
G1 X45.022 Y161.15 E42.83302
G1 X44.371 Y160.524 E42.86306
G1 X43.778 Y159.843 E42.89309
G1 X43.248 Y159.112 E42.92313
G1 X42.784 Y158.337 E42.95317
G1 X42.39 Y157.524 E42.98322
G1 X42.07 Y156.68 E43.01324
G1 X41.826 Y155.81 E43.04329
G1 X41.66 Y154.922 E43.07334
G1 X41.563 Y153.767 E43.11189
G1 X41.554 Y153.434 E43.12297
G1 X41.55 Y153.158 E43.13215
G1 X41.551 Y92.036 E45.16508
G1 X41.56 Y91.371 E45.1872
G1 X41.612 Y90.469 E45.21725
G1 X41.744 Y89.576 E45.24727
G1 X41.954 Y88.698 E45.2773
G1 X42.241 Y87.841 E45.30736
G1 X42.603 Y87.014 E45.33738
G1 X43.036 Y86.222 E45.3674
G1 X43.538 Y85.471 E45.39745
G1 X44.105 Y84.767 E45.42751
G1 X44.731 Y84.117 E45.45753
G1 X45.412 Y83.524 E45.48756
G1 X46.144 Y82.994 E45.51762
G1 X46.919 Y82.531 E45.54765
G1 F2700 E40.54765
;MESH:Drawer.stl
G0 F6000 X52.56 Y90.835
G0 X52.56 Y92.31
G0 X52.532 Y152.718
G0 X182.65 Y152.9
;TYPE:WALL-INNER
G1 F2700 E45.54765
G1 F1200 X52.35 Y152.9 E49.88144
G1 X52.35 Y92.1 E51.90366
G1 X108.1 Y92.1 E53.75791
G1 X108.101 Y84.505 E54.01052
G1 X108.122 Y84.181 E54.02132
G1 X108.182 Y83.879 E54.03156
G1 X108.282 Y83.586 E54.04186
G1 X108.426 Y83.294 E54.05269
G1 X108.594 Y83.043 E54.06273
G1 X108.804 Y82.804 E54.07332
G1 X109.043 Y82.594 E54.0839
G1 X109.294 Y82.426 E54.09394
G1 X109.586 Y82.282 E54.10477
G1 X109.879 Y82.182 E54.11507
G1 X110.181 Y82.122 E54.12531
G1 X110.524 Y82.1 E54.13674
G1 X124.495 Y82.101 E54.60142
G1 X124.819 Y82.122 E54.61222
G1 X125.121 Y82.182 E54.62246
G1 X125.414 Y82.282 E54.63276
G1 X125.706 Y82.426 E54.64358
G1 X125.957 Y82.594 E54.65363
G1 X126.196 Y82.804 E54.66421
G1 X126.406 Y83.043 E54.67479
G1 X126.574 Y83.294 E54.68484
G1 X126.718 Y83.586 E54.69567
G1 X126.818 Y83.879 E54.70597
G1 X126.878 Y84.181 E54.71621
G1 X126.9 Y84.52 E54.72751
G1 X126.9 Y92.1 E54.97962
G1 X182.65 Y92.1 E56.83387
G1 X182.65 Y152.9 E58.85609
G0 F6000 X183.05 Y153.3
;TYPE:WALL-OUTER
G1 F1200 X51.95 Y153.3 E63.21649
G1 X51.95 Y91.7 E65.26531
G1 X107.7 Y91.7 E67.11957
G1 X107.701 Y84.494 E67.35924
G1 X107.725 Y84.13 E67.37137
G1 X107.796 Y83.773 E67.38348
G1 X107.912 Y83.431 E67.39549
G1 X108.076 Y83.099 E67.40781
G1 X108.278 Y82.797 E67.41989
G1 X108.521 Y82.521 E67.43212
G1 X108.797 Y82.278 E67.44435
G1 X109.099 Y82.076 E67.45644
G1 X109.431 Y81.912 E67.46875
G1 X109.773 Y81.796 E67.48076
G1 X110.13 Y81.725 E67.49287
G1 X110.513 Y81.7 E67.50564
G1 X124.506 Y81.701 E67.97104
G1 X124.87 Y81.725 E67.98318
G1 X125.227 Y81.796 E67.99528
G1 X125.569 Y81.912 E68.0073
G1 X125.901 Y82.076 E68.01961
G1 X126.203 Y82.278 E68.0317
G1 X126.479 Y82.521 E68.04393
G1 X126.722 Y82.797 E68.05616
G1 X126.924 Y83.099 E68.06824
G1 X127.088 Y83.431 E68.08056
G1 X127.204 Y83.773 E68.09257
G1 X127.275 Y84.13 E68.10468
G1 X127.3 Y84.513 E68.11744
G1 X127.3 Y91.7 E68.35648
G1 X183.05 Y91.7 E70.21073
G1 X183.05 Y153.3 E72.25956
G0 F6000 X182.78 Y153.03
G0 X182.54 Y152.51
G0 X182.26 Y152.51
;TYPE:SKIN
G1 F1200 X52.74 Y152.51 E76.56741
G1 X52.74 Y92.49 E78.56369
