;FLAVOR:Marlin
;TIME:7237
;Filament used: 4.35159m
;Layer height: 0.2
;MINX:82.15
;MINY:72.03
;MINZ:0.2
;MAXX:153.079
;MAXY:163
;MAXZ:21.4
;Generated with Cura_SteamEngine 4.8.0
M140 S60
M105
M190 S60
M104 S200
M105
M109 S200
M82 ;absolute extrusion mode
; Ender 3 Custom Start G-code
G92 E0 ; Reset Extruder
G28 ; Home all axes
G1 Z2.0 F3000 ; Move Z Axis up little to prevent scratching of Heat Bed
G1 X0.1 Y20 Z0.3 F5000.0 ; Move to start position
G1 X0.1 Y200.0 Z0.3 F1500.0 E15 ; Draw the first line
G1 X0.4 Y200.0 Z0.3 F5000.0 ; Move to side a little
G1 X0.4 Y20 Z0.3 F1500.0 E30 ; Draw the second line
G92 E0 ; Reset Extruder
G1 Z2.0 F3000 ; Move Z Axis up little to prevent scratching of Heat Bed
G1 X5 Y20 Z0.3 F5000.0 ; Move over to prevent blob squish
G92 E0
G92 E0
G1 F2700 E-5
;LAYER_COUNT:107
;LAYER:0
M107
G0 F6000 X85.359 Y82.253 Z0.2
;TYPE:SKIRT
G1 F2700 E0
G1 F1200 X86.048 Y81.617 E0.03119
G1 X86.789 Y81.042 E0.06238
G1 X87.576 Y80.532 E0.09357
G1 X88.404 Y80.091 E0.12478
G1 X89.266 Y79.722 E0.15596
G1 X90.157 Y79.428 E0.18717
G1 X91.453 Y79.143 E0.2313
G1 X94.26 Y78.702 E0.32581
G1 X96.725 Y78.242 E0.40921
G1 X99.181 Y77.712 E0.49278
G1 X101.6 Y77.118 E0.57563
G1 X104.065 Y76.438 E0.66067
G1 X106.472 Y75.7 E0.74441
G1 X108.827 Y74.904 E0.82709
G1 X111.222 Y74.019 E0.91201
G1 X113.323 Y73.168 E0.98741
G1 X113.505 Y73.096 E0.99392
G1 X114.361 Y72.767 E1.02442
G1 X115.25 Y72.468 E1.05561
G1 X116.161 Y72.246 E1.0868
G1 X117.088 Y72.103 E1.118
G1 X118.085 Y72.037 E1.15123
G1 X118.431 Y72.03 E1.16274
G1 X119.368 Y72.051 E1.19391
G1 X120.301 Y72.152 E1.22513
G1 X121.221 Y72.332 E1.25631
G1 X122.197 Y72.615 E1.29011
G1 X122.576 Y72.744 E1.30342
G1 X123.25 Y72.998 E1.32738
G1 X124.269 Y73.422 E1.36409
G1 X124.719 Y73.616 E1.38038
G1 X127.059 Y74.548 E1.46416
G1 X129.413 Y75.412 E1.54756
G1 X131.827 Y76.218 E1.63221
G1 X134.199 Y76.937 E1.71465
G1 X136.651 Y77.605 E1.79917
G1 X139.126 Y78.207 E1.88389
G1 X141.55 Y78.721 E1.96631
G1 X142.679 Y78.928 E2.00448
G1 X142.826 Y78.962 E2.0095
G1 X144.078 Y79.194 E2.05185
G1 X144.992 Y79.404 E2.08304
G1 X145.884 Y79.692 E2.11422
G1 X146.749 Y80.054 E2.14541
G1 X147.58 Y80.489 E2.1766
G1 X148.371 Y80.993 E2.2078
G1 X149.117 Y81.562 E2.23901
G1 X149.81 Y82.193 E2.27018
G1 X150.448 Y82.881 E2.30139
G1 X151.025 Y83.621 E2.3326
G1 X151.536 Y84.407 E2.36378
G1 X151.979 Y85.233 E2.39495
G1 X152.35 Y86.095 E2.42617
G1 X152.646 Y86.985 E2.45736
G1 X152.865 Y87.897 E2.48856
G1 X153.006 Y88.824 E2.51974
G1 X153.065 Y89.694 E2.54875
G1 X153.074 Y90.008 E2.55919
G1 X153.079 Y90.323 E2.56967
G1 X153.078 Y151.4 E4.6011
G1 X153.069 Y152.127 E4.62528
G1 X153.018 Y153.064 E4.65649
G1 X152.886 Y153.992 E4.68767
G1 X152.677 Y154.906 E4.71885
G1 X152.39 Y155.799 E4.75005
G1 X152.028 Y156.665 E4.78127
G1 X151.594 Y157.496 E4.81245
G1 X151.09 Y158.287 E4.84365
G1 X150.521 Y159.032 E4.87483
G1 X149.89 Y159.727 E4.90605
G1 X149.203 Y160.365 E4.93723
G1 X148.464 Y160.942 E4.96842
G1 X147.678 Y161.454 E4.99962
G1 X146.852 Y161.897 E5.03079
G1 X145.99 Y162.269 E5.06202
G1 X145.101 Y162.565 E5.09318
G1 X144.189 Y162.785 E5.12438
G1 X143.262 Y162.926 E5.15557
G1 X142.378 Y162.987 E5.18504
G1 X142.057 Y162.996 E5.19572
G1 X141.749 Y163 E5.20597
G1 X93.715 Y162.999 E6.80359
G1 X93.017 Y162.99 E6.8268
G1 X92.081 Y162.938 E6.85798
G1 X91.152 Y162.806 E6.88919
G1 X90.238 Y162.596 E6.92038
G1 X89.345 Y162.309 E6.95158
G1 X88.48 Y161.946 E6.98278
G1 X87.649 Y161.512 E7.01396
G1 X86.858 Y161.008 E7.04516
G1 X86.113 Y160.438 E7.07636
G1 X85.419 Y159.807 E7.10756
G1 X84.782 Y159.12 E7.13872
G1 X84.205 Y158.38 E7.16993
G1 X83.693 Y157.594 E7.20113
G1 X83.25 Y156.767 E7.23233
G1 X82.879 Y155.906 E7.26351
G1 X82.583 Y155.016 E7.29471
G1 X82.364 Y154.104 E7.3259
G1 X82.223 Y153.177 E7.35709
G1 X82.162 Y152.268 E7.38739
G1 X82.153 Y151.911 E7.39927
G1 X82.15 Y151.634 E7.40848
G1 X82.15 Y90.508 E9.44154
G1 X82.16 Y89.844 E9.46363
G1 X82.214 Y88.908 E9.49481
G1 X82.348 Y87.98 E9.526
G1 X82.56 Y87.066 E9.5572
G1 X82.85 Y86.174 E9.5884
G1 X83.214 Y85.31 E9.61958
G1 X83.65 Y84.48 E9.65077
G1 X84.156 Y83.69 E9.68197
G1 X84.727 Y82.946 E9.71316
G1 X85.359 Y82.253 E9.74436
G0 F6000 X85.751 Y82.428
G1 F1200 X86.437 Y81.814 E9.77498
G1 X87.173 Y81.262 E9.80558
G1 X87.955 Y80.775 E9.83622
G1 X88.776 Y80.359 E9.86683
G1 X89.63 Y80.015 E9.89745
G1 X90.511 Y79.746 E9.92809
G1 X91.515 Y79.538 E9.96219
G1 X94.33 Y79.096 E10.05697
G1 X96.812 Y78.633 E10.14094
G1 X99.256 Y78.105 E10.22411
G1 X101.73 Y77.498 E10.30883
G1 X104.174 Y76.824 E10.39315
G1 X106.58 Y76.086 E10.47686
G1 X108.957 Y75.282 E10.56032
G1 X111.374 Y74.389 E10.64602
G1 X113.473 Y73.539 E10.72134
G1 X114.504 Y73.141 E10.7581
G1 X115.377 Y72.848 E10.78872
G1 X116.272 Y72.632 E10.81935
G1 X117.182 Y72.495 E10.84995
G1 X118.093 Y72.437 E10.88032
G1 X118.439 Y72.43 E10.89183
G1 X119.359 Y72.452 E10.92243
G1 X120.274 Y72.553 E10.95305
G1 X121.177 Y72.733 E10.98368
G1 X122.068 Y72.993 E11.01455
G1 X122.447 Y73.122 E11.02786
G1 X123.097 Y73.367 E11.05097
G1 X124.11 Y73.789 E11.08747
G1 X124.579 Y73.991 E11.10445
G1 X126.91 Y74.92 E11.18791
G1 X129.297 Y75.795 E11.27247
G1 X131.689 Y76.595 E11.35636
G1 X134.083 Y77.32 E11.43955
G1 X136.557 Y77.994 E11.52484
G1 X139.021 Y78.593 E11.60918
G1 X141.466 Y79.111 E11.6923
G1 X142.607 Y79.321 E11.73089
G1 X142.754 Y79.355 E11.73591
G1 X144.005 Y79.587 E11.77823
G1 X144.902 Y79.794 E11.80885
G1 X145.777 Y80.079 E11.83945
G1 X146.625 Y80.438 E11.87008
G1 X147.439 Y80.869 E11.90072
G1 X148.211 Y81.369 E11.93131
G1 X148.938 Y81.935 E11.96195
G1 X149.613 Y82.561 E11.99257
G1 X150.23 Y83.244 E12.02319
G1 X150.787 Y83.977 E12.05381
G1 X151.277 Y84.757 E12.08444
G1 X151.698 Y85.575 E12.11504
G1 X152.047 Y86.427 E12.14566
G1 X152.32 Y87.307 E12.17631
G1 X152.516 Y88.206 E12.20691
G1 X152.633 Y89.119 E12.23753
G1 X152.666 Y89.705 E12.25705
G1 X152.675 Y90.019 E12.2675
G1 X152.679 Y90.323 E12.27761
G1 X152.678 Y151.395 E14.30887
G1 X152.669 Y152.122 E14.33305
G1 X152.618 Y153.041 E14.36367
G1 X152.487 Y153.953 E14.39431
G1 X152.277 Y154.849 E14.42492
G1 X151.991 Y155.724 E14.45554
G1 X151.63 Y156.571 E14.48616
G1 X151.196 Y157.383 E14.51678
G1 X150.694 Y158.155 E14.54741
G1 X150.126 Y158.88 E14.57804
G1 X149.498 Y159.553 E14.60866
G1 X148.814 Y160.169 E14.63928
G1 X148.079 Y160.723 E14.66989
G1 X147.299 Y161.212 E14.70051
G1 X146.479 Y161.631 E14.73114
G1 X145.626 Y161.977 E14.76175
G1 X144.746 Y162.248 E14.79238
G1 X143.846 Y162.441 E14.82299
G1 X142.932 Y162.556 E14.85363
G1 X142.367 Y162.587 E14.87245
G1 X142.046 Y162.596 E14.88313
G1 X141.749 Y162.6 E14.89301
G1 X93.72 Y162.599 E16.49046
G1 X93.022 Y162.59 E16.51368
G1 X92.103 Y162.538 E16.54429
G1 X91.192 Y162.407 E16.57491
G1 X90.296 Y162.197 E16.60552
G1 X89.421 Y161.91 E16.63614
G1 X88.574 Y161.548 E16.66678
G1 X87.762 Y161.114 E16.6974
G1 X86.991 Y160.612 E16.728
G1 X86.266 Y160.044 E16.75864
G1 X85.593 Y159.415 E16.78927
G1 X84.978 Y158.731 E16.81987
G1 X84.424 Y157.996 E16.85048
G1 X83.936 Y157.215 E16.88111
G1 X83.517 Y156.395 E16.91174
G1 X83.171 Y155.542 E16.94235
G1 X82.901 Y154.662 E16.97297
G1 X82.708 Y153.761 E17.00362
G1 X82.594 Y152.848 E17.03422
G1 X82.562 Y152.258 E17.05387
G1 X82.553 Y151.901 E17.06575
G1 X82.55 Y151.634 E17.07463
G1 X82.55 Y90.514 E19.10749
G1 X82.56 Y89.85 E19.12958
G1 X82.614 Y88.931 E19.1602
G1 X82.747 Y88.02 E19.19082
G1 X82.959 Y87.124 E19.22144
G1 X83.248 Y86.25 E19.25206
G1 X83.612 Y85.404 E19.28269
G1 X84.047 Y84.593 E19.3133
G1 X84.552 Y83.823 E19.34393
G1 X85.121 Y83.1 E19.37453
G1 X85.751 Y82.428 E19.40516
G0 F6000 X86.142 Y82.607
G1 F1200 X86.825 Y82.015 E19.43523
G1 X87.557 Y81.486 E19.46526
G1 X88.332 Y81.024 E19.49527
G1 X89.146 Y80.633 E19.52531
G1 X89.991 Y80.314 E19.55535
G1 X90.861 Y80.072 E19.58539
G1 X91.577 Y79.933 E19.60964
G1 X94.394 Y79.491 E19.70448
G1 X96.897 Y79.023 E19.78918
G1 X99.364 Y78.491 E19.87312
G1 X101.793 Y77.895 E19.9563
G1 X104.292 Y77.205 E20.04253
G1 X106.72 Y76.461 E20.12699
G1 X109.119 Y75.65 E20.21122
G1 X111.469 Y74.781 E20.29455
G1 X113.623 Y73.909 E20.37184
G1 X114.648 Y73.514 E20.40838
G1 X115.504 Y73.228 E20.43839
G1 X116.383 Y73.018 E20.46845
G1 X117.276 Y72.887 E20.49847
G1 X118.101 Y72.837 E20.52596
G1 X118.447 Y72.83 E20.53747
G1 X119.35 Y72.852 E20.56752
G1 X120.247 Y72.953 E20.59754
G1 X121.132 Y73.134 E20.62758
G1 X121.94 Y73.372 E20.6556
G1 X122.319 Y73.501 E20.66891
G1 X122.944 Y73.737 E20.69113
G1 X123.952 Y74.157 E20.72745
G1 X124.391 Y74.346 E20.74335
G1 X126.772 Y75.295 E20.8286
G1 X129.169 Y76.174 E20.91352
G1 X131.551 Y76.97 E20.99705
G1 X134 Y77.712 E21.08216
G1 X136.471 Y78.386 E21.16735
G1 X138.941 Y78.986 E21.25189
G1 X141.382 Y79.503 E21.33488
G1 X142.535 Y79.715 E21.37387
G1 X142.664 Y79.745 E21.37828
G1 X143.932 Y79.98 E21.42117
G1 X144.812 Y80.184 E21.45121
G1 X145.67 Y80.465 E21.48124
G1 X146.5 Y80.821 E21.51128
G1 X147.295 Y81.249 E21.54131
G1 X148.05 Y81.746 E21.57138
G1 X148.757 Y82.307 E21.60139
G1 X149.412 Y82.928 E21.63141
G1 X150.01 Y83.606 E21.66148
G1 X150.545 Y84.333 E21.6915
G1 X151.014 Y85.105 E21.72155
G1 X151.412 Y85.915 E21.75157
G1 X151.738 Y86.758 E21.78163
G1 X151.988 Y87.626 E21.81167
G1 X152.16 Y88.512 E21.84169
G1 X152.266 Y89.717 E21.88192
G1 X152.275 Y90.031 E21.89237
G1 X152.279 Y90.323 E21.90208
G1 X152.278 Y151.39 E23.93318
G1 X152.269 Y152.117 E23.95736
G1 X152.218 Y153.019 E23.98741
G1 X152.087 Y153.913 E24.01746
G1 X151.878 Y154.791 E24.04748
G1 X151.592 Y155.648 E24.07753
G1 X151.231 Y156.476 E24.10757
G1 X150.799 Y157.268 E24.13758
G1 X150.298 Y158.02 E24.16763
G1 X149.732 Y158.724 E24.19768
G1 X149.107 Y159.375 E24.22769
G1 X148.426 Y159.969 E24.25775
G1 X147.695 Y160.5 E24.2878
G1 X146.921 Y160.964 E24.31781
G1 X146.108 Y161.358 E24.34786
G1 X145.264 Y161.678 E24.37788
G1 X144.394 Y161.923 E24.40795
G1 X143.507 Y162.089 E24.43796
G1 X142.356 Y162.187 E24.47638
G1 X142.035 Y162.196 E24.48706
G1 X141.749 Y162.2 E24.49658
G1 X93.725 Y162.199 E26.09386
G1 X93.027 Y162.19 E26.11708
G1 X92.126 Y162.139 E26.14709
G1 X91.232 Y162.007 E26.17715
G1 X90.354 Y161.798 E26.20717
G1 X89.497 Y161.511 E26.23723
G1 X88.67 Y161.15 E26.26724
G1 X87.877 Y160.717 E26.29729
G1 X87.126 Y160.216 E26.32732
G1 X86.422 Y159.65 E26.35736
G1 X85.771 Y159.024 E26.3874
G1 X85.178 Y158.343 E26.41743
G1 X84.648 Y157.612 E26.44747
G1 X84.184 Y156.837 E26.47751
G1 X83.79 Y156.024 E26.50756
G1 X83.47 Y155.18 E26.53758
G1 X83.226 Y154.31 E26.56763
G1 X83.06 Y153.422 E26.59768
G1 X82.962 Y152.248 E26.63686
G1 X82.953 Y151.891 E26.64874
G1 X82.95 Y151.634 E26.65729
G1 X82.95 Y90.52 E28.68995
G1 X82.96 Y89.856 E28.71204
G1 X83.014 Y88.955 E28.74206
G1 X83.147 Y88.062 E28.77209
G1 X83.358 Y87.184 E28.80212
G1 X83.647 Y86.328 E28.83217
G1 X84.01 Y85.501 E28.86221
G1 X84.444 Y84.709 E28.89225
G1 X84.948 Y83.959 E28.9223
G1 X85.515 Y83.257 E28.95231
G1 X86.142 Y82.607 E28.98235
G1 F2700 E23.98235
;MESH:Nozzle_Tray.stl
G0 F6000 X92.737 Y89.589
G0 X93.569 Y90.42
G0 X93.75 Y151.4
;TYPE:WALL-INNER
G1 F2700 E28.98235
G1 F1200 X93.749 Y90.799 E30.99795
G1 X93.749 Y90.6 E31.00457
G1 X93.948 Y90.6 E31.00885
G1 X118.1 Y90.6 E31.81215
G1 X118.1 Y84.049 E32.03004
G1 X118.133 Y83.865 E32.03625
G1 X118.303 Y83.663 E32.04503
G1 X118.563 Y83.615 E32.05383
G1 X118.565 Y83.615 E32.05389
G1 X118.8 Y83.75 E32.06291
G1 X118.867 Y83.865 E32.06734
G1 X118.867 Y83.867 E32.0674
G1 X118.899 Y84.047 E32.07348
G1 X118.9 Y90.6 E32.29144
G1 X141.479 Y90.6 E33.04242
G1 X141.479 Y151.4 E35.06463
G1 X93.75 Y151.4 E36.65211
G0 F6000 X93.35 Y151.8
;TYPE:WALL-OUTER
G1 F1200 X93.349 Y90.2 E38.70093
G1 X117.7 Y90.2 E39.51085
G1 X117.7 Y84.013 E39.71663
G1 X117.751 Y83.727 E39.72629
G1 X117.89 Y83.487 E39.73552
G1 X118.1 Y83.311 E39.74463
G1 X118.362 Y83.215 E39.75391
G1 X118.638 Y83.215 E39.76309
G1 X118.9 Y83.311 E39.77237
G1 X119.11 Y83.487 E39.78148
G1 X119.249 Y83.727 E39.79071
G1 X119.299 Y84.012 E39.80033
G1 X119.3 Y90.2 E40.00615
G1 X141.879 Y90.2 E40.75713
G1 X141.879 Y151.8 E42.80595
G1 X93.35 Y151.8 E44.42003
G0 F6000 X93.62 Y151.53
G0 X94.14 Y151.29
G0 X94.14 Y151.01
;TYPE:SKIN
G1 F1200 X94.139 Y90.99 E46.4163
G1 X118.49 Y90.99 E47.22622
G1 X118.49 Y84.083 E47.45595
G1 X118.501 Y84.034 E47.45762
G1 X118.509 Y84.081 E47.45921
G1 X118.51 Y90.99 E47.689
G1 X141.089 Y90.99 E48.43998
G1 X141.089 Y151.01 E50.43625
G1 X94.14 Y151.01 E51.99778
G0 F6000 X94.846 Y150.849
G1 F1200 X94.299 Y150.302 E52.02351
G0 F6000 X94.299 Y149.736
G1 F1200 X95.412 Y150.849 E52.07587
G0 F6000 X95.977 Y150.849
G1 F1200 X94.299 Y149.171 E52.15479
G0 F6000 X94.299 Y148.605
G1 F1200 X96.543 Y150.849 E52.26034
G0 F6000 X97.109 Y150.849
G1 F1200 X94.299 Y148.039 E52.39252
G0 F6000 X94.299 Y147.474
G1 F1200 X97.674 Y150.849 E52.55127
G0 F6000 X98.24 Y150.849
G1 F1200 X94.299 Y146.908 E52.73664
G0 F6000 X94.299 Y146.342
G1 F1200 X98.806 Y150.849 E52.94864
G0 F6000 X99.371 Y150.849
G1 F1200 X94.299 Y145.777 E53.18721
G0 F6000 X94.299 Y145.211
G1 F1200 X99.937 Y150.849 E53.4524
G0 F6000 X100.503 Y150.849
G1 F1200 X94.299 Y144.645 E53.74422
G0 F6000 X94.299 Y144.08
G1 F1200 X101.068 Y150.849 E54.06261
G0 F6000 X101.634 Y150.849
G1 F1200 X94.299 Y143.514 E54.40763
G0 F6000 X94.299 Y142.948
G1 F1200 X102.2 Y150.849 E54.77927
G0 F6000 X102.765 Y150.849
G1 F1200 X94.299 Y142.383 E55.17748
G0 F6000 X94.299 Y141.817
G1 F1200 X103.331 Y150.849 E55.60232
G0 F6000 X103.897 Y150.849
G1 F1200 X94.299 Y141.251 E56.05378
G0 F6000 X94.299 Y140.685
G1 F1200 X104.463 Y150.849 E56.53186
G0 F6000 X105.028 Y150.849
G1 F1200 X94.299 Y140.12 E57.03652
G0 F6000 X94.299 Y139.554
G1 F1200 X105.594 Y150.849 E57.5678
G0 F6000 X106.16 Y150.849
G1 F1200 X94.299 Y138.988 E58.12571
G0 F6000 X94.299 Y138.423
G1 F1200 X106.725 Y150.849 E58.71019
G0 F6000 X107.291 Y150.849
G1 F1200 X94.299 Y137.857 E59.32129
G0 F6000 X94.299 Y137.291
G1 F1200 X107.857 Y150.849 E59.95902
G0 F6000 X108.422 Y150.849
G1 F1200 X94.299 Y136.726 E60.62332
G0 F6000 X94.299 Y136.16
G1 F1200 X108.988 Y150.849 E61.31425
G0 F6000 X109.554 Y150.849
G1 F1200 X94.299 Y135.594 E62.0318
G0 F6000 X94.299 Y135.029
G1 F1200 X110.119 Y150.849 E62.77592
G0 F6000 X110.685 Y150.849
G1 F1200 X94.299 Y134.463 E63.54667
G0 F6000 X94.299 Y133.897
G1 F1200 X111.251 Y150.849 E64.34404
G0 F6000 X111.816 Y150.849
G1 F1200 X94.299 Y133.332 E65.16798
G0 F6000 X94.299 Y132.766
G1 F1200 X112.382 Y150.849 E66.01855
G0 F6000 X112.948 Y150.849
G1 F1200 X94.299 Y132.2 E66.89575
G0 F6000 X94.299 Y131.634
G1 F1200 X113.513 Y150.849 E67.79954
G0 F6000 X114.079 Y150.849
G1 F1200 X94.299 Y131.069 E68.72993
G0 F6000 X94.299 Y130.502
G1 F1200 X114.645 Y150.849 E69.68696
G0 F6000 X115.211 Y150.849
G1 F1200 X94.299 Y129.937 E70.6706
G0 F6000 X94.299 Y129.371
G1 F1200 X115.776 Y150.849 E71.68084
G0 F6000 X116.342 Y150.849
G1 F1200 X94.299 Y128.805 E72.71769
G0 F6000 X94.299 Y128.24
G1 F1200 X116.908 Y150.849 E73.78115
G0 F6000 X117.473 Y150.849
G1 F1200 X94.299 Y127.674 E74.87121
G0 F6000 X94.299 Y127.108
G1 F1200 X118.039 Y150.849 E75.98789
G0 F6000 X118.605 Y150.849
G1 F1200 X94.299 Y126.543 E77.13117
G0 F6000 X94.299 Y125.977
G1 F1200 X119.17 Y150.849 E78.30105
G0 F6000 X119.736 Y150.849
G1 F1200 X94.299 Y125.411 E79.49755
G0 F6000 X94.299 Y124.846
G1 F1200 X120.302 Y150.849 E80.72065
G0 F6000 X120.867 Y150.849
G1 F1200 X94.299 Y124.28 E81.97035
G0 F6000 X94.299 Y123.714
G1 F1200 X121.433 Y150.849 E83.24668
G0 F6000 X121.999 Y150.849
G1 F1200 X94.299 Y123.149 E84.5496
G0 F6000 X94.299 Y122.583
G1 F1200 X122.564 Y150.849 E85.87912
G0 F6000 X123.13 Y150.849
G1 F1200 X94.299 Y122.017 E87.23527
G0 F6000 X94.299 Y121.451
G1 F1200 X123.696 Y150.849 E88.61804
G0 F6000 X124.261 Y150.849
G1 F1200 X94.299 Y120.886 E90.02738
G0 F6000 X94.299 Y120.32
G1 F1200 X124.827 Y150.849 E91.46335
G0 F6000 X125.393 Y150.849
G1 F1200 X94.299 Y119.754 E92.92594
G0 F6000 X94.299 Y119.189
G1 F1200 X125.959 Y150.849 E94.41513
G0 F6000 X126.524 Y150.849
G1 F1200 X94.299 Y118.623 E95.93092
G0 F6000 X94.299 Y118.057
G1 F1200 X127.09 Y150.849 E97.47333
G0 F6000 X127.656 Y150.849
G1 F1200 X94.299 Y117.492 E99.04234
G0 F6000 X94.299 Y116.926
