;FLAVOR:Marlin
;TIME:10187
;Filament used: 5.25801m
;Layer height: 0.2
;MINX:78.905
;MINY:101.674
;MINZ:0.2
;MAXX:156.095
;MAXY:132.925
;MAXZ:52
;Generated with Cura_SteamEngine 4.8.0
M140 S60
M105
M190 S60
M104 S200
M105
M109 S200
M82 ;absolute extrusion mode
; Ender 3 Custom Start G-code
G92 E0 ; Reset Extruder
G28 ; Home all axes
G1 Z2.0 F3000 ; Move Z Axis up little to prevent scratching of Heat Bed
G1 X0.1 Y20 Z0.3 F5000.0 ; Move to start position
G1 X0.1 Y200.0 Z0.3 F1500.0 E15 ; Draw the first line
G1 X0.4 Y200.0 Z0.3 F5000.0 ; Move to side a little
G1 X0.4 Y20 Z0.3 F1500.0 E30 ; Draw the second line
G92 E0 ; Reset Extruder
G1 Z2.0 F3000 ; Move Z Axis up little to prevent scratching of Heat Bed
G1 X5 Y20 Z0.3 F5000.0 ; Move over to prevent blob squish
G92 E0
G92 E0
G1 F2700 E-5
;LAYER_COUNT:260
;LAYER:0
M107
G0 F6000 X83.372 Y104.082 Z0.2
;TYPE:SKIRT
G1 F2700 E0
G1 F1200 X84.144 Y103.55 E0.03118
G1 X85.097 Y103.014 E0.06755
G1 X85.296 Y102.915 E0.07494
G1 X86.153 Y102.534 E0.10614
G1 X87.43 Y102.118 E0.15081
G1 X87.684 Y102.052 E0.15953
G1 X88.601 Y101.855 E0.19073
G1 X89.531 Y101.736 E0.22191
G1 X90.22 Y101.7 E0.24486
G1 X91.32 Y101.677 E0.28146
G1 X91.55 Y101.675 E0.28911
G1 X143.791 Y101.674 E2.02665
G1 X144.598 Y101.684 E2.05349
G1 X145.534 Y101.737 E2.08467
G1 X146.463 Y101.869 E2.11588
G1 X147.136 Y102.017 E2.1388
G1 X147.604 Y102.135 E2.15485
G1 X148.503 Y102.403 E2.18606
G1 X149.376 Y102.746 E2.21725
G1 X150.216 Y103.163 E2.24844
G1 X151.018 Y103.649 E2.27963
G1 X151.775 Y104.202 E2.31081
G1 X152.483 Y104.818 E2.34203
G1 X153.135 Y105.492 E2.37322
G1 X153.728 Y106.219 E2.40442
G1 X154.056 Y106.683 E2.42332
G1 X154.226 Y106.937 E2.43349
G1 X154.714 Y107.738 E2.46468
G1 X155.132 Y108.577 E2.49586
G1 X155.477 Y109.449 E2.52705
G1 X155.747 Y110.348 E2.55827
G1 X155.939 Y111.266 E2.58946
G1 X156.075 Y112.597 E2.63396
G1 X156.087 Y112.985 E2.64687
G1 X156.095 Y113.67 E2.66966
G1 X156.094 Y120.98 E2.91279
G1 X156.083 Y121.714 E2.93721
G1 X156.029 Y122.65 E2.96839
G1 X155.895 Y123.578 E2.99958
G1 X155.683 Y124.492 E3.03078
G1 X155.394 Y125.384 E3.06197
G1 X155.178 Y125.921 E3.08122
G1 X155.097 Y126.108 E3.088
G1 X154.688 Y126.952 E3.11919
G1 X154.208 Y127.758 E3.15039
G1 X153.662 Y128.52 E3.18157
G1 X153.052 Y129.233 E3.21278
G1 X152.384 Y129.892 E3.24399
G1 X151.663 Y130.491 E3.27517
G1 X150.893 Y131.026 E3.30635
G1 X149.962 Y131.555 E3.34197
G1 X149.766 Y131.654 E3.34927
G1 X148.912 Y132.04 E3.38044
G1 X147.582 Y132.479 E3.42703
G1 X147.325 Y132.546 E3.43586
G1 X146.408 Y132.744 E3.46706
G1 X145.478 Y132.863 E3.49825
G1 X144.78 Y132.9 E3.52149
G1 X143.68 Y132.923 E3.55809
G1 X143.45 Y132.925 E3.56574
G1 X91.058 Y132.925 E5.3083
G1 X90.403 Y132.916 E5.33009
G1 X89.466 Y132.863 E5.3613
G1 X88.538 Y132.731 E5.39248
G1 X87.87 Y132.585 E5.41522
G1 X87.401 Y132.467 E5.43131
G1 X86.502 Y132.199 E5.46251
G1 X85.629 Y131.856 E5.49371
G1 X84.789 Y131.44 E5.52488
G1 X83.987 Y130.954 E5.55607
G1 X83.229 Y130.401 E5.58728
G1 X82.521 Y129.786 E5.61847
G1 X81.868 Y129.112 E5.64969
G1 X81.275 Y128.386 E5.68086
G1 X80.944 Y127.917 E5.69996
G1 X80.774 Y127.663 E5.71012
G1 X80.286 Y126.862 E5.74132
G1 X79.868 Y126.023 E5.77249
G1 X79.523 Y125.151 E5.80368
G1 X79.253 Y124.252 E5.83491
G1 X79.061 Y123.334 E5.8661
G1 X78.925 Y122.003 E5.9106
G1 X78.913 Y121.608 E5.92374
G1 X78.905 Y120.901 E5.94726
G1 X78.906 Y113.586 E6.19056
G1 X78.917 Y112.877 E6.21414
G1 X78.972 Y111.941 E6.24533
G1 X79.106 Y111.013 E6.27651
G1 X79.319 Y110.099 E6.30773
G1 X79.608 Y109.207 E6.33891
G1 X79.84 Y108.636 E6.35941
G1 X79.921 Y108.451 E6.36613
G1 X80.333 Y107.609 E6.39731
G1 X80.816 Y106.805 E6.4285
G1 X81.365 Y106.045 E6.45968
G1 X81.977 Y105.334 E6.49089
G1 X82.648 Y104.678 E6.5221
G1 X83.372 Y104.082 E6.55329
G0 F6000 X83.694 Y104.341
G1 F1200 X84.457 Y103.826 E6.58391
G1 X85.276 Y103.373 E6.61503
G1 X85.475 Y103.274 E6.62243
G1 X86.316 Y102.9 E6.65304
G1 X87.53 Y102.505 E6.6955
G1 X87.784 Y102.439 E6.70423
G1 X88.684 Y102.246 E6.73484
G1 X89.598 Y102.132 E6.76548
G1 X90.228 Y102.1 E6.78646
G1 X91.328 Y102.077 E6.82306
G1 X91.55 Y102.075 E6.83044
G1 X143.791 Y102.074 E8.56798
G1 X144.592 Y102.084 E8.59463
G1 X145.512 Y102.137 E8.62528
G1 X146.423 Y102.269 E8.65589
G1 X147.039 Y102.405 E8.67687
G1 X147.507 Y102.523 E8.69293
G1 X148.389 Y102.786 E8.72354
G1 X149.245 Y103.126 E8.75417
G1 X150.068 Y103.538 E8.78478
G1 X150.852 Y104.02 E8.81539
G1 X151.592 Y104.568 E8.84602
G1 X152.281 Y105.178 E8.87663
G1 X152.915 Y105.846 E8.90726
G1 X153.724 Y106.905 E8.95158
G1 X153.894 Y107.159 E8.96175
G1 X154.372 Y107.946 E8.99237
G1 X154.781 Y108.771 E9.023
G1 X155.116 Y109.628 E9.0536
G1 X155.375 Y110.512 E9.08424
G1 X155.557 Y111.414 E9.11485
G1 X155.676 Y112.614 E9.15496
G1 X155.687 Y112.99 E9.16747
G1 X155.695 Y113.67 E9.19009
G1 X155.694 Y120.974 E9.43302
G1 X155.683 Y121.708 E9.45743
G1 X155.629 Y122.627 E9.48805
G1 X155.496 Y123.538 E9.51867
G1 X155.284 Y124.434 E9.5493
G1 X154.995 Y125.308 E9.57991
G1 X154.811 Y125.762 E9.59621
G1 X154.73 Y125.949 E9.60299
G1 X154.327 Y126.777 E9.63361
G1 X153.855 Y127.567 E9.66422
G1 X153.315 Y128.313 E9.69485
G1 X152.713 Y129.01 E9.72548
G1 X152.053 Y129.652 E9.75611
G1 X151.34 Y130.233 E9.7867
G1 X150.578 Y130.751 E9.81734
G1 X149.782 Y131.198 E9.84771
G1 X149.586 Y131.297 E9.85501
G1 X148.747 Y131.676 E9.88563
G1 X147.481 Y132.092 E9.92995
G1 X147.224 Y132.159 E9.93879
G1 X146.324 Y132.353 E9.96941
G1 X145.41 Y132.467 E10.00005
G1 X144.772 Y132.5 E10.02129
G1 X143.672 Y132.523 E10.05789
G1 X143.45 Y132.525 E10.06527
G1 X91.063 Y132.525 E11.80767
G1 X90.408 Y132.516 E11.82946
G1 X89.489 Y132.463 E11.86007
G1 X88.578 Y132.331 E11.89069
G1 X87.968 Y132.197 E11.91146
G1 X87.499 Y132.079 E11.92755
G1 X86.616 Y131.815 E11.9582
G1 X85.76 Y131.477 E11.98881
G1 X84.937 Y131.065 E12.01942
G1 X84.152 Y130.583 E12.05006
G1 X83.412 Y130.035 E12.08069
G1 X82.723 Y129.425 E12.11129
G1 X82.089 Y128.758 E12.1419
G1 X81.276 Y127.695 E12.18641
G1 X81.106 Y127.441 E12.19658
G1 X80.628 Y126.654 E12.2272
G1 X80.219 Y125.829 E12.25783
G1 X79.884 Y124.972 E12.28843
G1 X79.625 Y124.088 E12.31907
G1 X79.443 Y123.186 E12.34968
G1 X79.324 Y121.986 E12.38979
G1 X79.313 Y121.603 E12.40253
G1 X79.305 Y120.901 E12.42588
G1 X79.306 Y113.593 E12.66895
G1 X79.317 Y112.884 E12.69253
G1 X79.372 Y111.965 E12.72315
G1 X79.505 Y111.054 E12.75377
G1 X79.718 Y110.158 E12.7844
G1 X80.007 Y109.284 E12.81502
G1 X80.206 Y108.797 E12.83252
G1 X80.287 Y108.612 E12.83924
G1 X80.692 Y107.785 E12.86986
G1 X81.168 Y106.997 E12.90048
G1 X81.711 Y106.253 E12.93112
G1 X82.315 Y105.559 E12.96172
G1 X82.978 Y104.92 E12.99234
G1 X83.694 Y104.341 E13.02297
G0 F6000 X84.015 Y104.601
G1 F1200 X84.769 Y104.105 E13.05299
G1 X85.454 Y103.731 E13.07895
G1 X85.653 Y103.632 E13.08634
G1 X86.478 Y103.266 E13.11636
G1 X87.631 Y102.892 E13.15667
G1 X87.885 Y102.826 E13.1654
G1 X88.768 Y102.638 E13.19543
G1 X89.665 Y102.528 E13.22549
G1 X90.237 Y102.5 E13.24453
G1 X91.337 Y102.477 E13.28113
G1 X91.55 Y102.475 E13.28821
G1 X143.791 Y102.474 E15.02576
G1 X144.587 Y102.484 E15.05223
G1 X145.489 Y102.536 E15.08228
G1 X146.382 Y102.668 E15.11231
G1 X146.941 Y102.793 E15.13136
G1 X147.409 Y102.911 E15.14741
G1 X148.274 Y103.17 E15.17744
G1 X149.113 Y103.505 E15.20749
G1 X149.918 Y103.912 E15.23749
G1 X150.685 Y104.39 E15.26755
G1 X151.406 Y104.933 E15.29757
G1 X152.077 Y105.538 E15.32762
G1 X152.691 Y106.2 E15.35765
G1 X153.392 Y107.128 E15.39633
G1 X153.562 Y107.382 E15.4065
G1 X154.03 Y108.154 E15.43653
G1 X154.429 Y108.964 E15.46656
G1 X154.754 Y109.807 E15.49661
G1 X155.003 Y110.675 E15.52664
G1 X155.175 Y111.561 E15.55666
G1 X155.276 Y112.63 E15.59238
G1 X155.287 Y112.996 E15.60455
G1 X155.295 Y113.67 E15.62697
G1 X155.294 Y120.968 E15.86971
G1 X155.283 Y121.702 E15.89412
G1 X155.229 Y122.603 E15.92414
G1 X155.096 Y123.497 E15.9542
G1 X154.885 Y124.375 E15.98424
G1 X154.444 Y125.603 E16.02763
G1 X154.363 Y125.79 E16.03441
G1 X153.967 Y126.602 E16.06446
G1 X153.502 Y127.376 E16.09449
G1 X152.97 Y128.106 E16.12454
G1 X152.375 Y128.785 E16.15456
G1 X151.723 Y129.41 E16.1846
G1 X151.017 Y129.974 E16.21466
G1 X150.265 Y130.474 E16.24469
G1 X149.602 Y130.841 E16.2699
G1 X149.406 Y130.94 E16.2772
G1 X148.582 Y131.311 E16.30726
G1 X147.38 Y131.705 E16.34933
G1 X147.123 Y131.772 E16.35816
G1 X146.24 Y131.961 E16.3882
G1 X145.344 Y132.071 E16.41822
G1 X144.763 Y132.1 E16.43757
G1 X143.663 Y132.123 E16.47416
G1 X143.45 Y132.125 E16.48125
G1 X91.069 Y132.125 E18.22345
G1 X90.414 Y132.116 E18.24524
G1 X89.512 Y132.064 E18.27529
G1 X88.619 Y131.932 E18.30531
G1 X88.065 Y131.809 E18.32418
G1 X87.596 Y131.691 E18.34027
G1 X86.731 Y131.432 E18.3703
G1 X85.892 Y131.097 E18.40035
G1 X85.086 Y130.69 E18.43038
G1 X84.319 Y130.213 E18.46042
G1 X83.598 Y129.67 E18.49044
G1 X82.927 Y129.065 E18.52049
G1 X82.312 Y128.404 E18.55052
G1 X81.608 Y127.472 E18.58937
G1 X81.438 Y127.218 E18.59954
G1 X80.97 Y126.446 E18.62956
G1 X80.571 Y125.636 E18.65959
G1 X80.246 Y124.793 E18.68964
G1 X79.997 Y123.925 E18.71968
G1 X79.825 Y123.039 E18.7497
G1 X79.724 Y121.97 E18.78541
G1 X79.713 Y121.598 E18.79779
G1 X79.705 Y120.901 E18.82097
G1 X79.706 Y113.599 E19.06384
G1 X79.717 Y112.89 E19.08742
G1 X79.771 Y111.988 E19.11748
G1 X79.905 Y111.095 E19.14751
G1 X80.117 Y110.217 E19.17755
G1 X80.572 Y108.957 E19.22211
G1 X80.653 Y108.772 E19.22882
G1 X81.052 Y107.962 E19.25886
G1 X81.52 Y107.19 E19.28888
G1 X82.056 Y106.462 E19.31895
G1 X82.653 Y105.785 E19.34897
G1 X83.308 Y105.163 E19.37902
G1 X84.015 Y104.601 E19.40906
G1 F2700 E14.40906
;MESH:Metric_screw_measuring_device-sanitized.stl
G0 F6000 X90.268 Y112.05
G0 X90.555 Y113.095
G0 X144.313 Y113.456
G0 X144.495 Y121.304
;TYPE:WALL-INNER
G1 F2700 E19.40906
G1 F1200 X144.418 Y121.325 E19.41171
G1 X90.742 Y121.326 E21.19698
G1 X90.583 Y121.326 E21.20227
G1 X90.505 Y121.304 E21.20496
G1 X90.505 Y121.145 E21.21025
G1 X90.505 Y113.296 E21.47131
G1 X90.582 Y113.275 E21.47397
G1 X144.258 Y113.274 E23.25924
G1 X144.417 Y113.274 E23.26453
G1 X144.495 Y113.296 E23.26722
G1 X144.495 Y113.455 E23.27251
G1 X144.495 Y121.304 E23.53357
G0 F6000 X144.841 Y121.624
;TYPE:WALL-OUTER
G1 F1200 X144.473 Y121.725 E23.54626
G1 X90.528 Y121.726 E25.34048
G1 X90.176 Y121.629 E25.35262
G1 X90.105 Y121.513 E25.35715
G1 X90.105 Y113.091 E25.63726
G1 X90.159 Y112.976 E25.64149
G1 X90.527 Y112.875 E25.65418
G1 X144.472 Y112.874 E27.4484
G1 X144.824 Y112.971 E27.46054
G1 X144.895 Y113.087 E27.46507
G1 X144.895 Y121.509 E27.74518
G1 X144.841 Y121.624 E27.74941
G0 F6000 X144.455 Y121.288
G0 X144.105 Y120.935
;TYPE:SKIN
G1 F1200 X90.895 Y120.936 E29.51918
G1 X90.895 Y113.665 E29.76102
G1 X144.105 Y113.664 E31.53079
G1 X144.105 Y120.935 E31.77262
G0 F6000 X144.385 Y120.935
G0 X144.385 Y113.962
G0 X143.944 Y113.962
G1 F1200 X143.805 Y113.824 E31.77914
G0 F6000 X143.24 Y113.824
G1 F1200 X143.944 Y114.528 E31.81225
G0 F6000 X143.944 Y115.094
G1 F1200 X142.674 Y113.824 E31.87199
G0 F6000 X142.108 Y113.824
G1 F1200 X143.944 Y115.66 E31.95835
G0 F6000 X143.944 Y116.225
G1 F1200 X141.542 Y113.824 E32.07131
G0 F6000 X140.977 Y113.824
G1 F1200 X143.944 Y116.791 E32.21086
G0 F6000 X143.944 Y117.357
G1 F1200 X140.411 Y113.824 E32.37705
G0 F6000 X139.845 Y113.824
G1 F1200 X143.944 Y117.922 E32.56983
G0 F6000 X143.944 Y118.488
G1 F1200 X139.28 Y113.824 E32.78921
G0 F6000 X138.714 Y113.824
G1 F1200 X143.944 Y119.054 E33.03521
G0 F6000 X143.944 Y119.619
G1 F1200 X138.148 Y113.824 E33.30781
G0 F6000 X137.583 Y113.824
G1 F1200 X143.944 Y120.185 E33.60702
G0 F6000 X143.944 Y120.751
G1 F1200 X137.017 Y113.824 E33.93284
G0 F6000 X136.451 Y113.824
G1 F1200 X143.402 Y120.775 E34.25979
G0 F6000 X142.836 Y120.775
G1 F1200 X135.886 Y113.824 E34.58672
G0 F6000 X135.32 Y113.824
G1 F1200 X142.271 Y120.775 E34.91368
G0 F6000 X141.705 Y120.775
G1 F1200 X134.754 Y113.824 E35.24063
G0 F6000 X134.189 Y113.824
G1 F1200 X141.139 Y120.775 E35.56756
G0 F6000 X140.574 Y120.775
G1 F1200 X133.623 Y113.824 E35.89452
G0 F6000 X133.057 Y113.824
G1 F1200 X140.008 Y120.775 E36.22147
G0 F6000 X139.442 Y120.775
G1 F1200 X132.492 Y113.824 E36.5484
G0 F6000 X131.926 Y113.824
G1 F1200 X138.877 Y120.775 E36.87535
G0 F6000 X138.311 Y120.775
G1 F1200 X131.36 Y113.824 E37.20231
G0 F6000 X130.794 Y113.824
G1 F1200 X137.745 Y120.775 E37.52926
G0 F6000 X137.18 Y120.775
G1 F1200 X130.229 Y113.824 E37.85621
G0 F6000 X129.663 Y113.824
G1 F1200 X136.614 Y120.775 E38.18317
G0 F6000 X136.048 Y120.775
G1 F1200 X129.097 Y113.824 E38.51012
G0 F6000 X128.532 Y113.824
G1 F1200 X135.483 Y120.775 E38.83708
G0 F6000 X134.917 Y120.775
G1 F1200 X127.966 Y113.824 E39.16403
G0 F6000 X127.4 Y113.824
G1 F1200 X134.351 Y120.775 E39.49098
G0 F6000 X133.786 Y120.775
G1 F1200 X126.835 Y113.824 E39.81794
G0 F6000 X126.269 Y113.824
G1 F1200 X133.22 Y120.775 E40.14489
G0 F6000 X132.654 Y120.775
G1 F1200 X125.703 Y113.824 E40.47184
G0 F6000 X125.138 Y113.824
G1 F1200 X132.088 Y120.775 E40.79877
G0 F6000 X131.523 Y120.775
G1 F1200 X124.572 Y113.824 E41.12573
G0 F6000 X124.006 Y113.824
G1 F1200 X130.957 Y120.775 E41.45268
G0 F6000 X130.391 Y120.775
G1 F1200 X123.441 Y113.824 E41.77961
G0 F6000 X122.875 Y113.824
G1 F1200 X129.826 Y120.775 E42.10657
G0 F6000 X129.26 Y120.775
G1 F1200 X122.309 Y113.824 E42.43352
G0 F6000 X121.743 Y113.824
G1 F1200 X128.694 Y120.775 E42.76047
G0 F6000 X128.129 Y120.775
G1 F1200 X121.178 Y113.824 E43.08743
G0 F6000 X120.612 Y113.824
G1 F1200 X127.563 Y120.775 E43.41438
G0 F6000 X126.997 Y120.775
G1 F1200 X120.046 Y113.824 E43.74133
G0 F6000 X119.481 Y113.824
G1 F1200 X126.432 Y120.775 E44.06829
G0 F6000 X125.866 Y120.775
G1 F1200 X118.915 Y113.824 E44.39524
G0 F6000 X118.349 Y113.824
G1 F1200 X125.3 Y120.775 E44.7222
G0 F6000 X124.735 Y120.775
G1 F1200 X117.784 Y113.824 E45.04915
G0 F6000 X117.218 Y113.824
G1 F1200 X124.169 Y120.775 E45.3761
G0 F6000 X123.603 Y120.775
G1 F1200 X116.652 Y113.824 E45.70306
G0 F6000 X116.087 Y113.824
G1 F1200 X123.037 Y120.775 E46.02999
G0 F6000 X122.472 Y120.775
G1 F1200 X115.521 Y113.824 E46.35694
G0 F6000 X114.955 Y113.824
G1 F1200 X121.906 Y120.775 E46.68389
G0 F6000 X121.34 Y120.775
G1 F1200 X114.39 Y113.824 E47.01082
G0 F6000 X113.824 Y113.824
G1 F1200 X120.775 Y120.775 E47.33778
G0 F6000 X120.209 Y120.775
G1 F1200 X113.258 Y113.824 E47.66473
G0 F6000 X112.693 Y113.824
G1 F1200 X119.643 Y120.775 E47.99166
G0 F6000 X119.078 Y120.775
G1 F1200 X112.127 Y113.824 E48.31862
G0 F6000 X111.561 Y113.824
G1 F1200 X118.512 Y120.775 E48.64557
G0 F6000 X117.946 Y120.775
G1 F1200 X110.995 Y113.824 E48.97252
G0 F6000 X110.43 Y113.824
G1 F1200 X117.381 Y120.775 E49.29948
G0 F6000 X116.815 Y120.775
G1 F1200 X109.864 Y113.824 E49.62643
G0 F6000 X109.298 Y113.824
G1 F1200 X116.249 Y120.775 E49.95338
G0 F6000 X115.684 Y120.775
G1 F1200 X108.733 Y113.824 E50.28034
G0 F6000 X108.167 Y113.824
G1 F1200 X115.118 Y120.775 E50.60729
G0 F6000 X114.552 Y120.775
G1 F1200 X107.601 Y113.824 E50.93425
G0 F6000 X107.036 Y113.824
G1 F1200 X113.987 Y120.775 E51.2612
G0 F6000 X113.421 Y120.775
G1 F1200 X106.47 Y113.824 E51.58815
G0 F6000 X105.904 Y113.824
G1 F1200 X112.855 Y120.775 E51.91511
G0 F6000 X112.289 Y120.775
G1 F1200 X105.339 Y113.824 E52.24204
G0 F6000 X104.773 Y113.824
G1 F1200 X111.724 Y120.775 E52.56899
G0 F6000 X111.158 Y120.775
G1 F1200 X104.207 Y113.824 E52.89594
G0 F6000 X103.642 Y113.824
G1 F1200 X110.592 Y120.775 E53.22287
G0 F6000 X110.027 Y120.775
G1 F1200 X103.076 Y113.824 E53.54983
G0 F6000 X102.51 Y113.824
G1 F1200 X109.461 Y120.775 E53.87678
G0 F6000 X108.895 Y120.775
G1 F1200 X101.944 Y113.824 E54.20374
G0 F6000 X101.379 Y113.824
G1 F1200 X108.33 Y120.775 E54.53069
G0 F6000 X107.764 Y120.775
G1 F1200 X100.813 Y113.824 E54.85764
G0 F6000 X100.247 Y113.824
G1 F1200 X107.198 Y120.775 E55.1846
G0 F6000 X106.633 Y120.775
G1 F1200 X99.682 Y113.824 E55.51155
G0 F6000 X99.116 Y113.824
G1 F1200 X106.067 Y120.775 E55.8385
G0 F6000 X105.501 Y120.775
G1 F1200 X98.55 Y113.824 E56.16546
G0 F6000 X97.985 Y113.824
G1 F1200 X104.936 Y120.775 E56.49241
G0 F6000 X104.37 Y120.775
G1 F1200 X97.419 Y113.824 E56.81937
