;FLAVOR:Marlin
;TIME:4164
;Filament used: 2.61945m
;Layer height: 0.2
;MINX:87.851
;MINY:100.072
;MINZ:0.2
;MAXX:147.15
;MAXY:130.586
;MAXZ:39
;Generated with Cura_SteamEngine 4.8.0
M140 S50
M105
M190 S50
M104 S200
M105
M109 S200
M82 ;absolute extrusion mode
; Ender 3 Custom Start G-code
G92 E0 ; Reset Extruder
G28 ; Home all axes
G1 Z2.0 F3000 ; Move Z Axis up little to prevent scratching of Heat Bed
G1 X0.1 Y20 Z0.3 F5000.0 ; Move to start position
G1 X0.1 Y200.0 Z0.3 F1500.0 E15 ; Draw the first line
G1 X0.4 Y200.0 Z0.3 F5000.0 ; Move to side a little
G1 X0.4 Y20 Z0.3 F1500.0 E30 ; Draw the second line
G92 E0 ; Reset Extruder
G1 Z2.0 F3000 ; Move Z Axis up little to prevent scratching of Heat Bed
G1 X5 Y20 Z0.3 F5000.0 ; Move over to prevent blob squish
G92 E0
G92 E0
G1 F2700 E-5
;LAYER_COUNT:195
;LAYER:0
M107
G0 F6000 X91.34 Y103.147 Z0.2
;TYPE:SKIRT
G1 F2700 E0
G1 F1200 X92.044 Y102.527 E0.0312
G1 X92.798 Y101.969 E0.0624
G1 X93.597 Y101.477 E0.09361
G1 X94.434 Y101.055 E0.12479
G1 X95.305 Y100.706 E0.15599
G1 X96.202 Y100.433 E0.18718
G1 X97.119 Y100.237 E0.21837
G1 X98.05 Y100.12 E0.24958
G1 X98.592 Y100.088 E0.26764
G1 X99.075 Y100.075 E0.28371
G1 X99.404 Y100.073 E0.29465
G1 X135.341 Y100.072 E1.48992
G1 X136.196 Y100.083 E1.51836
G1 X137.132 Y100.137 E1.54954
G1 X138.061 Y100.27 E1.58075
G1 X138.974 Y100.481 E1.61192
G1 X139.867 Y100.77 E1.64314
G1 X140.731 Y101.133 E1.67431
G1 X141.561 Y101.569 E1.70549
G1 X142.352 Y102.074 E1.73671
G1 X143.096 Y102.645 E1.7679
G1 X143.789 Y103.277 E1.79909
G1 X144.426 Y103.966 E1.8303
G1 X145.002 Y104.706 E1.86149
G1 X145.512 Y105.493 E1.89268
G1 X145.954 Y106.32 E1.92387
G1 X146.323 Y107.182 E1.95506
G1 X146.427 Y107.496 E1.96606
G1 X146.432 Y107.494 E1.96624
G1 X146.52 Y107.748 E1.97518
G1 X146.789 Y108.646 E2.00636
G1 X146.98 Y109.565 E2.03758
G1 X147.093 Y110.496 E2.06877
G1 X147.124 Y111.119 E2.08952
G1 X147.148 Y112.268 E2.12774
G1 X147.15 Y112.495 E2.13529
G1 X147.15 Y116.382 E2.26457
G1 X147.14 Y117.041 E2.2865
G1 X147.086 Y117.977 E2.31768
G1 X146.952 Y118.905 E2.34886
G1 X146.739 Y119.819 E2.38008
G1 X146.568 Y120.379 E2.39955
G1 X146.528 Y120.498 E2.40373
G1 X146.373 Y120.928 E2.41893
G1 X146.296 Y121.129 E2.42609
G1 X146.16 Y121.466 E2.43818
G1 X146.109 Y121.587 E2.44255
G1 X145.873 Y122.109 E2.4616
G1 X145.719 Y122.427 E2.47335
G1 X145.382 Y123.069 E2.49747
G1 X145.245 Y123.31 E2.50669
G1 X144.809 Y124.014 E2.53423
G1 X144.511 Y124.457 E2.55199
G1 X143.728 Y125.485 E2.59497
G1 X143.539 Y125.705 E2.60461
G1 X143.178 Y126.105 E2.62253
G1 X143.105 Y126.182 E2.62606
G1 X142.664 Y126.622 E2.64678
G1 X142.372 Y126.897 E2.66012
G1 X141.924 Y127.296 E2.68008
G1 X141.796 Y127.404 E2.68565
G1 X141.052 Y127.979 E2.71692
G1 X140.878 Y128.102 E2.72401
G1 X139.827 Y128.76 E2.76525
G1 X139.505 Y128.937 E2.77747
G1 X138.77 Y129.306 E2.80483
G1 X138.52 Y129.42 E2.81397
G1 X137.435 Y129.847 E2.85275
G1 X137.261 Y129.905 E2.85885
G1 X136.36 Y130.163 E2.89002
G1 X136.107 Y130.224 E2.89867
G1 X134.795 Y130.457 E2.94299
G1 X134.536 Y130.487 E2.95167
G1 X133.502 Y130.558 E2.98614
G1 X132.27 Y130.584 E3.02712
G1 X132.038 Y130.586 E3.03484
G1 X127.389 Y130.586 E3.18947
G1 X126.538 Y130.583 E3.21777
G1 X125.828 Y130.572 E3.24139
G1 X125.196 Y130.544 E3.26243
G1 X124.046 Y130.46 E3.30078
G1 X121.488 Y130.31 E3.38601
G1 X118.956 Y130.232 E3.47026
G1 X116.438 Y130.226 E3.55401
G1 X113.936 Y130.292 E3.63726
G1 X110.939 Y130.462 E3.7371
G1 X109.825 Y130.543 E3.77425
G1 X109.194 Y130.571 E3.79526
G1 X108.257 Y130.584 E3.82642
G1 X102.431 Y130.585 E4.0202
G1 X101.759 Y130.576 E4.04255
G1 X101.062 Y130.545 E4.06575
G1 X100.789 Y130.524 E4.07486
G1 X99.899 Y130.418 E4.10467
G1 X99.661 Y130.38 E4.11269
G1 X98.35 Y130.088 E4.15736
G1 X98.107 Y130.018 E4.16577
G1 X97.218 Y129.72 E4.19696
G1 X96.687 Y129.501 E4.21606
G1 X96.239 Y129.302 E4.23237
G1 X95.066 Y128.694 E4.27631
G1 X94.722 Y128.486 E4.28968
G1 X94.539 Y128.371 E4.29687
G1 X93.98 Y127.995 E4.31928
G1 X93.842 Y127.896 E4.32492
G1 X92.914 Y127.151 E4.36451
G1 X92.578 Y126.85 E4.37951
G1 X91.696 Y125.965 E4.42107
G1 X91.392 Y125.623 E4.43629
G1 X90.694 Y124.752 E4.47341
G1 X90.456 Y124.416 E4.4871
G1 X90.263 Y124.133 E4.4985
G1 X89.919 Y123.594 E4.51976
G1 X89.862 Y123.499 E4.52345
G1 X89.602 Y123.043 E4.54091
G1 X89.449 Y122.758 E4.55167
G1 X89.237 Y122.343 E4.56717
G1 X89.025 Y121.887 E4.58389
G1 X88.904 Y121.611 E4.59392
G1 X88.759 Y121.267 E4.60633
G1 X88.565 Y120.758 E4.62445
G1 X88.488 Y120.54 E4.63214
G1 X88.214 Y119.643 E4.66333
G1 X88.017 Y118.726 E4.69453
G1 X87.898 Y117.795 E4.72575
G1 X87.865 Y117.206 E4.74537
G1 X87.856 Y116.906 E4.75535
G1 X87.851 Y116.579 E4.76623
G1 X87.851 Y112.018 E4.91793
G1 X87.861 Y111.347 E4.94025
G1 X87.915 Y110.411 E4.97143
G1 X87.995 Y109.79 E4.99226
G1 X88.03 Y109.569 E4.9997
G1 X88.216 Y108.65 E5.03088
G1 X88.367 Y108.101 E5.04982
G1 X88.43 Y107.893 E5.05705
G1 X88.74 Y107.008 E5.08824
G1 X89.124 Y106.153 E5.11941
G1 X89.58 Y105.333 E5.15062
G1 X90.104 Y104.555 E5.18182
G1 X90.692 Y103.824 E5.21302
G1 X91.34 Y103.147 E5.24419
G0 F6000 X91.691 Y103.365
G1 F1200 X92.388 Y102.764 E5.2748
G1 X93.134 Y102.225 E5.30541
G1 X93.925 Y101.753 E5.33605
G1 X94.753 Y101.352 E5.36665
G1 X95.614 Y101.023 E5.3973
G1 X96.499 Y100.771 E5.42791
G1 X97.403 Y100.597 E5.45853
G1 X98.605 Y100.488 E5.49867
G1 X99.078 Y100.475 E5.51441
G1 X99.404 Y100.473 E5.52525
G1 X135.341 Y100.472 E6.72052
G1 X136.19 Y100.483 E6.74876
G1 X137.109 Y100.536 E6.77938
G1 X138.02 Y100.669 E6.81
G1 X138.916 Y100.88 E6.84061
G1 X139.791 Y101.168 E6.87125
G1 X140.637 Y101.532 E6.90189
G1 X141.448 Y101.967 E6.93249
G1 X142.219 Y102.47 E6.96311
G1 X142.943 Y103.039 E6.99374
G1 X143.614 Y103.669 E7.02435
G1 X144.229 Y104.354 E7.05497
G1 X144.782 Y105.09 E7.08559
G1 X145.269 Y105.872 E7.11623
G1 X145.686 Y106.692 E7.14683
G1 X146.031 Y107.546 E7.17746
G1 X146.142 Y107.879 E7.18914
G1 X146.405 Y108.761 E7.21975
G1 X146.591 Y109.663 E7.25038
G1 X146.698 Y110.577 E7.28099
G1 X146.724 Y111.128 E7.29934
G1 X146.748 Y112.277 E7.33756
G1 X146.75 Y112.495 E7.34481
G1 X146.75 Y116.376 E7.47389
G1 X146.74 Y117.035 E7.49581
G1 X146.686 Y117.954 E7.52643
G1 X146.552 Y118.865 E7.55706
G1 X146.34 Y119.761 E7.58768
G1 X146.189 Y120.251 E7.60474
G1 X146.149 Y120.37 E7.60891
G1 X146 Y120.785 E7.62358
G1 X145.923 Y120.986 E7.63074
G1 X145.792 Y121.311 E7.64239
G1 X145.741 Y121.432 E7.64676
G1 X145.513 Y121.935 E7.66513
G1 X145.359 Y122.253 E7.67688
G1 X145.034 Y122.871 E7.7001
G1 X144.897 Y123.112 E7.70932
G1 X144.477 Y123.79 E7.73585
G1 X144.179 Y124.233 E7.75361
G1 X143.424 Y125.224 E7.79504
G1 X143.235 Y125.444 E7.80469
G1 X142.887 Y125.83 E7.82198
G1 X142.814 Y125.907 E7.82551
G1 X142.389 Y126.331 E7.84547
G1 X142.097 Y126.606 E7.85881
G1 X141.666 Y126.99 E7.87801
G1 X141.538 Y127.098 E7.88358
G1 X140.821 Y127.653 E7.91374
G1 X140.647 Y127.776 E7.92083
G1 X139.634 Y128.409 E7.96056
G1 X139.312 Y128.586 E7.97278
G1 X138.604 Y128.942 E7.99914
G1 X138.354 Y129.056 E8.00827
G1 X137.308 Y129.467 E8.04565
G1 X137.134 Y129.525 E8.05175
G1 X136.267 Y129.774 E8.08176
G1 X136.014 Y129.835 E8.09041
G1 X134.749 Y130.06 E8.13315
G1 X134.49 Y130.09 E8.14182
G1 X133.494 Y130.158 E8.17502
G1 X132.262 Y130.184 E8.21601
G1 X132.038 Y130.186 E8.22346
G1 X127.39 Y130.186 E8.37805
G1 X126.544 Y130.183 E8.40619
G1 X125.834 Y130.172 E8.42981
G1 X125.225 Y130.145 E8.45008
G1 X124.1 Y130.063 E8.4876
G1 X121.487 Y129.909 E8.57466
G1 X118.969 Y129.832 E8.65845
G1 X116.428 Y129.826 E8.74296
G1 X113.938 Y129.891 E8.82581
G1 X110.886 Y130.064 E8.92748
G1 X109.796 Y130.144 E8.96383
G1 X109.188 Y130.171 E8.98407
G1 X108.257 Y130.184 E9.01504
G1 X102.436 Y130.185 E9.20865
G1 X101.764 Y130.176 E9.231
G1 X101.093 Y130.146 E9.25334
G1 X100.82 Y130.125 E9.26245
G1 X99.962 Y130.023 E9.29119
G1 X99.724 Y129.985 E9.2992
G1 X98.461 Y129.704 E9.34224
G1 X98.218 Y129.634 E9.35065
G1 X97.345 Y129.341 E9.38128
G1 X96.849 Y129.135 E9.39914
G1 X96.401 Y128.936 E9.41544
G1 X95.271 Y128.351 E9.45777
G1 X94.935 Y128.147 E9.47084
G1 X94.752 Y128.032 E9.47803
G1 X94.213 Y127.67 E9.49962
G1 X94.075 Y127.571 E9.50527
G1 X93.181 Y126.853 E9.54341
G1 X92.845 Y126.552 E9.55841
G1 X91.995 Y125.699 E9.59847
G1 X91.691 Y125.357 E9.61368
G1 X91.018 Y124.518 E9.64946
G1 X90.787 Y124.19 E9.6628
G1 X90.594 Y123.907 E9.67419
G1 X90.262 Y123.389 E9.69466
G1 X90.205 Y123.294 E9.69834
G1 X89.955 Y122.854 E9.71518
G1 X89.802 Y122.569 E9.72593
G1 X89.596 Y122.166 E9.74099
G1 X89.391 Y121.726 E9.75713
G1 X89.27 Y121.45 E9.76716
G1 X89.129 Y121.115 E9.77924
G1 X88.942 Y120.624 E9.79672
G1 X88.865 Y120.406 E9.80441
G1 X88.597 Y119.526 E9.83501
G1 X88.405 Y118.625 E9.86565
G1 X88.293 Y117.711 E9.89627
G1 X88.265 Y117.194 E9.91349
G1 X88.256 Y116.894 E9.92348
G1 X88.251 Y116.578 E9.93399
G1 X88.251 Y112.024 E10.08545
G1 X88.261 Y111.353 E10.10777
G1 X88.315 Y110.434 E10.13839
G1 X88.39 Y109.853 E10.15788
G1 X88.425 Y109.632 E10.16532
G1 X88.609 Y108.73 E10.19594
G1 X88.75 Y108.217 E10.21363
G1 X88.813 Y108.009 E10.22086
G1 X89.118 Y107.141 E10.25146
G1 X89.497 Y106.302 E10.28208
G1 X89.948 Y105.499 E10.31271
G1 X90.466 Y104.738 E10.34333
G1 X91.049 Y104.025 E10.37397
G1 X91.691 Y103.365 E10.40459
G0 F6000 X92.041 Y103.586
G1 F1200 X92.731 Y103.004 E10.43461
G1 X93.47 Y102.484 E10.46467
G1 X94.252 Y102.033 E10.49469
G1 X95.071 Y101.652 E10.52473
G1 X95.92 Y101.345 E10.55476
G1 X96.793 Y101.114 E10.5848
G1 X97.683 Y100.962 E10.61483
G1 X98.618 Y100.888 E10.64602
G1 X99.082 Y100.875 E10.66146
G1 X99.404 Y100.873 E10.67217
G1 X135.341 Y100.872 E11.86744
G1 X136.184 Y100.883 E11.89548
G1 X137.086 Y100.936 E11.92553
G1 X137.979 Y101.068 E11.95556
G1 X138.857 Y101.279 E11.98559
G1 X139.713 Y101.567 E12.01563
G1 X140.541 Y101.93 E12.0457
G1 X141.332 Y102.364 E12.07571
G1 X142.083 Y102.866 E12.10575
G1 X142.786 Y103.433 E12.13579
G1 X143.436 Y104.06 E12.16583
G1 X144.028 Y104.742 E12.19587
G1 X144.558 Y105.473 E12.2259
G1 X145.02 Y106.249 E12.25594
G1 X145.413 Y107.062 E12.28597
G1 X145.674 Y107.757 E12.31066
G1 X145.764 Y108.01 E12.3196
G1 X146.022 Y108.875 E12.34962
G1 X146.202 Y109.76 E12.37966
G1 X146.303 Y110.658 E12.40971
G1 X146.324 Y111.136 E12.42563
G1 X146.348 Y112.285 E12.46385
G1 X146.35 Y112.495 E12.47083
G1 X146.35 Y116.37 E12.59972
G1 X146.34 Y117.029 E12.62164
G1 X146.286 Y117.93 E12.65166
G1 X146.153 Y118.824 E12.68172
G1 X145.809 Y120.124 E12.72645
G1 X145.769 Y120.243 E12.73062
G1 X145.626 Y120.642 E12.74472
G1 X145.549 Y120.843 E12.75188
G1 X145.423 Y121.156 E12.7631
G1 X145.372 Y121.277 E12.76747
G1 X145.153 Y121.761 E12.78514
G1 X144.999 Y122.079 E12.79689
G1 X144.686 Y122.674 E12.81925
G1 X144.549 Y122.915 E12.82847
G1 X144.145 Y123.567 E12.85398
G1 X143.847 Y124.01 E12.87174
G1 X143.121 Y124.964 E12.91161
G1 X142.932 Y125.184 E12.92126
G1 X142.597 Y125.555 E12.93789
G1 X142.524 Y125.632 E12.94141
G1 X142.115 Y126.039 E12.96061
G1 X141.823 Y126.314 E12.97395
G1 X141.408 Y126.685 E12.99246
G1 X141.28 Y126.793 E12.99803
G1 X140.59 Y127.326 E13.02703
G1 X140.416 Y127.449 E13.03412
G1 X139.441 Y128.059 E13.07237
G1 X139.119 Y128.236 E13.08459
G1 X138.438 Y128.578 E13.10994
G1 X138.188 Y128.692 E13.11908
G1 X137.182 Y129.088 E13.15503
G1 X137.008 Y129.146 E13.16114
G1 X136.173 Y129.385 E13.19002
G1 X135.92 Y129.446 E13.19868
G1 X134.703 Y129.662 E13.23979
G1 X134.444 Y129.692 E13.24846
G1 X133.485 Y129.758 E13.28043
G1 X132.253 Y129.784 E13.32142
G1 X132.038 Y129.786 E13.32857
G1 X127.391 Y129.786 E13.48313
G1 X126.55 Y129.783 E13.5111
G1 X125.84 Y129.772 E13.53472
G1 X125.254 Y129.746 E13.55423
G1 X124.083 Y129.66 E13.59328
G1 X121.522 Y129.51 E13.67861
G1 X118.982 Y129.432 E13.76313
G1 X116.454 Y129.426 E13.84721
G1 X113.904 Y129.493 E13.93205
G1 X110.836 Y129.667 E14.03426
G1 X109.767 Y129.745 E14.06991
G1 X109.182 Y129.771 E14.08938
G1 X108.257 Y129.784 E14.12015
G1 X102.441 Y129.785 E14.31359
G1 X101.769 Y129.776 E14.33595
G1 X101.124 Y129.747 E14.35742
G1 X100.851 Y129.726 E14.36653
G1 X100.025 Y129.628 E14.39419
G1 X99.787 Y129.59 E14.40221
G1 X98.572 Y129.319 E14.44361
G1 X98.329 Y129.249 E14.45202
G1 X97.473 Y128.961 E14.48206
G1 X97.011 Y128.77 E14.49869
G1 X96.563 Y128.571 E14.51499
G1 X95.476 Y128.007 E14.55573
G1 X95.148 Y127.808 E14.56849
G1 X94.965 Y127.693 E14.57567
G1 X94.446 Y127.345 E14.59646
G1 X94.308 Y127.246 E14.60211
G1 X93.448 Y126.555 E14.6388
G1 X93.112 Y126.254 E14.6538
G1 X92.294 Y125.434 E14.69233
G1 X91.99 Y125.092 E14.70755
G1 X91.343 Y124.284 E14.74197
G1 X91.117 Y123.965 E14.75498
G1 X90.924 Y123.682 E14.76637
G1 X90.605 Y123.183 E14.78607
G1 X90.548 Y123.088 E14.78975
G1 X90.307 Y122.665 E14.80595
G1 X90.154 Y122.38 E14.8167
G1 X89.954 Y121.988 E14.83134
G1 X89.757 Y121.565 E14.84686
G1 X89.636 Y121.289 E14.85688
G1 X89.499 Y120.963 E14.86865
G1 X89.319 Y120.491 E14.88545
G1 X89.242 Y120.273 E14.89314
G1 X88.98 Y119.409 E14.92317
G1 X88.794 Y118.525 E14.95321
G1 X88.665 Y117.182 E14.99809
G1 X88.656 Y116.882 E15.00807
G1 X88.651 Y116.578 E15.01818
G1 X88.651 Y112.03 E15.16945
G1 X88.661 Y111.359 E15.19177
G1 X88.715 Y110.457 E15.22182
G1 X88.786 Y109.916 E15.23997
G1 X88.821 Y109.695 E15.24741
G1 X89.001 Y108.81 E15.27745
G1 X89.133 Y108.333 E15.29391
G1 X89.196 Y108.125 E15.30114
G1 X89.496 Y107.273 E15.33118
G1 X89.87 Y106.451 E15.36122
G1 X90.315 Y105.666 E15.39123
G1 X90.828 Y104.922 E15.42129
G1 X91.405 Y104.227 E15.45133
G1 X92.041 Y103.586 E15.48137
G1 F2700 E10.48137
;MESH:Paper_Clamp.STL
G0 F6000 X98.201 Y111.353
G0 X99.27 Y111.537
G0 X99.621 Y116.739
G0 X100.002 Y117.539
G0 X100.516 Y118.175
G0 X101.08 Y118.586
G0 X101.618 Y118.775
G0 X108.697 Y118.984
;TYPE:WALL-INNER
G1 F2700 E15.48137
G1 F1200 X101.94 Y118.986 E15.70611
G1 X101.649 Y118.965 E15.71581
G1 X101.548 Y118.947 E15.71922
G1 X101.287 Y118.87 E15.72827
G1 X101 Y118.737 E15.73879
G1 X100.732 Y118.573 E15.74924
G1 X100.398 Y118.299 E15.76361
G1 X100.276 Y118.179 E15.7693
G1 X100.097 Y117.972 E15.77841
G1 X99.856 Y117.629 E15.79235
G1 X99.675 Y117.302 E15.80478
G1 X99.528 Y116.981 E15.81652
G1 X99.45 Y116.77 E15.824
G1 X99.45 Y111.673 E15.99353
G1 X135.55 Y111.672 E17.19422
G1 X135.551 Y116.769 E17.36375
G1 X135.477 Y116.97 E17.37087
G1 X135.309 Y117.333 E17.38418
G1 X135.111 Y117.679 E17.39744
G1 X134.923 Y117.947 E17.40832
G1 X134.844 Y118.044 E17.41248
G1 X134.652 Y118.255 E17.42197
G1 X134.406 Y118.477 E17.43299
G1 X134.182 Y118.64 E17.44221
G1 X133.803 Y118.837 E17.45642
G1 X133.6 Y118.907 E17.46356
G1 X133.349 Y118.964 E17.47212
G1 X133.059 Y118.986 E17.48179
G1 X127.42 Y118.986 E17.66935
G1 X126.301 Y118.983 E17.70656
G1 X125.485 Y117.88 E17.7522
G1 X124.6 Y116.62 E17.80341
G1 X124.6 Y114.199 E17.88393
G1 X124.6 Y114 E17.89055
G1 X124.401 Y114 E17.89483
G1 X110.4 Y114.001 E18.36051
G1 X110.4 Y116.62 E18.44762
G1 X109.519 Y117.874 E18.49859
G1 X109.277 Y118.196 E18.51199
G1 X108.697 Y118.984 E18.54453
G0 F6000 X108.899 Y119.384
;TYPE:WALL-OUTER
G1 F1200 X101.925 Y119.386 E18.77649
G1 X101.596 Y119.362 E18.78746
G1 X101.457 Y119.337 E18.79215
G1 X101.147 Y119.246 E18.8029
G1 X100.811 Y119.09 E18.81522
G1 X100.499 Y118.899 E18.82739
G1 X100.129 Y118.595 E18.84332
G1 X99.987 Y118.457 E18.8499
G1 X99.78 Y118.217 E18.86044
G1 X99.516 Y117.84 E18.87575
G1 X99.318 Y117.484 E18.8893
G1 X99.159 Y117.136 E18.90203
G1 X99.05 Y116.842 E18.91245
G1 X99.05 Y111.517 E19.08956
G1 X99.092 Y111.273 E19.0978
G1 X135.905 Y111.272 E20.3222
G1 X135.95 Y111.51 E20.33026
G1 X135.951 Y116.841 E20.50757
G1 X135.842 Y117.135 E20.518
G1 X135.665 Y117.516 E20.53197
G1 X135.453 Y117.888 E20.54621
G1 X135.239 Y118.193 E20.55861
G1 X135.149 Y118.303 E20.56333
G1 X134.934 Y118.539 E20.57395
G1 X134.659 Y118.788 E20.58629
G1 X134.393 Y118.982 E20.59724
G1 X134.198 Y119.085 E20.60457
G1 X133.962 Y119.205 E20.61338
G1 X133.712 Y119.292 E20.62218
G1 X133.406 Y119.361 E20.63262
G1 X133.076 Y119.386 E20.64363
G1 X127.42 Y119.386 E20.83174
G1 X126.098 Y119.383 E20.87571
G1 X125.163 Y118.118 E20.92803
G1 X124.2 Y116.746 E20.98379
G1 X124.2 Y114.4 E21.06181
G1 X110.8 Y114.401 E21.5075
G1 X110.8 Y116.746 E21.58549
