;FLAVOR:Marlin
;TIME:629
;Filament used: 0.16048m
;Layer height: 0.2
;MINX:105.307
;MINY:100.011
;MINZ:0.2
;MAXX:129.692
;MAXY:129.096
;MAXZ:11.8
;Generated with Cura_SteamEngine 4.8.0
M140 S50
M105
M190 S50
M104 S200
M105
M109 S200
M82 ;absolute extrusion mode
; Ender 3 Custom Start G-code
G92 E0 ; Reset Extruder
G28 ; Home all axes
G1 Z2.0 F3000 ; Move Z Axis up little to prevent scratching of Heat Bed
G1 X0.1 Y20 Z0.3 F5000.0 ; Move to start position
G1 X0.1 Y200.0 Z0.3 F1500.0 E15 ; Draw the first line
G1 X0.4 Y200.0 Z0.3 F5000.0 ; Move to side a little
G1 X0.4 Y20 Z0.3 F1500.0 E30 ; Draw the second line
G92 E0 ; Reset Extruder
G1 Z2.0 F3000 ; Move Z Axis up little to prevent scratching of Heat Bed
G1 X5 Y20 Z0.3 F5000.0 ; Move over to prevent blob squish
G92 E0
G92 E0
G1 F2700 E-5
;LAYER_COUNT:59
;LAYER:0
M107
G0 F6000 X108.583 Y103.715 Z0.2
;TYPE:SKIRT
G1 F2700 E0
G1 F1200 X109.25 Y103.056 E0.03119
G1 X109.972 Y102.456 E0.06241
G1 X110.741 Y101.92 E0.09359
G1 X111.534 Y101.462 E0.12404
G1 X111.826 Y101.309 E0.13501
G1 X112.674 Y100.909 E0.16619
G1 X113.554 Y100.583 E0.19741
G1 X114.458 Y100.334 E0.22859
G1 X115.63 Y100.129 E0.26817
G1 X115.907 Y100.096 E0.27744
G1 X116.393 Y100.049 E0.29368
G1 X117.173 Y100.014 E0.31965
G1 X117.475 Y100.011 E0.3297
G1 X117.963 Y100.017 E0.34593
G1 X118.05 Y100.02 E0.34883
G1 X118.697 Y100.061 E0.37039
G1 X119.092 Y100.098 E0.38358
G1 X120.021 Y100.225 E0.41477
G1 X121.347 Y100.551 E0.46019
G1 X121.571 Y100.621 E0.46799
G1 X122.453 Y100.938 E0.49916
G1 X123.306 Y101.33 E0.53039
G1 X124.121 Y101.793 E0.56156
G1 X124.895 Y102.324 E0.59278
G1 X125.62 Y102.918 E0.62396
G1 X126.292 Y103.572 E0.65514
G1 X126.691 Y104.019 E0.67507
G1 X126.762 Y104.103 E0.67873
G1 X127.336 Y104.845 E0.70993
G1 X127.845 Y105.632 E0.74111
G1 X128.286 Y106.46 E0.77231
G1 X128.654 Y107.323 E0.80351
G1 X128.947 Y108.214 E0.83471
G1 X129.163 Y109.127 E0.86591
G1 X129.336 Y110.458 E0.91055
G1 X129.4 Y111.422 E0.94269
G1 X129.455 Y112.451 E0.97696
G1 X129.588 Y114.178 E1.03457
G1 X129.617 Y114.517 E1.04589
G1 X129.654 Y115.159 E1.06728
G1 X129.677 Y115.997 E1.09516
G1 X129.692 Y117.249 E1.1368
G1 X129.692 Y117.497 E1.14505
G1 X129.685 Y118.111 E1.16548
G1 X129.635 Y119.048 E1.19668
G1 X129.504 Y119.977 E1.22789
G1 X129.295 Y120.891 E1.25907
G1 X129.009 Y121.784 E1.29026
G1 X128.648 Y122.65 E1.32147
G1 X128.215 Y123.481 E1.35263
G1 X127.712 Y124.273 E1.38384
G1 X127.144 Y125.019 E1.41502
G1 X126.514 Y125.714 E1.44622
G1 X125.827 Y126.353 E1.47743
G1 X125.089 Y126.931 E1.50861
G1 X124.303 Y127.444 E1.53982
G1 X123.477 Y127.888 E1.57102
G1 X122.616 Y128.26 E1.60221
G1 X121.727 Y128.557 E1.63339
G1 X120.439 Y128.845 E1.67728
G1 X119.9 Y128.932 E1.69544
G1 X119.17 Y129.025 E1.71992
G1 X118.988 Y129.042 E1.726
G1 X118.095 Y129.089 E1.75574
G1 X117.356 Y129.096 E1.78032
G1 X116.928 Y129.092 E1.79456
G1 X115.905 Y129.034 E1.82864
G1 X115.633 Y129.006 E1.83773
G1 X115.118 Y128.941 E1.855
G1 X114.78 Y128.89 E1.86636
G1 X113.859 Y128.711 E1.89757
G1 X112.957 Y128.453 E1.92877
G1 X112.081 Y128.12 E1.95994
G1 X111.235 Y127.714 E1.99115
G1 X110.428 Y127.237 E2.02233
G1 X109.757 Y126.765 E2.04962
G1 X109.648 Y126.682 E2.05418
G1 X108.927 Y126.082 E2.08537
G1 X108.259 Y125.423 E2.11658
G1 X107.65 Y124.71 E2.14777
G1 X107.104 Y123.948 E2.17895
G1 X106.625 Y123.141 E2.21016
G1 X106.216 Y122.297 E2.24136
G1 X105.881 Y121.421 E2.27255
G1 X105.621 Y120.52 E2.30374
G1 X105.44 Y119.6 E2.33493
G1 X105.337 Y118.668 E2.36611
G1 X105.313 Y118.083 E2.38559
G1 X105.307 Y117.524 E2.40418
G1 X105.31 Y116.975 E2.42244
G1 X105.323 Y115.956 E2.45634
G1 X105.343 Y115.19 E2.48182
G1 X105.377 Y114.568 E2.50254
G1 X105.441 Y113.794 E2.52837
G1 X105.62 Y111.176 E2.61565
G1 X105.637 Y110.86 E2.62618
G1 X105.663 Y110.471 E2.63914
G1 X105.766 Y109.539 E2.67033
G1 X105.947 Y108.619 E2.70152
G1 X106.206 Y107.718 E2.7327
G1 X106.541 Y106.842 E2.76389
G1 X106.95 Y105.997 E2.79511
G1 X107.429 Y105.191 E2.8263
G1 X107.974 Y104.428 E2.85749
G1 X108.583 Y103.715 E2.88867
G0 F6000 X108.969 Y103.889
G1 F1200 X109.633 Y103.251 E2.9193
G1 X110.349 Y102.673 E2.94991
G1 X111.113 Y102.159 E2.98053
G1 X111.719 Y101.816 E3.00369
G1 X112.011 Y101.663 E3.01466
G1 X112.845 Y101.271 E3.04531
G1 X113.709 Y100.954 E3.07592
G1 X114.597 Y100.712 E3.10653
G1 X115.677 Y100.526 E3.14298
G1 X115.954 Y100.493 E3.15226
G1 X116.425 Y100.448 E3.16799
G1 X117.177 Y100.414 E3.19303
G1 X117.479 Y100.411 E3.20308
G1 X117.949 Y100.416 E3.21871
G1 X118.036 Y100.419 E3.2216
G1 X118.66 Y100.459 E3.2424
G1 X119.055 Y100.496 E3.2556
G1 X119.967 Y100.622 E3.28622
G1 X121.228 Y100.933 E3.32942
G1 X121.452 Y101.003 E3.33722
G1 X122.318 Y101.315 E3.36784
G1 X123.153 Y101.701 E3.39843
G1 X123.952 Y102.159 E3.42906
G1 X124.708 Y102.684 E3.45968
G1 X125.416 Y103.273 E3.49031
G1 X126.07 Y103.921 E3.52093
G1 X126.386 Y104.277 E3.53676
G1 X126.457 Y104.361 E3.54042
G1 X127.02 Y105.09 E3.57106
G1 X127.518 Y105.864 E3.60167
G1 X127.946 Y106.679 E3.63229
G1 X128.303 Y107.528 E3.66292
G1 X128.585 Y108.404 E3.69353
G1 X128.789 Y109.302 E3.72416
G1 X128.937 Y110.485 E3.76381
G1 X129.001 Y111.444 E3.79578
G1 X129.058 Y112.499 E3.83092
G1 X129.181 Y114.11 E3.88465
G1 X129.219 Y114.551 E3.89938
G1 X129.254 Y115.17 E3.92
G1 X129.277 Y116.008 E3.94788
G1 X129.292 Y117.253 E3.98929
G1 X129.292 Y117.493 E3.99727
G1 X129.285 Y118.107 E4.0177
G1 X129.235 Y119.026 E4.04831
G1 X129.105 Y119.938 E4.07895
G1 X128.896 Y120.834 E4.10955
G1 X128.611 Y121.709 E4.14016
G1 X128.25 Y122.557 E4.17081
G1 X127.817 Y123.369 E4.20142
G1 X127.316 Y124.141 E4.23203
G1 X126.749 Y124.867 E4.26267
G1 X126.122 Y125.541 E4.29328
G1 X125.438 Y126.157 E4.3239
G1 X124.704 Y126.712 E4.35451
G1 X123.924 Y127.202 E4.38514
G1 X123.104 Y127.621 E4.41577
G1 X122.252 Y127.968 E4.44637
G1 X121.372 Y128.24 E4.477
G1 X120.375 Y128.451 E4.5109
G1 X119.836 Y128.538 E4.52906
G1 X119.133 Y128.627 E4.55263
G1 X118.951 Y128.644 E4.55871
G1 X118.091 Y128.689 E4.58735
G1 X117.36 Y128.696 E4.61166
G1 X116.932 Y128.692 E4.6259
G1 X115.946 Y128.636 E4.65875
G1 X115.674 Y128.608 E4.66784
G1 X115.177 Y128.545 E4.6845
G1 X114.839 Y128.494 E4.69587
G1 X113.936 Y128.318 E4.72647
G1 X113.051 Y128.063 E4.7571
G1 X112.192 Y127.733 E4.78771
G1 X111.364 Y127.329 E4.81835
G1 X110.575 Y126.855 E4.84897
G1 X109.999 Y126.446 E4.87246
G1 X109.89 Y126.363 E4.87702
G1 X109.183 Y125.774 E4.90763
G1 X108.529 Y125.126 E4.93825
G1 X107.934 Y124.424 E4.96885
G1 X107.402 Y123.672 E4.99949
G1 X106.937 Y122.877 E5.03013
G1 X106.543 Y122.045 E5.06074
G1 X106.223 Y121.182 E5.09136
G1 X105.979 Y120.294 E5.12199
G1 X105.813 Y119.389 E5.15259
G1 X105.713 Y118.078 E5.19632
G1 X105.707 Y117.526 E5.21468
G1 X105.71 Y116.98 E5.23284
G1 X105.723 Y115.966 E5.26657
G1 X105.743 Y115.2 E5.29206
G1 X105.775 Y114.601 E5.31201
G1 X105.843 Y113.782 E5.33934
G1 X106.021 Y111.173 E5.42632
G1 X106.037 Y110.887 E5.43585
G1 X106.063 Y110.498 E5.44881
G1 X106.164 Y109.583 E5.47943
G1 X106.344 Y108.68 E5.51005
G1 X106.602 Y107.796 E5.54068
G1 X106.936 Y106.938 E5.57131
G1 X107.342 Y106.112 E5.60192
G1 X107.819 Y105.325 E5.63253
G1 X108.363 Y104.582 E5.66316
G1 X108.969 Y103.889 E5.69377
G0 F6000 X109.354 Y104.066
G1 F1200 X110.014 Y103.449 E5.72382
G1 X110.726 Y102.894 E5.75385
G1 X111.484 Y102.403 E5.78389
G1 X111.905 Y102.17 E5.79989
G1 X112.197 Y102.017 E5.81086
G1 X113.015 Y101.634 E5.8409
G1 X113.863 Y101.324 E5.87093
G1 X114.736 Y101.091 E5.90098
G1 X115.724 Y100.924 E5.93431
G1 X116.001 Y100.891 E5.94359
G1 X116.458 Y100.846 E5.95886
G1 X117.181 Y100.814 E5.98293
G1 X117.483 Y100.811 E5.99297
G1 X117.936 Y100.816 E6.00804
G1 X118.023 Y100.819 E6.01094
G1 X118.622 Y100.857 E6.0309
G1 X119.017 Y100.894 E6.0441
G1 X119.912 Y101.018 E6.07415
G1 X121.108 Y101.314 E6.11513
G1 X121.332 Y101.384 E6.12293
G1 X122.182 Y101.692 E6.153
G1 X123 Y102.073 E6.18302
G1 X123.782 Y102.525 E6.21306
G1 X124.521 Y103.044 E6.24309
G1 X125.211 Y103.627 E6.27314
G1 X126.08 Y104.536 E6.31496
G1 X126.151 Y104.62 E6.31862
G1 X126.703 Y105.334 E6.34864
G1 X127.189 Y106.095 E6.37867
G1 X127.607 Y106.896 E6.40872
G1 X127.951 Y107.731 E6.43876
G1 X128.221 Y108.593 E6.4688
G1 X128.413 Y109.475 E6.49883
G1 X128.538 Y110.512 E6.53357
G1 X128.593 Y111.321 E6.56054
G1 X128.657 Y112.51 E6.60014
G1 X128.788 Y114.219 E6.65715
G1 X128.82 Y114.585 E6.66937
G1 X128.854 Y115.181 E6.68922
G1 X128.88 Y116.185 E6.72263
G1 X128.892 Y117.258 E6.75832
G1 X128.892 Y117.488 E6.76597
G1 X128.885 Y118.102 E6.78639
G1 X128.835 Y119.004 E6.81644
G1 X128.705 Y119.898 E6.84648
G1 X128.497 Y120.776 E6.87649
G1 X128.212 Y121.633 E6.90653
G1 X127.852 Y122.462 E6.93659
G1 X127.42 Y123.255 E6.96663
G1 X126.92 Y124.007 E6.99666
G1 X126.355 Y124.711 E7.02669
G1 X125.73 Y125.363 E7.05673
G1 X125.05 Y125.957 E7.08676
G1 X124.32 Y126.489 E7.1168
G1 X123.545 Y126.954 E7.14686
G1 X122.733 Y127.349 E7.1769
G1 X121.889 Y127.67 E7.20693
G1 X121.02 Y127.915 E7.23696
G1 X120.311 Y128.056 E7.261
G1 X119.772 Y128.143 E7.27916
G1 X119.096 Y128.229 E7.30183
G1 X118.914 Y128.246 E7.30791
G1 X118.086 Y128.289 E7.33548
G1 X117.364 Y128.296 E7.3595
G1 X116.936 Y128.292 E7.37373
G1 X115.987 Y128.238 E7.40535
G1 X115.715 Y128.21 E7.41444
G1 X115.237 Y128.15 E7.43047
G1 X114.899 Y128.099 E7.44183
G1 X114.013 Y127.925 E7.47187
G1 X113.146 Y127.673 E7.5019
G1 X112.304 Y127.345 E7.53195
G1 X111.495 Y126.945 E7.56197
G1 X110.724 Y126.474 E7.59202
G1 X110.242 Y126.128 E7.61175
G1 X110.133 Y126.045 E7.61631
G1 X109.439 Y125.467 E7.64635
G1 X108.799 Y124.829 E7.6764
G1 X108.219 Y124.138 E7.70641
G1 X107.701 Y123.397 E7.73648
G1 X107.251 Y122.614 E7.76652
G1 X106.872 Y121.795 E7.79653
G1 X106.568 Y120.944 E7.82659
G1 X106.339 Y120.071 E7.85661
G1 X106.189 Y119.18 E7.88666
G1 X106.113 Y118.072 E7.9236
G1 X106.107 Y117.527 E7.94173
G1 X106.11 Y116.984 E7.95979
G1 X106.122 Y115.977 E7.99328
G1 X106.142 Y115.211 E8.01877
G1 X106.174 Y114.634 E8.03799
G1 X106.24 Y113.843 E8.06439
G1 X106.419 Y111.22 E8.15183
G1 X106.436 Y110.914 E8.16203
G1 X106.462 Y110.525 E8.17499
G1 X106.562 Y109.627 E8.20505
G1 X106.741 Y108.742 E8.23508
G1 X106.997 Y107.876 E8.26511
G1 X107.33 Y107.036 E8.29517
G1 X107.735 Y106.229 E8.3252
G1 X108.21 Y105.461 E8.35523
G1 X108.751 Y104.738 E8.38527
G1 X109.354 Y104.066 E8.4153
G1 F2700 E3.4153
;MESH:Screw_Plug.STL
G0 F6000 X116.721 Y110.411
G0 X117.044 Y111.445
G0 X117.238 Y113.142
;TYPE:WALL-INNER
G1 F2700 E8.4153
G1 F1200 X117.231 Y111.612 E8.46619
G1 X117.504 Y111.601 E8.47527
G1 X117.77 Y111.611 E8.48413
G1 X117.763 Y113.142 E8.53505
G1 X117.5 Y113.237 E8.54435
G1 X117.238 Y113.142 E8.55362
G0 F6000 X116.839 Y113.367
;TYPE:WALL-OUTER
G1 F1200 X116.829 Y111.283 E8.62293
G1 X116.979 Y111.236 E8.62816
G1 X117.239 Y111.208 E8.63686
G1 X117.501 Y111.201 E8.64558
G1 X117.75 Y111.206 E8.65386
G1 X118.021 Y111.236 E8.66293
G1 X118.171 Y111.282 E8.66815
G1 X118.162 Y113.366 E8.73746
G1 X117.815 Y113.579 E8.751
G1 X117.5 Y113.645 E8.76171
G1 X117.185 Y113.579 E8.77241
G1 X116.839 Y113.367 E8.78591
G0 F6000 X117.278 Y113.151
G0 X117.335 Y113.375
;TYPE:SKIN
G1 F1200 X117.641 Y113.398 E8.78974
G1 X117.499 Y112.691 E8.79876
G1 X117.514 Y111.857 E8.80919
G0 F6000 X117.436 Y111.804
G1 F2700 E3.80919
;MESH:Tension_Knob.STL
G0 F6000 X117.5 Y113.42
G0 X116.717 Y115.814
G0 X116.705 Y117.69
G0 X116.831 Y117.879
;TYPE:WALL-OUTER
G1 F2700 E8.80919
G1 F1200 X116.505 Y117.833 E8.82014
G1 X116.504 Y117.574 E8.82875
G1 X116.526 Y115.7 E8.89109
G1 X116.831 Y115.7 E8.90123
G1 X116.831 Y117.879 E8.97371
G0 F6000 X116.705 Y117.69
G0 X118.27 Y117.689
G0 X118.17 Y117.879
G1 F1200 X118.169 Y115.7 E9.04618
G1 X118.474 Y115.7 E9.05633
G1 X118.495 Y117.571 E9.11856
G1 X118.495 Y117.833 E9.12727
G1 X118.17 Y117.879 E9.13819
G1 F2700 E4.13819
;MESH:NONMESH
G0 F300 X118.17 Y117.879 Z0.4
G0 F6000 X118.295 Y117.689
G0 X118.283 Y115.814
G0 X117.734 Y113.372
G0 X117.298 Y113.296
G0 X117.129 Y113.85
;TIME_ELAPSED:20.703261
;LAYER:1
M106 S85
;TYPE:WALL-INNER
;MESH:Screw_Plug.STL
G1 F2700 E9.13819
G1 F600 X117.072 Y113.808 E9.14055
G1 X116.821 Y113.55 E9.15252
G1 X116.611 Y113.256 E9.16453
G1 X116.607 Y112.658 E9.18442
G1 X116.609 Y111.563 E9.22084
G1 X116.704 Y111.554 E9.22402
G1 X116.982 Y111.55 E9.23326
G1 X118.034 Y111.55 E9.26825
G1 X118.074 Y111.55 E9.26959
G1 X118.392 Y111.574 E9.28019
G1 X118.392 Y111.614 E9.28152
G1 X118.39 Y113.256 E9.33614
G1 X118.179 Y113.551 E9.3482
G1 X117.889 Y113.85 E9.36205
G1 X117.129 Y113.85 E9.38733
G0 F7500 X116.996 Y114.25
;TYPE:WALL-OUTER
G1 F600 X116.808 Y114.11 E9.39513
G1 X116.513 Y113.808 E9.40917
G1 X116.212 Y113.385 E9.42644
G1 X116.207 Y112.657 E9.45065
G1 X116.21 Y111.264 E9.49698
G1 X116.427 Y111.178 E9.50474
G1 X116.687 Y111.154 E9.51343
G1 X116.976 Y111.15 E9.52304
G1 X118.083 Y111.15 E9.55986
G1 X118.344 Y111.156 E9.56854
G1 X118.778 Y111.245 E9.58328
G1 X118.792 Y111.264 E9.58406
G1 X118.792 Y112.656 E9.63036
G1 X118.789 Y113.385 E9.65461
G1 X118.487 Y113.808 E9.6719
G1 X118.349 Y113.952 E9.67853
G1 X118.123 Y114.182 E9.68925
G1 X118.013 Y114.25 E9.69356
G1 X116.996 Y114.25 E9.72738
G0 F7500 X117.134 Y113.833
G0 X117.277 Y113.46
;TYPE:SKIN
G1 F600 X117.001 Y113.13 E9.74169
G1 X116.997 Y112.658 E9.75739
G1 X116.999 Y111.94 E9.78127
G1 X118.002 Y111.94 E9.81463
G1 X118 Y113.131 E9.85424
G1 X117.724 Y113.46 E9.86853
G1 X117.277 Y113.46 E9.88339
G0 F7500 X117.499 Y113.3
G1 F600 X117.839 Y112.96 E9.89939
G0 F7500 X117.84 Y112.393
G1 F600 X117.16 Y113.073 E9.93137
G0 F7500 X117.156 Y112.511
G1 F600 X117.568 Y112.099 E9.95075
G0 F7500 X117.568 Y111.75
G1 F2700 E4.95075
;MESH:Tension_Knob.STL
G0 F7500 X117.568 Y111.66
G0 X116.791 Y111.734
G0 X116.783 Y113.2
G0 X117.067 Y114.032
G0 X116.767 Y115.814
G0 X116.681 Y117.895
G0 X116.881 Y118.084
;TYPE:WALL-OUTER
G1 F2700 E9.95075
G1 F600 X116.586 Y118.044 E9.96065
G1 X116.131 Y117.95 E9.9761
G1 X116.132 Y115.7 E10.05094
G1 X116.881 Y115.7 E10.07585
G1 X116.881 Y118.084 E10.15514
G0 F7500 X116.656 Y117.819
;TYPE:SKIN
G1 F600 X116.538 Y117.654 E10.16171
G1 X116.505 Y116.273 E10.20641
G1 X116.322 Y115.891 E10.22012
G0 F7500 X116.631 Y116.2
G1 F2700 E5.22012
G0 F7500 X116.761 Y117.859
G0 X118.22 Y117.859
G0 X118.12 Y118.084
;TYPE:WALL-OUTER
G1 F2700 E10.22012
G1 F600 X118.119 Y115.7 E10.29941
G1 X118.868 Y115.7 E10.32432
G1 X118.868 Y117.95 E10.39916
G1 X118.416 Y118.043 E10.4145
G1 X118.12 Y118.084 E10.42444
G0 F7500 X118.493 Y117.679
;TYPE:SKIN
G1 F600 X118.665 Y117.791 E10.43138
G1 X118.493 Y117.114 E10.45498
G1 X118.447 Y116.028 E10.49171
G0 F7500 X118.368 Y116.183
G1 F2700 E5.49171
;MESH:NONMESH
G0 F300 X118.368 Y116.183 Z0.6
G0 F7500 X118.233 Y115.814
G0 X117.952 Y114.031
G0 X116.747 Y113.619
G0 X116.508 Y113.85
;TIME_ELAPSED:27.219526
;LAYER:2
M106 S170
;TYPE:WALL-INNER
;MESH:Screw_Plug.STL
G1 F2700 E10.49171
G1 F600 X116.197 Y113.294 E10.5129
G1 X116.197 Y111.551 E10.57087
G1 X118.605 Y111.55 E10.65096
G1 X118.804 Y111.55 E10.65758
G1 X118.804 Y111.749 E10.66186
G1 X118.804 Y113.293 E10.71322
G1 X118.493 Y113.85 E10.73443
G1 X116.508 Y113.85 E10.80046
G0 F9000 X116.293 Y114.25
;TYPE:WALL-OUTER
G1 F600 X116.196 Y114.112 E10.80607
G1 X115.797 Y113.398 E10.83327
G1 X115.797 Y111.253 E10.90461
G1 X115.965 Y111.169 E10.91086
G1 X116.185 Y111.15 E10.9182
G1 X118.826 Y111.15 E11.00604
G1 X119.078 Y111.179 E11.01448
G1 X119.204 Y111.253 E11.01934
G1 X119.204 Y113.397 E11.09065
G1 X118.8 Y114.12 E11.1182
G1 X118.708 Y114.25 E11.1235
G1 X116.293 Y114.25 E11.20382
G0 F9000 X116.545 Y113.834
G0 X116.738 Y113.46
;TYPE:SKIN
G1 F600 X116.587 Y113.191 E11.21408
G1 X116.587 Y111.941 E11.25565
G1 X118.414 Y111.94 E11.31642
G1 X118.414 Y113.19 E11.358
G1 X118.263 Y113.46 E11.36828
G1 X116.738 Y113.46 E11.41901
G0 F9000 X117.259 Y113.299
G1 F600 X116.746 Y112.786 E11.44314
G0 F9000 X116.746 Y112.22
G1 F600 X117.825 Y113.299 E11.49389
G0 F9000 X118.248 Y113.157
G1 F600 X117.191 Y112.1 E11.54361
G0 F9000 X117.757 Y112.1
G1 F600 X118.253 Y112.596 E11.56694
G0 F9000 X118.604 Y112.596
G1 F2700 E6.56694
;MESH:Tension_Knob.STL
G0 F9000 X118.694 Y112.596
G0 X118.632 Y113.249
G0 X118.415 Y113.631
G0 X116.731 Y114.03
