;FLAVOR:Marlin
;TIME:906
;Filament used: 0.330851m
;Layer height: 0.2
;MINX:90.185
;MINY:91.838
;MINZ:0.2
;MAXX:137.978
;MAXY:142.265
;MAXZ:4
;Generated with Cura_SteamEngine 4.8.0
M140 S60
M105
M190 S60
M104 S180
M105
M109 S180
M82 ;absolute extrusion mode
; Ender 3 Custom Start G-code
G92 E0 ; Reset Extruder
G28 ; Home all axes
G1 Z2.0 F3000 ; Move Z Axis up little to prevent scratching of Heat Bed
G1 X0.1 Y20 Z0.3 F5000.0 ; Move to start position
G1 X0.1 Y200.0 Z0.3 F1500.0 E15 ; Draw the first line
G1 X0.4 Y200.0 Z0.3 F5000.0 ; Move to side a little
G1 X0.4 Y20 Z0.3 F1500.0 E30 ; Draw the second line
G92 E0 ; Reset Extruder
G1 Z2.0 F3000 ; Move Z Axis up little to prevent scratching of Heat Bed
G1 X5 Y20 Z0.3 F5000.0 ; Move over to prevent blob squish
G92 E0
G92 E0
G1 F2700 E-5
;LAYER_COUNT:20
;LAYER:0
M107
G0 F6000 X106.595 Y96.644 Z0.2
;TYPE:SKIRT
G1 F2700 E0
G1 F1200 X107.467 Y95.759 E0.04132
G1 X107.648 Y95.595 E0.04945
G1 X108.547 Y94.864 E0.08798
G1 X109.003 Y94.531 E0.10677
G1 X109.783 Y94.01 E0.13796
G1 X110.398 Y93.664 E0.16143
G1 X110.892 Y93.406 E0.17997
G1 X111.741 Y93.007 E0.21117
G1 X112.331 Y92.78 E0.2322
G1 X112.848 Y92.598 E0.25043
G1 X113.746 Y92.325 E0.28164
G1 X114.425 Y92.172 E0.30479
G1 X114.883 Y92.084 E0.3203
G1 X115.612 Y91.969 E0.34485
G1 X116.001 Y91.921 E0.35789
G1 X117.383 Y91.838 E0.40394
G1 X117.695 Y91.839 E0.41431
G1 X118.441 Y91.867 E0.43914
G1 X118.708 Y91.886 E0.44805
G1 X119.506 Y91.972 E0.47474
G1 X119.768 Y92.01 E0.48355
G1 X120.521 Y92.146 E0.509
G1 X120.793 Y92.205 E0.51825
G1 X121.675 Y92.435 E0.54857
G1 X121.963 Y92.523 E0.55859
G1 X122.73 Y92.789 E0.58559
G1 X122.985 Y92.888 E0.59469
G1 X123.653 Y93.173 E0.61884
G1 X123.891 Y93.284 E0.62758
G1 X124.548 Y93.618 E0.65209
G1 X124.755 Y93.732 E0.65995
G1 X125.774 Y94.367 E0.69988
G1 X126.272 Y94.717 E0.72013
G1 X127.286 Y95.523 E0.76321
G1 X127.497 Y95.712 E0.77263
G1 X128.102 Y96.297 E0.80062
G1 X128.261 Y96.463 E0.80827
G1 X128.979 Y97.292 E0.84474
G1 X129.35 Y97.766 E0.86476
G1 X130.013 Y98.711 E0.90316
G1 X130.12 Y98.882 E0.90987
G1 X130.724 Y99.982 E0.95161
G1 X131.002 Y100.565 E0.97309
G1 X131.487 Y101.758 E1.01592
G1 X131.571 Y102.005 E1.0246
G1 X131.796 Y102.754 E1.05061
G1 X131.864 Y103.013 E1.05952
G1 X132.031 Y103.747 E1.08455
G1 X132.334 Y105.337 E1.13839
G1 X132.346 Y105.408 E1.14079
G1 X132.852 Y107.866 E1.22425
G1 X133.438 Y110.348 E1.30907
G1 X134.083 Y112.773 E1.39253
G1 X134.8 Y115.195 E1.47655
G1 X135.588 Y117.603 E1.56082
G1 X136.444 Y119.987 E1.64506
G1 X136.928 Y121.233 E1.68952
G1 X137.051 Y121.565 E1.7013
G1 X137.166 Y121.892 E1.71283
G1 X137.349 Y122.46 E1.73268
G1 X137.431 Y122.741 E1.74241
G1 X137.568 Y123.259 E1.76023
G1 X137.75 Y124.174 E1.79126
G1 X137.819 Y124.619 E1.80624
G1 X137.909 Y125.367 E1.8313
G1 X137.946 Y125.8 E1.84575
G1 X137.978 Y127.163 E1.8911
G1 X137.967 Y127.447 E1.90055
G1 X137.914 Y128.175 E1.92483
G1 X137.885 Y128.45 E1.93403
G1 X137.761 Y129.305 E1.96276
G1 X137.709 Y129.585 E1.97223
G1 X137.53 Y130.383 E1.99943
G1 X137.459 Y130.652 E2.00869
G1 X137.254 Y131.337 E2.03247
G1 X137.178 Y131.564 E2.04043
G1 X136.742 Y132.665 E2.07982
G1 X136.498 Y133.196 E2.09925
G1 X135.883 Y134.348 E2.14269
G1 X135.736 Y134.588 E2.15205
G1 X135.377 Y135.138 E2.17389
G1 X135.25 Y135.32 E2.18127
G1 X134.681 Y136.065 E2.21245
G1 X134.493 Y136.272 E2.22175
G1 X134.498 Y136.276 E2.22197
G1 X134.104 Y136.726 E2.24186
G1 X133.235 Y137.612 E2.28314
G1 X133.078 Y137.755 E2.2902
G1 X132.592 Y138.173 E2.31152
G1 X132.118 Y138.538 E2.33142
G1 X131.629 Y138.894 E2.35154
G1 X130.528 Y139.599 E2.39502
G1 X130.294 Y139.73 E2.40394
G1 X129.632 Y140.072 E2.42872
G1 X129.421 Y140.172 E2.43649
G1 X128.346 Y140.614 E2.47515
G1 X127.815 Y140.8 E2.49386
G1 X126.918 Y141.072 E2.52504
G1 X126.263 Y141.219 E2.54736
G1 X125.807 Y141.307 E2.56281
G1 X125.036 Y141.427 E2.58876
G1 X124.645 Y141.474 E2.60186
G1 X123.483 Y141.552 E2.6406
G1 X123.265 Y141.555 E2.64785
G1 X122.889 Y141.554 E2.66035
G1 X121.788 Y141.531 E2.69698
G1 X119.17 Y141.514 E2.78406
G1 X116.683 Y141.568 E2.8668
G1 X114.183 Y141.692 E2.95005
G1 X111.665 Y141.889 E3.03405
G1 X110.001 Y142.073 E3.08974
G1 X109.137 Y142.16 E3.11862
G1 X108.761 Y142.191 E3.13117
G1 X107.929 Y142.246 E3.1589
G1 X106.868 Y142.265 E3.19419
G1 X106.409 Y142.251 E3.20947
G1 X106.012 Y142.232 E3.22269
G1 X105.862 Y142.222 E3.22769
G1 X104.717 Y142.085 E3.26604
G1 X103.874 Y141.939 E3.2945
G1 X102.662 Y141.657 E3.33588
G1 X102.064 Y141.482 E3.35661
G1 X101.098 Y141.151 E3.39057
G1 X100.697 Y140.992 E3.40492
G1 X100.346 Y140.845 E3.41758
G1 X100.195 Y140.779 E3.42306
G1 X99.129 Y140.242 E3.46276
G1 X98.367 Y139.805 E3.49197
G1 X97.34 Y139.138 E3.5327
G1 X96.862 Y138.788 E3.55241
G1 X96.05 Y138.132 E3.58713
G1 X95.661 Y137.786 E3.60444
G1 X95.363 Y137.511 E3.61793
G1 X95.292 Y137.443 E3.6212
G1 X94.484 Y136.581 E3.6605
G1 X93.922 Y135.913 E3.68953
G1 X93.192 Y134.941 E3.72996
G1 X92.856 Y134.438 E3.75008
G1 X92.336 Y133.577 E3.78354
G1 X92.115 Y133.17 E3.79894
G1 X91.903 Y132.758 E3.81435
G1 X91.832 Y132.613 E3.81972
G1 X91.38 Y131.553 E3.85805
G1 X91.097 Y130.779 E3.88546
G1 X90.971 Y130.415 E3.89827
G1 X90.908 Y130.222 E3.90502
G1 X90.676 Y129.406 E3.93324
G1 X90.65 Y129.299 E3.9369
G1 X90.569 Y128.938 E3.9492
G1 X90.493 Y128.572 E3.96164
G1 X90.381 Y127.942 E3.98292
G1 X90.327 Y127.576 E3.99523
G1 X90.275 Y127.173 E4.00874
G1 X90.253 Y126.973 E4.01543
G1 X90.187 Y125.796 E4.05464
G1 X90.185 Y124.939 E4.08314
G1 X90.25 Y123.722 E4.12368
G1 X90.316 Y123.116 E4.14395
G1 X90.479 Y122.079 E4.17887
G1 X90.582 Y121.581 E4.19578
G1 X90.677 Y121.164 E4.21001
G1 X90.704 Y121.055 E4.21374
G1 X91.032 Y119.972 E4.25138
G1 X91.322 Y119.167 E4.27984
G1 X91.798 Y118.045 E4.32038
G1 X92.079 Y117.473 E4.34157
G1 X92.598 Y116.534 E4.37726
G1 X92.801 Y116.206 E4.39009
G1 X93.071 Y115.788 E4.40664
G1 X93.823 Y114.773 E4.44865
G1 X94.451 Y114.02 E4.48126
G1 X95.202 Y113.111 E4.52048
G1 X95.568 Y112.677 E4.53936
G1 X97.139 Y110.704 E4.62325
G1 X98.647 Y108.695 E4.7068
G1 X100.107 Y106.631 E4.79088
G1 X101.516 Y104.515 E4.87544
G1 X102.83 Y102.416 E4.9578
G1 X104.193 Y100.091 E5.04744
G1 X104.545 Y99.469 E5.07121
G1 X104.693 Y99.216 E5.08096
G1 X104.861 Y98.937 E5.09179
G1 X105.063 Y98.613 E5.10449
G1 X105.354 Y98.181 E5.12182
G1 X105.486 Y97.995 E5.1294
G1 X106.199 Y97.094 E5.16762
G1 X106.595 Y96.644 E5.18755
G0 F6000 X106.895 Y96.908
G1 F1200 X107.736 Y96.056 E5.22737
G1 X107.917 Y95.892 E5.2355
G1 X108.783 Y95.187 E5.27264
G1 X109.239 Y94.854 E5.29142
G1 X110.005 Y94.343 E5.32204
G1 X110.583 Y94.018 E5.3441
G1 X111.077 Y93.76 E5.36263
G1 X111.911 Y93.37 E5.39326
G1 X112.464 Y93.157 E5.41297
G1 X112.981 Y92.975 E5.4312
G1 X113.862 Y92.708 E5.46181
G1 X114.501 Y92.564 E5.4836
G1 X114.959 Y92.476 E5.49911
G1 X115.661 Y92.366 E5.52275
G1 X116.05 Y92.318 E5.53578
G1 X117.382 Y92.238 E5.58016
G1 X117.694 Y92.239 E5.59054
G1 X118.412 Y92.266 E5.61444
G1 X118.679 Y92.285 E5.62334
G1 X119.448 Y92.368 E5.64907
G1 X119.71 Y92.406 E5.65787
G1 X120.436 Y92.537 E5.68241
G1 X120.708 Y92.596 E5.69167
G1 X121.559 Y92.818 E5.72092
G1 X121.847 Y92.906 E5.73093
G1 X122.585 Y93.162 E5.75692
G1 X122.84 Y93.261 E5.76601
G1 X123.484 Y93.535 E5.78929
G1 X123.722 Y93.646 E5.79803
G1 X124.356 Y93.968 E5.82168
G1 X124.563 Y94.082 E5.82954
G1 X125.544 Y94.695 E5.86801
G1 X126.042 Y95.045 E5.88826
G1 X127.019 Y95.821 E5.92975
G1 X127.23 Y96.01 E5.93918
G1 X127.813 Y96.574 E5.96616
G1 X127.972 Y96.74 E5.9738
G1 X128.664 Y97.539 E6.00896
G1 X129.035 Y98.013 E6.02898
G1 X129.674 Y98.923 E6.06596
G1 X129.781 Y99.094 E6.07267
G1 X130.363 Y100.155 E6.11292
G1 X130.641 Y100.738 E6.1344
G1 X131.109 Y101.887 E6.17567
G1 X131.193 Y102.134 E6.18434
G1 X131.41 Y102.855 E6.20939
G1 X131.478 Y103.114 E6.21829
G1 X131.638 Y103.822 E6.24243
G1 X131.952 Y105.472 E6.2983
G1 X132.465 Y107.967 E6.38302
G1 X133.048 Y110.438 E6.46746
G1 X133.708 Y112.918 E6.55282
G1 X134.412 Y115.297 E6.63533
G1 X135.204 Y117.715 E6.71996
G1 X136.063 Y120.107 E6.80449
G1 X136.556 Y121.378 E6.84984
G1 X136.674 Y121.697 E6.86115
G1 X136.789 Y122.024 E6.87268
G1 X136.965 Y122.572 E6.89182
G1 X137.047 Y122.853 E6.90156
G1 X137.18 Y123.354 E6.9188
G1 X137.355 Y124.235 E6.94867
G1 X137.424 Y124.68 E6.96365
G1 X137.511 Y125.402 E6.98784
G1 X137.548 Y125.835 E7.00229
G1 X137.578 Y127.147 E7.04594
G1 X137.567 Y127.431 E7.05539
G1 X137.517 Y128.133 E7.0788
G1 X137.488 Y128.408 E7.088
G1 X137.368 Y129.231 E7.11566
G1 X137.316 Y129.511 E7.12513
G1 X137.143 Y130.281 E7.15138
G1 X137.072 Y130.55 E7.16064
G1 X136.875 Y131.21 E7.18354
G1 X136.799 Y131.437 E7.19151
G1 X136.379 Y132.498 E7.22946
G1 X136.135 Y133.029 E7.2489
G1 X135.542 Y134.14 E7.29078
G1 X135.395 Y134.38 E7.30014
G1 X135.049 Y134.909 E7.32117
G1 X134.922 Y135.091 E7.32855
G1 X134.363 Y135.822 E7.35916
G1 X134.192 Y136.009 E7.36758
G1 X134.197 Y136.013 E7.3678
G1 X133.803 Y136.463 E7.38769
G1 X132.966 Y137.317 E7.42746
G1 X132.809 Y137.46 E7.43453
G1 X132.34 Y137.862 E7.45507
G1 X131.883 Y138.215 E7.47428
G1 X131.394 Y138.571 E7.49439
G1 X130.333 Y139.25 E7.53629
G1 X130.099 Y139.381 E7.54521
G1 X129.461 Y139.711 E7.5691
G1 X129.25 Y139.811 E7.57687
G1 X128.214 Y140.236 E7.61411
G1 X127.683 Y140.422 E7.63282
G1 X126.802 Y140.688 E7.66343
G1 X126.188 Y140.826 E7.68436
G1 X125.732 Y140.914 E7.69981
G1 X124.988 Y141.03 E7.72486
G1 X124.597 Y141.077 E7.73795
G1 X123.478 Y141.152 E7.77526
G1 X123.26 Y141.155 E7.78251
G1 X122.897 Y141.154 E7.79458
G1 X121.798 Y141.132 E7.83114
G1 X119.2 Y141.114 E7.91755
G1 X116.654 Y141.169 E8.00225
G1 X114.133 Y141.295 E8.08621
G1 X111.62 Y141.491 E8.17004
G1 X109.961 Y141.675 E8.22556
G1 X109.097 Y141.762 E8.25444
G1 X108.734 Y141.792 E8.26656
G1 X107.902 Y141.847 E8.29429
G1 X106.88 Y141.865 E8.32829
G1 X106.421 Y141.851 E8.34356
G1 X106.039 Y141.833 E8.35628
G1 X105.889 Y141.823 E8.36128
G1 X104.785 Y141.691 E8.39826
G1 X103.942 Y141.545 E8.42672
G1 X102.774 Y141.273 E8.4666
G1 X102.176 Y141.098 E8.48733
G1 X101.246 Y140.779 E8.52003
G1 X100.845 Y140.62 E8.53438
G1 X100.507 Y140.479 E8.54656
G1 X100.356 Y140.413 E8.55204
G1 X99.328 Y139.895 E8.59032
G1 X98.566 Y139.458 E8.61954
G1 X97.577 Y138.815 E8.65878
G1 X97.099 Y138.465 E8.67848
G1 X96.316 Y137.833 E8.71195
G1 X95.927 Y137.487 E8.72926
G1 X95.64 Y137.222 E8.74226
G1 X95.569 Y137.154 E8.74553
G1 X94.79 Y136.323 E8.78341
G1 X94.228 Y135.655 E8.81245
G1 X93.525 Y134.719 E8.85138
G1 X93.189 Y134.216 E8.8715
G1 X92.688 Y133.386 E8.90374
G1 X92.467 Y132.979 E8.91915
G1 X92.262 Y132.583 E8.93398
G1 X92.191 Y132.438 E8.93935
G1 X91.756 Y131.416 E8.97629
G1 X91.473 Y130.642 E9.0037
G1 X91.351 Y130.291 E9.01606
G1 X91.288 Y130.098 E9.02281
G1 X91.065 Y129.312 E9.04999
G1 X90.96 Y128.857 E9.06552
G1 X90.884 Y128.491 E9.07795
G1 X90.777 Y127.883 E9.09848
G1 X90.723 Y127.517 E9.11079
G1 X90.673 Y127.129 E9.1238
G1 X90.651 Y126.929 E9.13049
G1 X90.587 Y125.795 E9.16827
G1 X90.585 Y124.938 E9.19677
G1 X90.647 Y123.765 E9.23584
G1 X90.713 Y123.159 E9.25612
G1 X90.871 Y122.16 E9.28976
G1 X90.974 Y121.662 E9.30667
G1 X91.065 Y121.26 E9.32038
G1 X91.092 Y121.151 E9.32412
G1 X91.408 Y120.107 E9.36039
G1 X91.698 Y119.302 E9.38885
G1 X92.157 Y118.221 E9.42791
G1 X92.438 Y117.649 E9.44911
G1 X92.939 Y116.745 E9.48349
G1 X93.142 Y116.417 E9.49632
G1 X93.289 Y116.185 E9.50545
G1 X93.405 Y116.008 E9.51249
G1 X94.131 Y115.029 E9.55303
G1 X94.721 Y114.321 E9.58368
G1 X95.507 Y113.369 E9.62474
G1 X95.87 Y112.938 E9.64348
G1 X97.473 Y110.926 E9.72905
G1 X98.978 Y108.92 E9.81246
G1 X100.423 Y106.877 E9.89569
G1 X101.855 Y104.726 E9.98163
G1 X103.171 Y102.624 E10.06412
G1 X104.543 Y100.285 E10.15431
G1 X104.893 Y99.666 E10.17796
G1 X105.035 Y99.422 E10.18735
G1 X105.203 Y99.143 E10.19818
G1 X105.399 Y98.829 E10.21049
G1 X105.681 Y98.412 E10.22723
G1 X105.813 Y98.226 E10.23482
G1 X106.499 Y97.358 E10.27162
G1 X106.895 Y96.908 E10.29156
G0 F6000 X107.196 Y97.173
G1 F1200 X108.004 Y96.352 E10.32987
G1 X108.185 Y96.188 E10.33799
G1 X109.019 Y95.51 E10.37374
G1 X109.475 Y95.177 E10.39252
G1 X110.227 Y94.677 E10.42256
G1 X110.768 Y94.373 E10.4432
G1 X111.262 Y94.115 E10.46173
G1 X112.08 Y93.733 E10.49176
G1 X112.597 Y93.535 E10.51017
G1 X113.114 Y93.353 E10.5284
G1 X113.978 Y93.091 E10.55843
G1 X114.576 Y92.957 E10.57882
G1 X115.034 Y92.869 E10.59433
G1 X115.71 Y92.763 E10.61709
G1 X116.099 Y92.715 E10.63012
G1 X117.381 Y92.638 E10.67284
G1 X117.693 Y92.639 E10.68322
G1 X118.384 Y92.665 E10.70621
G1 X118.651 Y92.684 E10.71512
G1 X119.391 Y92.764 E10.73987
G1 X119.653 Y92.802 E10.74868
G1 X120.351 Y92.928 E10.77227
G1 X120.623 Y92.987 E10.78153
G1 X121.442 Y93.2 E10.80967
G1 X121.73 Y93.288 E10.81969
G1 X122.441 Y93.534 E10.84471
G1 X122.696 Y93.633 E10.85381
G1 X123.315 Y93.898 E10.87621
G1 X123.553 Y94.009 E10.88494
G1 X124.163 Y94.318 E10.90768
G1 X124.37 Y94.432 E10.91554
G1 X125.314 Y95.022 E10.95257
G1 X125.812 Y95.372 E10.97281
G1 X126.753 Y96.119 E11.01277
G1 X126.964 Y96.308 E11.0222
G1 X127.524 Y96.85 E11.04812
G1 X127.683 Y97.016 E11.05576
G1 X128.349 Y97.785 E11.0896
G1 X128.72 Y98.259 E11.10962
G1 X129.335 Y99.135 E11.14522
G1 X129.442 Y99.306 E11.15193
G1 X130.002 Y100.327 E11.19066
G1 X130.28 Y100.91 E11.21214
G1 X130.73 Y102.016 E11.25185
G1 X130.814 Y102.263 E11.26053
G1 X131.023 Y102.957 E11.28464
G1 X131.091 Y103.216 E11.29354
G1 X131.245 Y103.897 E11.31677
G1 X131.561 Y105.555 E11.3729
G1 X132.079 Y108.074 E11.45844
G1 X132.651 Y110.501 E11.54137
G1 X133.312 Y112.986 E11.6269
G1 X134.044 Y115.461 E11.71274
G1 X134.826 Y117.849 E11.79632
G1 X135.683 Y120.236 E11.88067
G1 X136.183 Y121.523 E11.92659
G1 X136.296 Y121.83 E11.93748
G1 X136.411 Y122.157 E11.949
G1 X136.581 Y122.684 E11.96742
G1 X136.663 Y122.965 E11.97716
G1 X136.791 Y123.448 E11.99378
G1 X136.96 Y124.296 E12.02254
G1 X137.029 Y124.741 E12.03751
G1 X137.112 Y125.436 E12.06079
G1 X137.149 Y125.869 E12.07525
G1 X137.178 Y127.132 E12.11727
G1 X137.167 Y127.416 E12.12672
G1 X137.119 Y128.091 E12.14923
G1 X137.09 Y128.366 E12.15842
G1 X136.975 Y129.158 E12.18504
G1 X136.923 Y129.438 E12.19451
G1 X136.756 Y130.179 E12.21978
G1 X136.685 Y130.448 E12.22903
G1 X136.495 Y131.083 E12.25108
G1 X136.419 Y131.31 E12.25904
G1 X136.015 Y132.331 E12.29556
G1 X135.771 Y132.862 E12.315
G1 X135.201 Y133.931 E12.35529
G1 X135.054 Y134.171 E12.36465
G1 X134.721 Y134.68 E12.38488
G1 X134.594 Y134.862 E12.39226
G1 X134.045 Y135.579 E12.4223
G1 X133.896 Y135.749 E12.42982
G1 X133.502 Y136.199 E12.44971
G1 X132.696 Y137.021 E12.488
G1 X132.539 Y137.164 E12.49506
G1 X132.087 Y137.552 E12.51488
G1 X131.647 Y137.891 E12.53335
G1 X131.158 Y138.247 E12.55347
G1 X130.138 Y138.901 E12.59377
G1 X129.904 Y139.032 E12.60269
G1 X129.289 Y139.349 E12.6257
G1 X129.078 Y139.449 E12.63347
G1 X128.082 Y139.859 E12.66929
G1 X127.551 Y140.045 E12.688
G1 X126.686 Y140.305 E12.71804
G1 X126.112 Y140.433 E12.7376
G1 X125.656 Y140.521 E12.75305
G1 X124.94 Y140.633 E12.77715
G1 X124.549 Y140.68 E12.79025
G1 X123.472 Y140.752 E12.82615
G1 X123.254 Y140.755 E12.83341
G1 X122.905 Y140.754 E12.84501
G1 X121.809 Y140.732 E12.88147
G1 X119.194 Y140.714 E12.96845
G1 X116.626 Y140.769 E13.05388
G1 X114.118 Y140.895 E13.1374
G1 X111.606 Y141.09 E13.22121
G1 X109.921 Y141.277 E13.27759
G1 X109.057 Y141.364 E13.30647
G1 X108.708 Y141.393 E13.31812
G1 X107.876 Y141.448 E13.34586
G1 X106.892 Y141.465 E13.37859
G1 X106.433 Y141.451 E13.39386
G1 X106.066 Y141.433 E13.40608
G1 X105.916 Y141.423 E13.41108
G1 X104.853 Y141.296 E13.44669
G1 X104.01 Y141.15 E13.47515
G1 X102.886 Y140.889 E13.51352
G1 X102.288 Y140.714 E13.53425
G1 X101.393 Y140.407 E13.56572
G1 X100.992 Y140.248 E13.58007
G1 X100.667 Y140.112 E13.59178
G1 X100.516 Y140.046 E13.59727
G1 X99.527 Y139.548 E13.63409
G1 X98.765 Y139.111 E13.66331
G1 X97.813 Y138.493 E13.70106
G1 X97.335 Y138.143 E13.72077
G1 X96.582 Y137.534 E13.75298
G1 X96.193 Y137.188 E13.77029
G1 X95.846 Y136.865 E13.78606
G1 X95.096 Y136.066 E13.82251
G1 X94.534 Y135.398 E13.85154
G1 X93.857 Y134.497 E13.88903
G1 X93.521 Y133.994 E13.90915
G1 X93.039 Y133.195 E13.94018
