;FLAVOR:Marlin
;TIME:5701
;Filament used: 3.60566m
;Layer height: 0.2
;MINX:68
;MINY:76
;MINZ:0.2
;MAXX:141
;MAXY:159
;MAXZ:20
;Generated with Cura_SteamEngine 4.8.0
M140 S50
M105
M190 S50
M104 S200
M105
M109 S200
M82 ;absolute extrusion mode
; Ender 3 Custom Start G-code
G92 E0 ; Reset Extruder
G28 ; Home all axes
G1 Z2.0 F3000 ; Move Z Axis up little to prevent scratching of Heat Bed
G1 X0.1 Y20 Z0.3 F5000.0 ; Move to start position
G1 X0.1 Y200.0 Z0.3 F1500.0 E15 ; Draw the first line
G1 X0.4 Y200.0 Z0.3 F5000.0 ; Move to side a little
G1 X0.4 Y20 Z0.3 F1500.0 E30 ; Draw the second line
G92 E0 ; Reset Extruder
G1 Z2.0 F3000 ; Move Z Axis up little to prevent scratching of Heat Bed
G1 X5 Y20 Z0.3 F5000.0 ; Move over to prevent blob squish
G92 E0
G92 E0
G1 F2700 E-5
;LAYER_COUNT:100
;LAYER:0
M107
G0 F6000 X71.6 Y79.449 Z0.2
;TYPE:SKIRT
G1 F2700 E0
G1 F1200 X72.295 Y78.819 E0.0312
G1 X73.211 Y78.134 E0.06924
G1 X73.474 Y77.958 E0.07977
G1 X74.275 Y77.47 E0.11096
G1 X75.115 Y77.052 E0.14217
G1 X76.431 Y76.564 E0.18885
G1 X76.691 Y76.486 E0.19788
G1 X77.6 Y76.255 E0.22908
G1 X78.949 Y76.059 E0.27442
G1 X79.034 Y76.052 E0.27725
G1 X79.648 Y76.019 E0.2977
G1 X80.219 Y76.004 E0.3167
G1 X80.508 Y76 E0.32631
G1 X102.253 Y76 E1.04956
G1 X103.237 Y76.013 E1.08229
G1 X106.108 Y76.01 E1.17778
G1 X106.664 Y76.001 E1.19627
G1 X128.293 Y76 E1.91566
G1 X129.149 Y76.011 E1.94413
G1 X129.944 Y76.051 E1.9706
G1 X130.013 Y76.057 E1.97291
G1 X130.725 Y76.143 E1.99676
G1 X130.934 Y76.175 E2.00379
G1 X131.854 Y76.356 E2.03498
G1 X132.755 Y76.615 E2.06616
G1 X133.696 Y76.978 E2.09971
G1 X133.928 Y77.08 E2.10813
G1 X134.77 Y77.494 E2.13934
G1 X135.573 Y77.978 E2.17053
G1 X136.422 Y78.6 E2.20553
G1 X136.653 Y78.787 E2.21542
G1 X137.356 Y79.408 E2.24661
G1 X138.004 Y80.086 E2.27781
G1 X138.833 Y81.158 E2.32288
G1 X138.981 Y81.376 E2.33164
G1 X139.474 Y82.174 E2.36284
G1 X139.898 Y83.011 E2.39405
G1 X140.262 Y83.921 E2.42665
G1 X140.339 Y84.141 E2.4344
G1 X140.611 Y85.039 E2.46561
G1 X140.806 Y85.956 E2.49679
G1 X140.892 Y86.577 E2.51764
G1 X140.923 Y86.86 E2.52711
G1 X140.986 Y87.872 E2.56083
G1 X141 Y88.767 E2.59061
G1 X140.999 Y146.409 E4.50779
G1 X140.989 Y147.141 E4.53213
G1 X140.962 Y147.775 E4.55324
G1 X140.958 Y147.831 E4.55511
G1 X140.856 Y148.735 E4.58537
G1 X140.822 Y148.954 E4.59274
G1 X140.639 Y149.873 E4.6239
G1 X140.378 Y150.774 E4.6551
G1 X140.042 Y151.646 E4.68618
G1 X139.94 Y151.881 E4.6947
G1 X139.531 Y152.724 E4.72587
G1 X139.051 Y153.53 E4.75707
G1 X138.4 Y154.422 E4.7938
G1 X138.213 Y154.653 E4.80368
G1 X137.592 Y155.356 E4.83488
G1 X136.914 Y156.004 E4.86608
G1 X135.817 Y156.849 E4.91213
G1 X135.577 Y157.011 E4.92176
G1 X134.778 Y157.502 E4.95295
G1 X133.94 Y157.924 E4.98416
G1 X132.743 Y158.381 E5.02678
G1 X132.544 Y158.444 E5.03372
G1 X131.639 Y158.689 E5.0649
G1 X130.418 Y158.892 E5.10607
G1 X130.134 Y158.923 E5.11557
G1 X129.119 Y158.987 E5.1494
G1 X128.381 Y158.999 E5.17395
G1 X106.7 Y159 E5.89506
G1 X105.977 Y158.991 E5.91911
G1 X103.342 Y158.991 E6.00675
G1 X103.091 Y158.996 E6.0151
G1 X102.562 Y159 E6.0327
G1 X80.601 Y158.999 E6.76312
G1 X79.923 Y158.989 E6.78567
G1 X79.017 Y158.938 E6.81586
G1 X78.771 Y158.914 E6.82408
G1 X77.842 Y158.783 E6.85528
G1 X76.805 Y158.539 E6.89071
G1 X76.568 Y158.471 E6.89891
G1 X75.679 Y158.175 E6.93008
G1 X74.818 Y157.803 E6.96127
G1 X73.801 Y157.244 E6.99987
G1 X73.569 Y157.1 E7.00895
G1 X72.794 Y156.572 E7.04014
G1 X72.133 Y156.038 E7.06841
G1 X72.038 Y155.955 E7.0726
G1 X71.358 Y155.308 E7.10382
G1 X70.737 Y154.606 E7.13499
G1 X70.122 Y153.773 E7.16943
G1 X69.946 Y153.509 E7.17999
G1 X69.46 Y152.707 E7.21118
G1 X69.044 Y151.867 E7.24235
G1 X68.7 Y150.994 E7.27356
G1 X68.547 Y150.515 E7.29029
G1 X68.471 Y150.257 E7.29923
G1 X68.245 Y149.347 E7.33042
G1 X68.097 Y148.421 E7.36161
G1 X68.025 Y147.354 E7.39718
G1 X68.002 Y146.119 E7.43826
G1 X68 Y145.914 E7.44508
G1 X68.001 Y88.509 E9.35438
G1 X68.011 Y87.837 E9.37673
G1 X68.108 Y86.533 E9.42022
G1 X68.141 Y86.288 E9.42844
G1 X68.306 Y85.364 E9.45966
G1 X68.549 Y84.458 E9.49086
G1 X68.959 Y83.361 E9.52981
G1 X69.088 Y83.065 E9.54055
G1 X69.499 Y82.222 E9.57175
G1 X69.98 Y81.417 E9.60294
G1 X70.804 Y80.32 E9.64857
G1 X70.961 Y80.136 E9.65661
G1 X71.6 Y79.449 E9.68782
G0 F6000 X71.893 Y79.722
G1 F1200 X72.576 Y79.105 E9.71843
G1 X73.434 Y78.467 E9.75399
G1 X73.697 Y78.291 E9.76452
G1 X74.483 Y77.812 E9.79513
G1 X75.309 Y77.404 E9.82578
G1 X76.546 Y76.947 E9.86964
G1 X76.806 Y76.869 E9.87867
G1 X77.699 Y76.643 E9.9093
G1 X78.982 Y76.458 E9.95242
G1 X79.067 Y76.451 E9.95525
G1 X79.659 Y76.419 E9.97497
G1 X80.23 Y76.404 E9.99397
G1 X80.508 Y76.4 E10.00322
G1 X102.253 Y76.4 E10.72646
G1 X103.232 Y76.413 E10.75902
G1 X106.114 Y76.41 E10.85488
G1 X106.844 Y76.4 E10.87916
G1 X128.445 Y76.401 E11.59761
G1 X129.143 Y76.411 E11.62083
G1 X129.909 Y76.45 E11.64634
G1 X129.978 Y76.456 E11.64865
G1 X130.664 Y76.538 E11.67162
G1 X130.873 Y76.57 E11.67866
G1 X131.776 Y76.749 E11.70928
G1 X132.661 Y77.005 E11.73992
G1 X133.535 Y77.344 E11.7711
G1 X133.767 Y77.446 E11.77953
G1 X134.593 Y77.853 E11.81015
G1 X135.381 Y78.33 E11.84079
G1 X136.171 Y78.911 E11.87341
G1 X136.402 Y79.098 E11.88329
G1 X137.091 Y79.708 E11.9139
G1 X137.725 Y80.375 E11.94451
G1 X138.502 Y81.383 E11.98684
G1 X138.65 Y81.601 E11.9956
G1 X139.133 Y82.385 E12.02623
G1 X139.547 Y83.207 E12.05684
G1 X139.885 Y84.053 E12.08714
G1 X139.962 Y84.273 E12.09489
G1 X140.228 Y85.155 E12.12553
G1 X140.417 Y86.056 E12.15615
G1 X140.494 Y86.621 E12.17512
G1 X140.525 Y86.904 E12.18459
G1 X140.586 Y87.879 E12.21708
G1 X140.6 Y88.767 E12.24662
G1 X140.599 Y146.404 E14.16363
G1 X140.589 Y147.136 E14.18798
G1 X140.563 Y147.746 E14.20829
G1 X140.559 Y147.802 E14.21015
G1 X140.461 Y148.673 E14.23931
G1 X140.427 Y148.892 E14.24668
G1 X140.246 Y149.795 E14.27731
G1 X139.988 Y150.679 E14.30794
G1 X139.676 Y151.486 E14.33672
G1 X139.574 Y151.721 E14.34524
G1 X139.171 Y152.549 E14.37586
G1 X138.697 Y153.339 E14.40651
G1 X138.089 Y154.171 E14.44078
G1 X137.902 Y154.402 E14.45067
G1 X137.292 Y155.091 E14.48127
G1 X136.625 Y155.725 E14.51188
G1 X135.593 Y156.518 E14.55517
G1 X135.353 Y156.68 E14.5648
G1 X134.569 Y157.161 E14.59539
G1 X133.745 Y157.573 E14.62603
G1 X132.622 Y158 E14.66599
G1 X132.423 Y158.063 E14.67293
G1 X131.534 Y158.302 E14.70355
G1 X130.374 Y158.494 E14.74266
G1 X130.09 Y158.525 E14.75216
G1 X129.112 Y158.587 E14.78475
G1 X128.374 Y158.599 E14.8093
G1 X106.7 Y158.6 E15.53018
G1 X105.983 Y158.591 E15.55403
G1 X103.333 Y158.591 E15.64217
G1 X103.088 Y158.596 E15.65032
G1 X102.559 Y158.6 E15.66792
G1 X80.607 Y158.599 E16.39804
G1 X79.929 Y158.589 E16.4206
G1 X79.056 Y158.54 E16.44968
G1 X78.81 Y158.516 E16.4579
G1 X77.898 Y158.387 E16.48854
G1 X76.916 Y158.155 E16.5221
G1 X76.679 Y158.087 E16.5303
G1 X75.806 Y157.795 E16.56091
G1 X74.961 Y157.428 E16.59156
G1 X74.012 Y156.904 E16.62761
G1 X73.78 Y156.76 E16.63669
G1 X73.02 Y156.241 E16.6673
G1 X72.396 Y155.737 E16.69398
G1 X72.301 Y155.654 E16.69818
G1 X71.634 Y155.018 E16.72883
G1 X71.026 Y154.328 E16.75942
G1 X70.455 Y153.551 E16.79149
G1 X70.279 Y153.287 E16.80204
G1 X69.802 Y152.499 E16.83268
G1 X69.396 Y151.673 E16.86329
G1 X68.931 Y150.402 E16.9083
G1 X68.855 Y150.144 E16.91725
G1 X68.633 Y149.251 E16.94786
G1 X68.49 Y148.341 E16.97849
G1 X68.425 Y147.346 E17.01166
G1 X68.402 Y146.111 E17.05274
G1 X68.4 Y145.914 E17.05929
G1 X68.401 Y88.515 E18.96839
G1 X68.411 Y87.843 E18.99075
G1 X68.505 Y86.586 E19.03267
G1 X68.538 Y86.341 E19.04089
G1 X68.7 Y85.435 E19.0715
G1 X68.941 Y84.546 E19.10214
G1 X69.326 Y83.521 E19.13856
G1 X69.455 Y83.225 E19.1493
G1 X69.859 Y82.398 E19.17991
G1 X70.333 Y81.609 E19.21052
G1 X71.108 Y80.58 E19.25337
G1 X71.265 Y80.396 E19.26141
G1 X71.893 Y79.722 E19.29205
G0 F6000 X72.186 Y79.995
G1 F1200 X72.858 Y79.392 E19.32208
G1 X73.656 Y78.799 E19.35515
G1 X73.919 Y78.623 E19.36568
G1 X74.691 Y78.154 E19.39572
G1 X75.502 Y77.756 E19.42577
G1 X76.661 Y77.33 E19.46684
G1 X76.921 Y77.252 E19.47587
G1 X77.797 Y77.031 E19.50591
G1 X79.015 Y76.856 E19.54684
G1 X79.1 Y76.849 E19.54968
G1 X79.669 Y76.819 E19.56863
G1 X80.24 Y76.804 E19.58763
G1 X80.508 Y76.8 E19.59654
G1 X102.253 Y76.8 E20.31978
G1 X103.226 Y76.813 E20.35215
G1 X106.122 Y76.81 E20.44847
G1 X106.844 Y76.8 E20.47249
G1 X128.439 Y76.801 E21.19074
G1 X129.137 Y76.811 E21.21396
G1 X129.875 Y76.848 E21.23853
G1 X129.944 Y76.854 E21.24084
G1 X130.604 Y76.933 E21.26295
G1 X130.813 Y76.965 E21.26998
G1 X131.699 Y77.142 E21.30003
G1 X132.565 Y77.395 E21.33004
G1 X133.374 Y77.711 E21.35892
G1 X133.606 Y77.813 E21.36735
G1 X134.416 Y78.212 E21.39738
G1 X135.187 Y78.682 E21.42742
G1 X135.919 Y79.222 E21.45767
G1 X136.15 Y79.409 E21.46756
G1 X136.826 Y80.008 E21.4976
G1 X137.446 Y80.664 E21.52762
G1 X138.171 Y81.608 E21.56721
G1 X138.319 Y81.826 E21.57597
G1 X138.793 Y82.595 E21.60602
G1 X139.196 Y83.402 E21.63602
G1 X139.507 Y84.185 E21.66404
G1 X139.584 Y84.405 E21.67179
G1 X139.845 Y85.27 E21.70184
G1 X140.027 Y86.155 E21.7319
G1 X140.096 Y86.664 E21.74898
G1 X140.127 Y86.947 E21.75845
G1 X140.187 Y87.885 E21.78971
G1 X140.199 Y88.594 E21.8133
G1 X140.2 Y146.259 E23.73124
G1 X140.189 Y147.13 E23.76021
G1 X140.164 Y147.718 E23.77979
G1 X140.16 Y147.774 E23.78165
G1 X140.065 Y148.612 E23.80971
G1 X140.031 Y148.831 E23.81708
G1 X139.853 Y149.716 E23.8471
G1 X139.598 Y150.582 E23.87713
G1 X139.309 Y151.327 E23.90371
G1 X139.207 Y151.562 E23.91223
G1 X138.811 Y152.374 E23.94227
G1 X138.345 Y153.147 E23.97229
G1 X137.778 Y153.919 E24.00415
G1 X137.591 Y154.15 E24.01404
G1 X136.992 Y154.826 E24.04408
G1 X136.336 Y155.446 E24.0741
G1 X135.37 Y156.186 E24.11457
G1 X135.13 Y156.348 E24.1242
G1 X134.359 Y156.82 E24.15427
G1 X133.551 Y157.222 E24.18429
G1 X132.502 Y157.618 E24.22158
G1 X132.303 Y157.681 E24.22852
G1 X131.43 Y157.916 E24.25859
G1 X130.331 Y158.097 E24.29564
G1 X130.047 Y158.128 E24.30514
G1 X129.106 Y158.187 E24.3365
G1 X128.202 Y158.2 E24.36657
G1 X106.556 Y158.199 E25.08652
G1 X105.988 Y158.191 E25.10541
G1 X103.325 Y158.191 E25.19398
G1 X103.085 Y158.196 E25.20197
G1 X102.556 Y158.2 E25.21956
G1 X80.613 Y158.199 E25.94939
G1 X79.935 Y158.189 E25.97194
G1 X79.095 Y158.142 E25.99992
G1 X78.849 Y158.118 E26.00815
G1 X77.955 Y157.99 E26.03818
G1 X77.026 Y157.77 E26.06994
G1 X76.789 Y157.702 E26.07814
G1 X75.933 Y157.415 E26.10817
G1 X75.105 Y157.053 E26.13822
G1 X74.223 Y156.564 E26.17176
G1 X73.991 Y156.42 E26.18085
G1 X73.245 Y155.911 E26.21088
G1 X72.659 Y155.435 E26.23599
G1 X72.564 Y155.352 E26.24019
G1 X71.911 Y154.729 E26.27021
G1 X71.315 Y154.05 E26.30026
G1 X70.788 Y153.329 E26.32996
G1 X70.612 Y153.065 E26.34051
G1 X70.145 Y152.292 E26.37055
G1 X69.748 Y151.481 E26.40058
G1 X69.315 Y150.289 E26.44276
G1 X69.239 Y150.031 E26.45171
G1 X69.022 Y149.154 E26.48176
G1 X68.884 Y148.262 E26.51178
G1 X68.825 Y147.339 E26.54254
G1 X68.8 Y145.914 E26.58995
G1 X68.801 Y88.521 E28.49884
G1 X68.811 Y87.849 E28.5212
G1 X68.901 Y86.639 E28.56155
G1 X68.934 Y86.394 E28.56978
G1 X69.094 Y85.506 E28.59979
G1 X69.332 Y84.634 E28.62985
G1 X69.692 Y83.681 E28.66373
G1 X69.821 Y83.385 E28.67447
G1 X70.219 Y82.574 E28.70452
G1 X70.686 Y81.801 E28.73456
G1 X71.413 Y80.839 E28.77466
G1 X71.57 Y80.655 E28.78271
G1 X72.186 Y79.995 E28.81273
G1 F2700 E23.81273
;MESH:lm2596sCase.stl
G0 F6000 X98.861 Y101.709
G0 X97.665 Y100.861
G0 X97.612 Y102.399
G0 X97.718 Y102.854
G0 X97.931 Y103.273
G0 X98.239 Y103.625
G0 X98.621 Y103.896
G0 X98.868 Y103.991
G0 X100.023 Y104.234
;TYPE:WALL-INNER
G1 F2700 E28.81273
G1 F1200 X100.5 Y104.059 E28.82963
G1 X100.92 Y103.776 E28.84648
G1 X101.261 Y103.4 E28.86336
G1 X101.501 Y102.954 E28.88021
G1 X101.629 Y102.463 E28.89708
G1 X101.633 Y101.955 E28.91398
G1 X101.517 Y101.46 E28.93089
G1 X101.286 Y101.008 E28.94777
G1 X100.953 Y100.626 E28.96463
G1 X100.541 Y100.333 E28.98144
G1 X100.066 Y100.148 E28.9984
G1 X99.564 Y100.082 E29.01524
G1 X99.06 Y100.138 E29.0321
G1 X98.583 Y100.312 E29.04899
G1 X98.163 Y100.597 E29.06587
G1 X97.822 Y100.972 E29.08273
G1 X97.582 Y101.419 E29.09961
G1 X97.455 Y101.911 E29.11651
G1 X97.451 Y102.417 E29.13334
G1 X97.566 Y102.91 E29.15017
G1 X97.797 Y103.364 E29.16712
G1 X98.13 Y103.746 E29.18397
G1 X98.544 Y104.039 E29.20084
G1 X99.017 Y104.223 E29.21772
G1 X99.518 Y104.29 E29.23453
G1 X100.023 Y104.234 E29.25143
G0 F6000 X99.931 Y103.842
;TYPE:WALL-OUTER
G1 F1200 X100.316 Y103.7 E29.26508
G1 X100.656 Y103.471 E29.27871
G1 X100.932 Y103.167 E29.29237
G1 X101.126 Y102.807 E29.30597
G1 X101.229 Y102.41 E29.31961
G1 X101.233 Y101.999 E29.33329
G1 X101.139 Y101.599 E29.34695
G1 X100.952 Y101.234 E29.36059
G1 X100.683 Y100.925 E29.37422
G1 X100.349 Y100.688 E29.38784
G1 X99.966 Y100.538 E29.40152
G1 X99.56 Y100.485 E29.41514
G1 X99.152 Y100.53 E29.42879
G1 X98.767 Y100.671 E29.44243
G1 X98.427 Y100.901 E29.45608
G1 X98.151 Y101.205 E29.46974
G1 X97.957 Y101.566 E29.48337
G1 X97.855 Y101.963 E29.497
G1 X97.851 Y102.373 E29.51064
G1 X97.944 Y102.772 E29.52427
G1 X98.131 Y103.138 E29.53794
G1 X98.4 Y103.447 E29.55156
G1 X98.735 Y103.684 E29.56521
G1 X99.117 Y103.833 E29.57885
G1 X99.523 Y103.887 E29.59247
G1 X99.931 Y103.842 E29.60612
G0 F6000 X100.031 Y104.27
G1 F2700 E24.60612
G0 F6000 X98.001 Y103.889
G0 X98.985 Y102.804
G0 X84.01 Y102.757
G0 X85.216 Y103.588
G0 X83.829 Y104.327
;TYPE:WALL-INNER
G1 F2700 E29.60612
G1 F1200 X84.304 Y104.147 E29.62302
G1 X84.721 Y103.86 E29.63985
G1 X85.058 Y103.479 E29.65677
G1 X85.293 Y103.031 E29.6736
G1 X85.415 Y102.538 E29.69049
G1 X85.415 Y102.03 E29.70739
G1 X85.293 Y101.537 E29.72428
G1 X85.058 Y101.089 E29.7411
G1 X84.721 Y100.708 E29.75802
G1 X84.305 Y100.421 E29.77483
G1 X83.829 Y100.24 E29.79177
G1 X83.326 Y100.18 E29.80862
G1 X82.823 Y100.24 E29.82547
G1 X82.348 Y100.421 E29.84237
G1 X81.93 Y100.708 E29.85924
G1 X81.593 Y101.09 E29.87618
G1 X81.358 Y101.538 E29.89301
G1 X81.237 Y102.03 E29.90986
G1 X81.237 Y102.538 E29.92675
G1 X81.358 Y103.03 E29.94361
G1 X81.593 Y103.478 E29.96043
G1 X81.93 Y103.86 E29.97738
G1 X82.349 Y104.147 E29.99427
G1 X82.822 Y104.327 E30.0111
G1 X83.326 Y104.388 E30.02798
G1 X83.829 Y104.327 E30.04484
G0 F6000 X83.733 Y103.936
;TYPE:WALL-OUTER
G1 F1200 X84.117 Y103.79 E30.0585
G1 X84.454 Y103.558 E30.07211
G1 X84.726 Y103.25 E30.08578
G1 X84.916 Y102.888 E30.09937
G1 X85.015 Y102.489 E30.11305
G1 X85.015 Y102.079 E30.12668
G1 X84.916 Y101.68 E30.14036
G1 X84.726 Y101.318 E30.15395
G1 X84.454 Y101.01 E30.16762
G1 X84.117 Y100.778 E30.18123
G1 X83.733 Y100.631 E30.19491
G1 X83.326 Y100.583 E30.20854
G1 X82.919 Y100.631 E30.22217
G1 X82.535 Y100.778 E30.23584
G1 X82.197 Y101.01 E30.24948
G1 X81.925 Y101.318 E30.26314
G1 X81.735 Y101.681 E30.27677
G1 X81.637 Y102.079 E30.29041
G1 X81.637 Y102.489 E30.30404
G1 X81.735 Y102.887 E30.31767
G1 X81.925 Y103.25 E30.3313
G1 X82.197 Y103.558 E30.34497
G1 X82.536 Y103.79 E30.35863
G1 X82.919 Y103.936 E30.37226
G1 X83.326 Y103.985 E30.3859
G1 X83.733 Y103.936 E30.39953
G0 F6000 X83.838 Y104.363
G1 F2700 E25.39953
G0 F6000 X83.326 Y104.58
G0 X83.326 Y103.115
G0 X83.516 Y131.95
G0 X83.535 Y130.485
G0 X84.812 Y131.343
G0 X85.12 Y131.695
G0 X85.333 Y132.113
G0 X85.44 Y132.569
G0 X85.436 Y133.036
G0 X85.319 Y133.491
G0 X85.096 Y133.902
G0 X84.919 Y134.098
G0 X83.991 Y134.83
;TYPE:WALL-INNER
G1 F2700 E30.39953
G1 F1200 X84.468 Y134.655 E30.41643
G1 X84.888 Y134.372 E30.43328
G1 X85.229 Y133.996 E30.45016
G1 X85.469 Y133.55 E30.46701
G1 X85.597 Y133.058 E30.48391
G1 X85.601 Y132.551 E30.50078
G1 X85.485 Y132.056 E30.51769
G1 X85.254 Y131.604 E30.53457
G1 X84.921 Y131.222 E30.55143
G1 X84.509 Y130.929 E30.56824
G1 X84.034 Y130.744 E30.5852
G1 X83.533 Y130.678 E30.602
G1 X83.028 Y130.733 E30.6189
G1 X82.551 Y130.908 E30.6358
G1 X82.131 Y131.191 E30.65264
G1 X81.79 Y131.568 E30.66955
G1 X81.55 Y132.016 E30.68645
G1 X81.423 Y132.507 E30.70332
G1 X81.419 Y133.012 E30.72012
G1 X81.534 Y133.505 E30.73696
G1 X81.765 Y133.958 E30.75387
G1 X82.098 Y134.342 E30.77077
G1 X82.512 Y134.634 E30.78762
G1 X82.984 Y134.819 E30.80449
G1 X83.486 Y134.886 E30.82133
G1 X83.991 Y134.83 E30.83823
G0 F6000 X83.899 Y134.438
