;FLAVOR:Marlin
;TIME:2281
;Filament used: 1.08786m
;Layer height: 0.2
;MINX:90.16
;MINY:98.272
;MINZ:0.2
;MAXX:144.84
;MAXY:136.728
;MAXZ:20.2
;Generated with Cura_SteamEngine 4.13.1
M140 S60
M105
M190 S60
M104 S200
M105
M109 S200
M82 ;absolute extrusion mode
; Ender 3 Custom Start G-code
G92 E0 ; Reset Extruder
G28 ; Home all axes
G1 Z2.0 F3000 ; Move Z Axis up little to prevent scratching of Heat Bed
G1 X0.1 Y20 Z0.3 F5000.0 ; Move to start position
G1 X0.1 Y200.0 Z0.3 F1500.0 E15 ; Draw the first line
G1 X0.4 Y200.0 Z0.3 F5000.0 ; Move to side a little
G1 X0.4 Y20 Z0.3 F1500.0 E30 ; Draw the second line
G92 E0 ; Reset Extruder
G1 Z2.0 F3000 ; Move Z Axis up little to prevent scratching of Heat Bed
G1 X5 Y20 Z0.3 F5000.0 ; Move over to prevent blob squish
G92 E0
G92 E0
G1 F2700 E-5
;LAYER_COUNT:101
;LAYER:0
M107
G0 F6000 X95.282 Y102.556 Z0.2
;TYPE:SKIRT
G1 F2700 E0
G1 F1200 X95.646 Y102.232 E0.01621
G1 X95.892 Y102.022 E0.02697
G1 X96.758 Y101.354 E0.06334
G1 X97.387 Y100.917 E0.08882
G1 X98.531 Y100.222 E0.13334
G1 X98.713 Y100.126 E0.14018
G1 X99.138 Y99.913 E0.15599
G1 X99.552 Y99.717 E0.17123
G1 X100.397 Y99.359 E0.20175
G1 X100.573 Y99.293 E0.208
G1 X101.087 Y99.115 E0.22609
G1 X101.544 Y98.969 E0.24205
G1 X102.481 Y98.714 E0.27435
G1 X102.668 Y98.672 E0.28072
G1 X103.079 Y98.588 E0.29468
G1 X103.517 Y98.507 E0.30949
G1 X104.428 Y98.378 E0.34009
G1 X104.609 Y98.36 E0.34614
G1 X105.115 Y98.321 E0.36302
G1 X105.341 Y98.309 E0.37055
G1 X105.721 Y98.296 E0.3832
G1 X106.915 Y98.274 E0.42292
G1 X107.119 Y98.272 E0.4297
G1 X117.342 Y98.273 E0.76972
G1 X119.557 Y98.275 E0.84339
G1 X119.642 Y98.279 E0.84622
G1 X120.569 Y98.272 E0.87705
G1 X133.133 Y98.272 E1.29493
G1 X133.989 Y98.283 E1.32341
G1 X134.925 Y98.337 E1.35459
G1 X135.853 Y98.469 E1.38577
G1 X136.767 Y98.681 E1.41697
G1 X137.659 Y98.97 E1.44816
G1 X138.524 Y99.333 E1.47936
G1 X139.354 Y99.769 E1.51054
G1 X140.145 Y100.274 E1.54176
G1 X140.889 Y100.845 E1.57295
G1 X141.582 Y101.477 E1.60415
G1 X142.219 Y102.165 E1.63533
G1 X142.794 Y102.906 E1.66653
G1 X143.305 Y103.692 E1.69771
G1 X143.747 Y104.52 E1.72892
G1 X144.116 Y105.382 E1.76011
G1 X144.411 Y106.272 E1.7913
G1 X144.629 Y107.184 E1.82248
G1 X144.769 Y108.112 E1.8537
G1 X144.827 Y108.968 E1.88224
G1 X144.836 Y109.283 E1.89272
G1 X144.84 Y109.597 E1.90316
G1 X144.839 Y110.834 E1.9443
G1 X144.828 Y111.575 E1.96895
G1 X144.74 Y112.805 E2.00997
G1 X144.562 Y114.196 E2.05661
G1 X144.516 Y114.521 E2.06753
G1 X144.232 Y117.038 E2.15177
G1 X144.021 Y119.533 E2.23505
G1 X143.882 Y122.035 E2.3184
G1 X143.811 Y124.57 E2.40275
G1 X143.791 Y125.885 E2.44649
G1 X143.737 Y126.821 E2.47767
G1 X143.603 Y127.749 E2.50886
G1 X143.391 Y128.663 E2.54006
G1 X143.102 Y129.555 E2.57125
G1 X142.737 Y130.419 E2.60245
G1 X142.301 Y131.249 E2.63363
G1 X141.795 Y132.039 E2.66483
G1 X141.224 Y132.783 E2.69603
G1 X140.592 Y133.476 E2.72722
G1 X139.903 Y134.112 E2.75841
G1 X139.162 Y134.687 E2.7896
G1 X138.375 Y135.197 E2.82079
G1 X137.547 Y135.638 E2.852
G1 X136.685 Y136.007 E2.88318
G1 X135.794 Y136.301 E2.91439
G1 X134.882 Y136.519 E2.94558
G1 X133.954 Y136.657 E2.97678
G1 X133.104 Y136.715 E3.00512
G1 X132.787 Y136.724 E3.01567
G1 X132.473 Y136.728 E3.02611
G1 X127.641 Y136.726 E3.18682
G1 X126.95 Y136.716 E3.20981
G1 X126.423 Y136.696 E3.22735
G1 X125.958 Y136.659 E3.24286
G1 X125.795 Y136.643 E3.24831
G1 X123.269 Y136.428 E3.33263
G1 X120.773 Y136.287 E3.41578
G1 X116.834 Y136.203 E3.54682
G1 X106.693 Y136.201 E3.88411
G1 X106.211 Y136.194 E3.90015
G1 X105.858 Y136.183 E3.91189
G1 X105.13 Y136.149 E3.93613
G1 X104.209 Y136.067 E3.96689
G1 X103.882 Y136.024 E3.97786
G1 X103.03 Y135.878 E4.00661
G1 X102.564 Y135.779 E4.02245
G1 X101.615 Y135.533 E4.05506
G1 X101.42 Y135.473 E4.06184
G1 X100.977 Y135.326 E4.07737
G1 X100.588 Y135.188 E4.0911
G1 X99.714 Y134.835 E4.12245
G1 X99.527 Y134.75 E4.12928
G1 X99.058 Y134.523 E4.14661
G1 X98.637 Y134.307 E4.16235
G1 X97.823 Y133.845 E4.19348
G1 X97.652 Y133.738 E4.20019
G1 X97.232 Y133.461 E4.21692
G1 X96.853 Y133.199 E4.23225
G1 X96.118 Y132.644 E4.26288
G1 X95.988 Y132.537 E4.26848
G1 X95.603 Y132.205 E4.28539
G1 X95.25 Y131.886 E4.30121
G1 X94.595 Y131.243 E4.33174
G1 X94.463 Y131.102 E4.33816
G1 X94.132 Y130.732 E4.35468
G1 X93.914 Y130.477 E4.36583
G1 X93.238 Y129.6 E4.40266
G1 X92.805 Y128.976 E4.42792
G1 X92.142 Y127.892 E4.47019
G1 X92.042 Y127.705 E4.47724
G1 X91.802 Y127.229 E4.49497
G1 X91.602 Y126.807 E4.5105
G1 X91.212 Y125.875 E4.54411
G1 X91.152 Y125.711 E4.54991
G1 X91.01 Y125.299 E4.56441
G1 X90.865 Y124.848 E4.58017
G1 X90.623 Y123.974 E4.61033
G1 X90.576 Y123.772 E4.61723
G1 X90.47 Y123.262 E4.63455
G1 X90.391 Y122.831 E4.64913
G1 X90.262 Y121.906 E4.68019
G1 X90.245 Y121.73 E4.68607
G1 X90.209 Y121.24 E4.70241
G1 X90.195 Y120.969 E4.71144
G1 X90.182 Y120.598 E4.72378
G1 X90.16 Y119.28 E4.76763
G1 X90.162 Y114.805 E4.91647
G1 X90.169 Y114.296 E4.9334
G1 X90.18 Y113.934 E4.94544
G1 X90.211 Y113.27 E4.96755
G1 X90.281 Y112.439 E4.99529
G1 X90.322 Y112.106 E5.00645
G1 X90.478 Y111.175 E5.03785
G1 X90.578 Y110.702 E5.05392
G1 X90.838 Y109.704 E5.08823
G1 X90.91 Y109.473 E5.09627
G1 X91.048 Y109.06 E5.11076
G1 X91.181 Y108.686 E5.12396
G1 X91.552 Y107.775 E5.15668
G1 X91.644 Y107.575 E5.164
G1 X91.819 Y107.211 E5.17743
G1 X92.011 Y106.831 E5.19159
G1 X92.479 Y105.997 E5.2234
G1 X92.598 Y105.805 E5.23091
G1 X92.907 Y105.335 E5.24962
G1 X93.153 Y104.98 E5.26399
G1 X93.691 Y104.266 E5.29372
G1 X93.833 Y104.093 E5.30116
G1 X94.177 Y103.695 E5.31866
G1 X94.479 Y103.361 E5.33364
G1 X95.132 Y102.696 E5.36464
G1 X95.282 Y102.556 E5.37146
G0 F6000 X95.555 Y102.849
G1 F1200 X95.906 Y102.536 E5.3871
G1 X96.152 Y102.326 E5.39786
G1 X96.986 Y101.683 E5.43289
G1 X97.615 Y101.246 E5.45836
G1 X98.718 Y100.575 E5.5013
G1 X98.9 Y100.479 E5.50815
G1 X99.309 Y100.274 E5.52336
G1 X99.723 Y100.078 E5.5386
G1 X100.537 Y99.734 E5.56799
G1 X100.713 Y99.668 E5.57424
G1 X101.209 Y99.496 E5.5917
G1 X101.666 Y99.35 E5.60766
G1 X102.569 Y99.105 E5.63878
G1 X102.756 Y99.063 E5.64515
G1 X103.151 Y98.982 E5.65856
G1 X103.589 Y98.901 E5.67338
G1 X104.468 Y98.776 E5.70291
G1 X104.649 Y98.758 E5.70896
G1 X105.136 Y98.721 E5.7252
G1 X105.362 Y98.709 E5.73273
G1 X105.729 Y98.696 E5.74494
G1 X107.119 Y98.672 E5.79118
G1 X117.342 Y98.673 E6.1312
G1 X119.557 Y98.675 E6.20487
G1 X119.641 Y98.679 E6.20767
G1 X120.572 Y98.672 E6.23864
G1 X133.133 Y98.672 E6.65642
G1 X133.983 Y98.683 E6.68469
G1 X134.902 Y98.736 E6.71531
G1 X135.813 Y98.869 E6.74593
G1 X136.709 Y99.08 E6.77654
G1 X137.583 Y99.368 E6.80715
G1 X138.43 Y99.731 E6.8378
G1 X139.241 Y100.166 E6.86841
G1 X140.011 Y100.67 E6.89902
G1 X140.735 Y101.239 E6.92965
G1 X141.407 Y101.869 E6.96028
G1 X142.022 Y102.554 E6.9909
G1 X142.575 Y103.29 E7.02152
G1 X143.062 Y104.071 E7.05213
G1 X143.479 Y104.892 E7.08276
G1 X143.824 Y105.746 E7.11339
G1 X144.093 Y106.626 E7.144
G1 X144.285 Y107.527 E7.17464
G1 X144.398 Y108.44 E7.20524
G1 X144.427 Y108.979 E7.22319
G1 X144.436 Y109.294 E7.23367
G1 X144.44 Y109.597 E7.24375
G1 X144.439 Y110.828 E7.28469
G1 X144.428 Y111.569 E7.30934
G1 X144.344 Y112.754 E7.34885
G1 X144.166 Y114.14 E7.39533
G1 X144.116 Y114.491 E7.40712
G1 X143.834 Y116.996 E7.49097
G1 X143.624 Y119.476 E7.57375
G1 X143.482 Y122.039 E7.65912
G1 X143.411 Y124.552 E7.74274
G1 X143.391 Y125.879 E7.78688
G1 X143.337 Y126.798 E7.8175
G1 X143.204 Y127.709 E7.84812
G1 X142.992 Y128.605 E7.87874
G1 X142.703 Y129.479 E7.90936
G1 X142.339 Y130.324 E7.93996
G1 X141.904 Y131.136 E7.9706
G1 X141.399 Y131.906 E8.00123
G1 X140.83 Y132.629 E8.03183
G1 X140.2 Y133.301 E8.06247
G1 X139.514 Y133.915 E8.09309
G1 X138.778 Y134.467 E8.12369
G1 X137.996 Y134.954 E8.15433
G1 X137.175 Y135.37 E8.18494
G1 X136.321 Y135.714 E8.21556
G1 X135.44 Y135.983 E8.2462
G1 X134.54 Y136.174 E8.2768
G1 X133.626 Y136.286 E8.30743
G1 X133.093 Y136.315 E8.32518
G1 X132.776 Y136.324 E8.33573
G1 X132.473 Y136.328 E8.34581
G1 X127.647 Y136.326 E8.50632
G1 X126.956 Y136.316 E8.52931
G1 X126.446 Y136.296 E8.54628
G1 X125.997 Y136.261 E8.56126
G1 X125.868 Y136.248 E8.56557
G1 X123.255 Y136.025 E8.6528
G1 X120.803 Y135.887 E8.73448
G1 X116.842 Y135.803 E8.86625
G1 X106.699 Y135.801 E9.20361
G1 X106.217 Y135.794 E9.21964
G1 X105.876 Y135.783 E9.23099
G1 X105.148 Y135.749 E9.25523
G1 X104.261 Y135.671 E9.28485
G1 X103.934 Y135.628 E9.29582
G1 X103.113 Y135.487 E9.32352
G1 X102.647 Y135.388 E9.33937
G1 X101.733 Y135.15 E9.37078
G1 X101.538 Y135.09 E9.37757
G1 X101.111 Y134.949 E9.39252
G1 X100.722 Y134.811 E9.40625
G1 X99.88 Y134.471 E9.43645
G1 X99.693 Y134.386 E9.44329
G1 X99.24 Y134.167 E9.46002
G1 X98.819 Y133.951 E9.47576
G1 X98.035 Y133.506 E9.50574
G1 X97.864 Y133.399 E9.51245
G1 X97.459 Y133.132 E9.52859
G1 X97.08 Y132.87 E9.54391
G1 X96.372 Y132.335 E9.57343
G1 X96.242 Y132.228 E9.57903
G1 X95.871 Y131.909 E9.5953
G1 X95.518 Y131.59 E9.61112
G1 X94.887 Y130.969 E9.64057
G1 X94.755 Y130.828 E9.647
G1 X94.436 Y130.472 E9.66289
G1 X94.218 Y130.217 E9.67405
G1 X93.566 Y129.372 E9.70955
G1 X93.133 Y128.748 E9.73481
G1 X92.495 Y127.704 E9.77551
G1 X92.395 Y127.517 E9.78256
G1 X92.163 Y127.058 E9.79967
G1 X91.963 Y126.636 E9.8152
G1 X91.587 Y125.738 E9.84758
G1 X91.527 Y125.574 E9.85339
G1 X91.391 Y125.176 E9.86737
G1 X91.246 Y124.725 E9.88313
G1 X91.013 Y123.883 E9.91219
G1 X90.966 Y123.681 E9.91909
G1 X90.864 Y123.19 E9.93577
G1 X90.785 Y122.759 E9.95034
G1 X90.66 Y121.867 E9.9803
G1 X90.643 Y121.691 E9.98618
G1 X90.608 Y121.219 E10.00192
G1 X90.594 Y120.948 E10.01095
G1 X90.582 Y120.591 E10.02283
G1 X90.56 Y119.281 E10.0664
G1 X90.562 Y114.81 E10.21511
G1 X90.569 Y114.301 E10.23204
G1 X90.58 Y113.953 E10.24362
G1 X90.611 Y113.289 E10.26573
G1 X90.678 Y112.488 E10.29246
G1 X90.719 Y112.155 E10.30362
G1 X90.869 Y111.257 E10.33391
G1 X90.969 Y110.784 E10.34999
G1 X91.22 Y109.823 E10.38302
G1 X91.292 Y109.592 E10.39107
G1 X91.425 Y109.194 E10.40503
G1 X91.558 Y108.82 E10.41823
G1 X91.915 Y107.942 E10.44975
G1 X92.007 Y107.742 E10.45707
G1 X92.176 Y107.392 E10.47
G1 X92.368 Y107.012 E10.48416
G1 X92.819 Y106.208 E10.51482
G1 X92.938 Y106.016 E10.52234
G1 X93.235 Y105.563 E10.54035
G1 X93.481 Y105.208 E10.55472
G1 X94.001 Y104.52 E10.5834
G1 X94.143 Y104.347 E10.59084
G1 X94.473 Y103.963 E10.60768
G1 X94.775 Y103.629 E10.62266
G1 X95.405 Y102.989 E10.65253
G1 X95.555 Y102.849 E10.65936
G0 F6000 X95.828 Y103.141
G1 F1200 X96.166 Y102.84 E10.67441
G1 X96.412 Y102.63 E10.68517
G1 X97.214 Y102.011 E10.71886
G1 X97.843 Y101.574 E10.74434
G1 X98.904 Y100.929 E10.78563
G1 X99.086 Y100.833 E10.79248
G1 X99.48 Y100.636 E10.80713
G1 X99.894 Y100.44 E10.82236
G1 X100.678 Y100.108 E10.85068
G1 X100.854 Y100.042 E10.85693
G1 X101.331 Y99.877 E10.87372
G1 X101.788 Y99.731 E10.88968
G1 X102.657 Y99.495 E10.91963
G1 X102.844 Y99.453 E10.926
G1 X103.224 Y99.375 E10.93891
G1 X103.662 Y99.294 E10.95372
G1 X104.508 Y99.174 E10.98214
G1 X104.689 Y99.156 E10.98819
G1 X105.157 Y99.12 E11.0038
G1 X105.383 Y99.108 E11.01133
G1 X105.736 Y99.096 E11.02308
G1 X107.119 Y99.072 E11.06908
G1 X117.341 Y99.073 E11.40907
G1 X119.556 Y99.075 E11.48274
G1 X119.639 Y99.079 E11.4855
G1 X120.575 Y99.072 E11.51663
G1 X133.133 Y99.072 E11.93432
G1 X133.977 Y99.083 E11.96239
G1 X134.879 Y99.136 E11.99244
G1 X135.772 Y99.268 E12.02247
G1 X136.65 Y99.479 E12.0525
G1 X137.506 Y99.767 E12.08254
G1 X138.333 Y100.129 E12.11256
G1 X139.125 Y100.564 E12.14262
G1 X139.876 Y101.066 E12.17266
G1 X140.579 Y101.633 E12.2027
G1 X141.229 Y102.26 E12.23274
G1 X141.821 Y102.942 E12.26278
G1 X142.351 Y103.673 E12.29281
G1 X142.813 Y104.449 E12.32285
G1 X143.206 Y105.262 E12.35288
G1 X143.524 Y106.107 E12.38291
G1 X143.767 Y106.977 E12.41295
G1 X143.932 Y107.865 E12.44299
G1 X144.027 Y108.991 E12.48058
G1 X144.036 Y109.306 E12.49106
G1 X144.04 Y109.597 E12.50074
G1 X144.039 Y110.822 E12.54148
G1 X144.028 Y111.563 E12.56613
G1 X143.947 Y112.703 E12.60414
G1 X143.77 Y114.084 E12.65045
G1 X143.721 Y114.427 E12.66197
G1 X143.437 Y116.95 E12.74642
G1 X143.224 Y119.465 E12.83037
G1 X143.082 Y122.004 E12.91495
G1 X143.011 Y124.535 E12.99916
G1 X142.991 Y125.873 E13.04367
G1 X142.937 Y126.774 E13.07369
G1 X142.804 Y127.667 E13.10372
G1 X142.593 Y128.545 E13.13375
G1 X142.304 Y129.401 E13.1638
G1 X141.941 Y130.228 E13.19384
G1 X141.507 Y131.02 E13.22388
G1 X141.004 Y131.77 E13.25392
G1 X140.436 Y132.472 E13.28395
G1 X139.809 Y133.122 E13.31399
G1 X139.127 Y133.714 E13.34403
G1 X138.395 Y134.243 E13.37406
G1 X137.619 Y134.705 E13.4041
G1 X136.805 Y135.096 E13.43414
G1 X135.96 Y135.415 E13.46418
G1 X135.09 Y135.657 E13.49421
G1 X134.202 Y135.821 E13.52425
G1 X133.081 Y135.915 E13.56166
G1 X132.764 Y135.924 E13.57221
G1 X132.473 Y135.928 E13.58189
G1 X127.652 Y135.926 E13.74224
G1 X126.961 Y135.916 E13.76522
G1 X126.47 Y135.897 E13.78157
G1 X126.037 Y135.863 E13.79601
G1 X125.876 Y135.847 E13.80139
G1 X123.31 Y135.628 E13.88705
G1 X120.806 Y135.487 E13.97046
G1 X116.851 Y135.403 E14.10204
G1 X106.705 Y135.401 E14.43949
G1 X106.223 Y135.394 E14.45553
G1 X105.895 Y135.384 E14.46644
G1 X105.167 Y135.35 E14.49068
G1 X104.313 Y135.274 E14.5192
G1 X103.986 Y135.231 E14.53017
G1 X103.196 Y135.095 E14.55683
G1 X102.73 Y134.996 E14.57267
G1 X101.85 Y134.768 E14.60291
G1 X101.655 Y134.708 E14.6097
G1 X101.245 Y134.572 E14.62406
G1 X100.856 Y134.434 E14.63779
G1 X100.045 Y134.107 E14.66688
G1 X99.858 Y134.022 E14.67371
G1 X99.423 Y133.811 E14.68979
G1 X99.002 Y133.595 E14.70553
G1 X98.247 Y133.167 E14.73439
G1 X98.076 Y133.06 E14.7411
G1 X97.687 Y132.803 E14.75661
G1 X97.308 Y132.541 E14.77193
G1 X96.626 Y132.026 E14.80036
G1 X96.496 Y131.919 E14.80596
G1 X96.139 Y131.612 E14.82162
G1 X95.786 Y131.293 E14.83744
G1 X95.179 Y130.696 E14.86576
G1 X95.047 Y130.555 E14.87218
G1 X94.74 Y130.212 E14.88749
G1 X94.522 Y129.957 E14.89865
G1 X93.895 Y129.144 E14.9328
G1 X93.462 Y128.52 E14.95806
G1 X92.847 Y127.515 E14.99725
G1 X92.747 Y127.328 E15.0043
G1 X92.525 Y126.886 E15.02075
G1 X92.325 Y126.464 E15.03629
G1 X91.963 Y125.601 E15.06741
G1 X91.903 Y125.437 E15.07322
G1 X91.772 Y125.054 E15.08668
G1 X91.627 Y124.603 E15.10244
G1 X91.402 Y123.793 E15.1304
G1 X91.355 Y123.591 E15.1373
G1 X91.257 Y123.118 E15.15337
G1 X91.178 Y122.687 E15.16794
G1 X91.058 Y121.829 E15.19675
G1 X91.041 Y121.653 E15.20264
G1 X91.008 Y121.198 E15.21781
G1 X90.994 Y120.927 E15.22683
G1 X90.982 Y120.583 E15.23828
G1 X90.96 Y119.281 E15.28159
G1 X90.962 Y114.816 E15.4301
G1 X90.969 Y114.307 E15.44703
G1 X90.979 Y113.971 E15.45821
G1 X91.01 Y113.307 E15.48032
G1 X91.075 Y112.537 E15.50602
G1 X91.116 Y112.204 E15.51718
G1 X91.261 Y111.34 E15.54632
G1 X91.361 Y110.867 E15.5624
G1 X91.602 Y109.942 E15.59419
G1 X91.674 Y109.711 E15.60224
G1 X91.802 Y109.328 E15.61567
G1 X91.935 Y108.954 E15.62887
G1 X92.278 Y108.109 E15.6592
G1 X92.37 Y107.909 E15.66653
G1 X92.533 Y107.572 E15.67898
G1 X92.725 Y107.192 E15.69314
G1 X93.159 Y106.419 E15.72262
G1 X93.278 Y106.227 E15.73014
G1 X93.564 Y105.79 E15.74751
G1 X93.81 Y105.435 E15.76187
G1 X94.31 Y104.774 E15.78944
G1 X94.452 Y104.601 E15.79688
G1 X94.77 Y104.231 E15.81311
G1 X95.072 Y103.897 E15.82809
G1 X95.678 Y103.281 E15.85683
G1 X95.828 Y103.141 E15.86365
G1 F2700 E10.86365
;MESH:adj-bltouch-mount-4A-wing.stl
G0 F6000 X104.719 Y118.605
G0 X104.031 Y117.317
G0 X103.267 Y118.668
G0 X103.133 Y119.221
G0 X103.153 Y119.785
G0 X103.33 Y120.327
G0 X103.649 Y120.796
G0 X104.084 Y121.159
G0 X104.55 Y121.366
G0 X105.772 Y121.541
;TYPE:WALL-INNER
G1 F2700 E15.86365
G1 F1200 X106.06 Y121.435 E15.87386
G1 X106.331 Y121.29 E15.88408
G1 X106.579 Y121.108 E15.89431
G1 X106.798 Y120.896 E15.90445
G1 X106.989 Y120.651 E15.91478
G1 X107.139 Y120.386 E15.92491
G1 X107.254 Y120.103 E15.93507
G1 X107.328 Y119.803 E15.94535
G1 X107.359 Y119.497 E15.95558
G1 X107.347 Y119.193 E15.9657
G1 X107.295 Y118.89 E15.97592
G1 X107.198 Y118.596 E15.98622
G1 X107.062 Y118.322 E15.99639
G1 X106.891 Y118.069 E16.00655
G1 X106.684 Y117.839 E16.01684
G1 X106.448 Y117.645 E16.027
G1 X106.189 Y117.482 E16.03718
G1 X105.907 Y117.358 E16.04743
G1 X105.614 Y117.275 E16.05756
