;FLAVOR:Marlin
;TIME:61077
;Filament used: 47.5243m
;Layer height: 0.2
;MINX:6.998
;MINY:14.498
;MINZ:0.2
;MAXX:228.082
;MAXY:220.502
;MAXZ:29
;Generated with Cura_SteamEngine 4.13.1
M140 S60
M105
M190 S60
M104 S200
M105
M109 S200
M82 ;absolute extrusion mode
; Ender 3 Custom Start G-code
G92 E0 ; Reset Extruder
G28 ; Home all axes
G1 Z2.0 F3000 ; Move Z Axis up little to prevent scratching of Heat Bed
G1 X0.1 Y20 Z0.3 F5000.0 ; Move to start position
G1 X0.1 Y200.0 Z0.3 F1500.0 E15 ; Draw the first line
G1 X0.4 Y200.0 Z0.3 F5000.0 ; Move to side a little
G1 X0.4 Y20 Z0.3 F1500.0 E30 ; Draw the second line
G92 E0 ; Reset Extruder
G1 Z2.0 F3000 ; Move Z Axis up little to prevent scratching of Heat Bed
G1 X5 Y20 Z0.3 F5000.0 ; Move over to prevent blob squish
G92 E0
G92 E0
G1 F2700 E-5
;LAYER_COUNT:145
;LAYER:0
M107
G0 F6000 X12.15 Y16.886 Z0.2
;TYPE:SKIRT
G1 F2700 E0
G1 F1200 X12.498 Y16.647 E0.01404
G1 X12.71 Y16.507 E0.02249
G1 X13.514 Y16.024 E0.05369
G1 X14.356 Y15.611 E0.08488
G1 X15.403 Y15.215 E0.12211
G1 X15.605 Y15.15 E0.12917
G1 X16.721 Y14.854 E0.16757
G1 X17.261 Y14.741 E0.18592
G1 X18.186 Y14.588 E0.2171
G1 X19.151 Y14.514 E0.24929
G1 X19.632 Y14.501 E0.2653
G1 X19.96 Y14.499 E0.27621
G1 X199.777 Y14.498 E6.25694
G1 X200.638 Y14.509 E6.28558
G1 X201.577 Y14.563 E6.31687
G1 X201.617 Y14.567 E6.3182
G1 X202.715 Y14.733 E6.35514
G1 X203.005 Y14.792 E6.36498
G1 X203.425 Y14.886 E6.3793
G1 X203.793 Y14.976 E6.3919
G1 X204.694 Y15.237 E6.4231
G1 X205.569 Y15.575 E6.45429
G1 X206.412 Y15.985 E6.48547
G1 X207.429 Y16.608 E6.52514
G1 X207.797 Y16.862 E6.54001
G1 X208.545 Y17.427 E6.57119
G1 X209.243 Y18.054 E6.6024
G1 X209.884 Y18.738 E6.63358
G1 X210.551 Y19.595 E6.6697
G1 X210.657 Y19.746 E6.67583
G1 X211.028 Y20.311 E6.69831
G1 X211.249 Y20.671 E6.71236
G1 X211.706 Y21.491 E6.74359
G1 X212.09 Y22.346 E6.77476
G1 X212.419 Y23.292 E6.80807
G1 X212.493 Y23.541 E6.81671
G1 X212.778 Y24.741 E6.85773
G1 X212.798 Y24.853 E6.86152
G1 X212.914 Y25.687 E6.88952
G1 X212.935 Y25.896 E6.89651
G1 X212.985 Y26.672 E6.92237
G1 X212.996 Y27.045 E6.93479
G1 X213.001 Y27.369 E6.94556
G1 X213.001 Y45.422 E7.54601
G1 X213.038 Y48.03 E7.63276
G1 X213.145 Y50.551 E7.71668
G1 X213.322 Y53.046 E7.79988
G1 X213.57 Y55.546 E7.88343
G1 X213.889 Y58.039 E7.96703
G1 X214.28 Y60.532 E8.05096
G1 X214.743 Y63.022 E8.1352
G1 X215.273 Y65.486 E8.21902
G1 X215.862 Y67.888 E8.30128
G1 X216.538 Y70.344 E8.38601
G1 X217.276 Y72.754 E8.46984
G1 X218.083 Y75.146 E8.5538
G1 X218.946 Y77.486 E8.63675
G1 X219.892 Y79.842 E8.7212
G1 X220.892 Y82.14 E8.80455
G1 X221.961 Y84.421 E8.88834
G1 X223.104 Y86.691 E8.97287
G1 X224.275 Y88.859 E9.05482
G1 X226.08 Y91.951 E9.1739
G1 X226.437 Y92.537 E9.19673
G1 X227.023 Y93.632 E9.23803
G1 X227.394 Y94.526 E9.27023
G1 X227.678 Y95.421 E9.30146
G1 X227.884 Y96.336 E9.33265
G1 X228.011 Y97.265 E9.36384
G1 X228.058 Y98.126 E9.39252
G1 X228.069 Y98.855 E9.41677
G1 X228.068 Y99.214 E9.42871
G1 X228.059 Y99.728 E9.4458
G1 X228.049 Y100.041 E9.45622
G1 X228.016 Y100.75 E9.47983
G1 X227.931 Y103.445 E9.56951
G1 X227.919 Y105.623 E9.64195
G1 X227.923 Y106.181 E9.66051
G1 X227.921 Y107.82 E9.71502
G1 X227.923 Y118.794 E10.08002
G1 X227.904 Y124.354 E10.26495
G1 X227.931 Y126.886 E10.34917
G1 X228.037 Y129.585 E10.439
G1 X228.06 Y130.099 E10.45612
G1 X228.07 Y130.429 E10.4671
G1 X228.081 Y131.252 E10.49447
G1 X228.082 Y134.678 E10.60842
G1 X228.072 Y136.206 E10.65925
G1 X228.057 Y136.923 E10.6831
G1 X227.997 Y137.859 E10.71429
G1 X227.858 Y138.787 E10.7455
G1 X227.64 Y139.699 E10.77669
G1 X227.346 Y140.589 E10.80787
G1 X226.977 Y141.451 E10.83905
G1 X226.613 Y142.144 E10.86509
G1 X226.401 Y142.511 E10.87918
G1 X225.034 Y144.792 E10.96763
G1 X223.789 Y147.008 E11.05217
G1 X222.621 Y149.233 E11.13575
G1 X221.521 Y151.479 E11.21893
G1 X220.474 Y153.781 E11.30305
G1 X219.488 Y156.117 E11.38738
G1 X218.589 Y158.442 E11.47029
G1 X217.742 Y160.821 E11.55428
G1 X216.959 Y163.234 E11.63866
G1 X216.265 Y165.599 E11.72063
G1 X215.615 Y168.072 E11.80568
G1 X215.04 Y170.534 E11.88977
G1 X214.542 Y172.994 E11.97325
G1 X214.114 Y175.456 E12.05636
G1 X213.749 Y177.966 E12.14072
G1 X213.462 Y180.441 E12.22359
G1 X213.241 Y182.956 E12.30757
G1 X213.092 Y185.472 E12.3914
G1 X213.014 Y188.012 E12.47592
G1 X213.001 Y189.568 E12.52767
G1 X213 Y207.411 E13.12113
G1 X212.99 Y208.115 E13.14455
G1 X212.936 Y209.057 E13.17593
G1 X212.906 Y209.356 E13.18593
G1 X212.701 Y210.633 E13.22894
G1 X212.678 Y210.737 E13.23249
G1 X212.48 Y211.504 E13.25883
G1 X212.418 Y211.712 E13.26605
G1 X212.112 Y212.599 E13.29726
G1 X211.731 Y213.456 E13.32845
G1 X211.104 Y214.557 E13.37059
G1 X210.923 Y214.836 E13.38166
G1 X210.753 Y215.09 E13.39182
G1 X210.547 Y215.389 E13.4039
G1 X209.983 Y216.138 E13.43508
G1 X209.356 Y216.836 E13.46629
G1 X208.673 Y217.478 E13.49747
G1 X207.937 Y218.06 E13.52867
G1 X207.469 Y218.381 E13.54755
G1 X207.276 Y218.506 E13.5552
G1 X206.848 Y218.769 E13.57191
G1 X206.024 Y219.216 E13.60308
G1 X205.164 Y219.591 E13.63429
G1 X204.275 Y219.891 E13.6655
G1 X203.793 Y220.019 E13.68208
G1 X203.314 Y220.135 E13.69847
G1 X202.954 Y220.216 E13.71075
G1 X202.722 Y220.264 E13.71863
G1 X201.796 Y220.415 E13.74983
G1 X200.664 Y220.491 E13.78757
G1 X199.849 Y220.502 E13.81468
G1 X20.048 Y220.5 E19.79488
G1 X19.482 Y220.492 E19.81371
G1 X18.48 Y220.432 E19.8471
G1 X18.045 Y220.386 E19.86165
G1 X17.118 Y220.248 E19.89282
G1 X16.205 Y220.031 E19.92403
G1 X15.314 Y219.737 E19.95524
G1 X14.525 Y219.403 E19.98373
G1 X14.227 Y219.263 E19.99468
G1 X13.396 Y218.828 E20.02588
G1 X12.769 Y218.437 E20.05046
G1 X12.417 Y218.198 E20.06461
G1 X11.986 Y217.897 E20.08209
G1 X11.24 Y217.328 E20.1133
G1 X10.546 Y216.697 E20.1445
G1 X9.908 Y216.01 E20.17568
G1 X9.331 Y215.271 E20.20686
G1 X9.034 Y214.833 E20.22447
G1 X8.922 Y214.659 E20.23135
G1 X8.449 Y213.849 E20.26255
G1 X8.046 Y213.002 E20.29374
G1 X7.717 Y212.124 E20.32493
G1 X7.485 Y211.309 E20.35311
G1 X7.369 Y210.833 E20.36941
G1 X7.293 Y210.498 E20.38083
G1 X7.25 Y210.294 E20.38777
G1 X7.051 Y208.939 E20.43332
G1 X7.044 Y208.855 E20.43612
G1 X7.007 Y208.081 E20.46189
G1 X6.998 Y207.312 E20.48747
G1 X7 Y27.513 E26.46761
G1 X7.009 Y26.922 E26.48727
G1 X7.065 Y25.968 E26.51906
G1 X7.099 Y25.636 E26.53016
G1 X7.234 Y24.708 E26.56135
G1 X7.401 Y23.971 E26.58648
G1 X7.484 Y23.654 E26.59738
G1 X7.76 Y22.757 E26.62859
G1 X8.111 Y21.888 E26.65977
G1 X8.741 Y20.701 E26.70446
G1 X9.07 Y20.163 E26.72544
G1 X9.593 Y19.385 E26.75662
G1 X10.18 Y18.654 E26.7878
G1 X10.827 Y17.975 E26.81899
G1 X11.53 Y17.354 E26.85019
G1 X12.044 Y16.962 E26.87169
G1 X12.15 Y16.886 E26.87603
G0 F6000 X12.384 Y17.211
G1 F1200 X12.719 Y16.981 E26.88954
G1 X12.931 Y16.841 E26.89799
G1 X13.72 Y16.367 E26.92861
G1 X14.548 Y15.964 E26.95924
G1 X15.525 Y15.596 E26.99396
G1 X15.727 Y15.531 E27.00102
G1 X16.803 Y15.246 E27.03804
G1 X17.343 Y15.133 E27.05639
G1 X18.251 Y14.983 E27.087
G1 X19.164 Y14.914 E27.11745
G1 X19.635 Y14.901 E27.13312
G1 X19.96 Y14.899 E27.14393
G1 X199.777 Y14.898 E33.12467
G1 X200.632 Y14.909 E33.15311
G1 X201.537 Y14.961 E33.18326
G1 X201.577 Y14.965 E33.1846
G1 X202.635 Y15.125 E33.22019
G1 X202.925 Y15.184 E33.23003
G1 X203.33 Y15.274 E33.24383
G1 X203.698 Y15.364 E33.25643
G1 X204.582 Y15.622 E33.28706
G1 X205.44 Y15.955 E33.31767
G1 X206.267 Y16.361 E33.34831
G1 X207.201 Y16.937 E33.38481
G1 X207.569 Y17.191 E33.39968
G1 X208.304 Y17.747 E33.43033
G1 X208.987 Y18.364 E33.46095
G1 X209.614 Y19.038 E33.49156
G1 X210.224 Y19.825 E33.52468
G1 X210.33 Y19.976 E33.53082
G1 X210.688 Y20.52 E33.55248
G1 X210.909 Y20.88 E33.56653
G1 X211.356 Y21.685 E33.59715
G1 X211.731 Y22.526 E33.62778
G1 X212.036 Y23.406 E33.65876
G1 X212.11 Y23.655 E33.6674
G1 X212.384 Y24.812 E33.70694
G1 X212.404 Y24.924 E33.71073
G1 X212.516 Y25.727 E33.73769
G1 X212.537 Y25.936 E33.74468
G1 X212.585 Y26.684 E33.76961
G1 X212.596 Y27.057 E33.78202
G1 X212.601 Y27.369 E33.7924
G1 X212.601 Y45.428 E34.39304
G1 X212.638 Y48.053 E34.48036
G1 X212.745 Y50.561 E34.56385
G1 X212.923 Y53.081 E34.64788
G1 X213.172 Y55.596 E34.73194
G1 X213.491 Y58.085 E34.8154
G1 X213.892 Y60.637 E34.90132
G1 X214.344 Y63.068 E34.98356
G1 X214.88 Y65.56 E35.06834
G1 X215.482 Y68.017 E35.15248
G1 X216.155 Y70.462 E35.23682
G1 X216.89 Y72.862 E35.32031
G1 X217.704 Y75.276 E35.40504
G1 X218.571 Y77.626 E35.48835
G1 X219.53 Y80.014 E35.57394
G1 X220.521 Y82.291 E35.65653
G1 X221.613 Y84.62 E35.74209
G1 X222.738 Y86.855 E35.82531
G1 X223.923 Y89.049 E35.90825
G1 X225.727 Y92.14 E36.02728
G1 X226.096 Y92.745 E36.05085
G1 X226.66 Y93.8 E36.09064
G1 X227.024 Y94.679 E36.12229
G1 X227.3 Y95.558 E36.15293
G1 X227.499 Y96.457 E36.18355
G1 X227.619 Y97.369 E36.21415
G1 X227.658 Y98.132 E36.23956
G1 X227.669 Y98.861 E36.26381
G1 X227.668 Y99.207 E36.27532
G1 X227.659 Y99.721 E36.29241
G1 X227.65 Y100.022 E36.30243
G1 X227.614 Y100.81 E36.32867
G1 X227.531 Y103.431 E36.41588
G1 X227.519 Y105.624 E36.48883
G1 X227.523 Y106.181 E36.50735
G1 X227.521 Y107.82 E36.56187
G1 X227.523 Y118.793 E36.92683
G1 X227.504 Y124.357 E37.11189
G1 X227.531 Y126.906 E37.19667
G1 X227.637 Y129.601 E37.28638
G1 X227.66 Y130.117 E37.30356
G1 X227.67 Y130.435 E37.31414
G1 X227.681 Y131.252 E37.34132
G1 X227.682 Y134.675 E37.45517
G1 X227.672 Y136.198 E37.50582
G1 X227.657 Y136.915 E37.52968
G1 X227.597 Y137.833 E37.56027
G1 X227.459 Y138.744 E37.59092
G1 X227.242 Y139.638 E37.62152
G1 X226.948 Y140.511 E37.65216
G1 X226.579 Y141.354 E37.68276
G1 X226.266 Y141.946 E37.70503
G1 X226.058 Y142.305 E37.71883
G1 X224.685 Y144.596 E37.80767
G1 X223.444 Y146.805 E37.89194
G1 X222.266 Y149.05 E37.97627
G1 X221.155 Y151.316 E38.0602
G1 X220.105 Y153.626 E38.1446
G1 X219.118 Y155.966 E38.22907
G1 X218.215 Y158.3 E38.31231
G1 X217.356 Y160.711 E38.39743
G1 X216.59 Y163.07 E38.47993
G1 X215.871 Y165.522 E38.56491
G1 X215.224 Y167.985 E38.64961
G1 X214.646 Y170.461 E38.73418
G1 X214.154 Y172.888 E38.81654
G1 X213.717 Y175.401 E38.90138
G1 X213.355 Y177.894 E38.98517
G1 X213.06 Y180.431 E39.07012
G1 X212.844 Y182.896 E39.15242
G1 X212.692 Y185.472 E39.23824
G1 X212.614 Y187.996 E39.32223
G1 X212.601 Y189.565 E39.37442
G1 X212.6 Y207.406 E39.96781
G1 X212.59 Y208.11 E39.99123
G1 X212.538 Y209.017 E40.02145
G1 X212.508 Y209.316 E40.03144
G1 X212.311 Y210.547 E40.07291
G1 X212.288 Y210.651 E40.07645
G1 X212.096 Y211.39 E40.10185
G1 X212.034 Y211.598 E40.10906
G1 X211.733 Y212.468 E40.13968
G1 X211.358 Y213.309 E40.17031
G1 X210.769 Y214.339 E40.20977
G1 X210.588 Y214.618 E40.22083
G1 X210.424 Y214.863 E40.23064
G1 X210.218 Y215.162 E40.24272
G1 X209.663 Y215.897 E40.27335
G1 X209.047 Y216.58 E40.30394
G1 X208.373 Y217.208 E40.33458
G1 X207.648 Y217.775 E40.36519
G1 X207.251 Y218.045 E40.38116
G1 X207.058 Y218.17 E40.38881
G1 X206.735 Y218.371 E40.40146
G1 X206.643 Y218.426 E40.40503
G1 X205.833 Y218.864 E40.43566
G1 X204.988 Y219.229 E40.46627
G1 X203.699 Y219.63 E40.51117
G1 X203.22 Y219.746 E40.52756
G1 X202.873 Y219.824 E40.53939
G1 X202.641 Y219.872 E40.54727
G1 X201.732 Y220.019 E40.5779
G1 X200.658 Y220.091 E40.6137
G1 X199.849 Y220.102 E40.64061
G1 X20.053 Y220.1 E46.62065
G1 X19.487 Y220.092 E46.63947
G1 X18.522 Y220.034 E46.67163
G1 X18.087 Y219.988 E46.68618
G1 X17.177 Y219.852 E46.71678
G1 X16.282 Y219.637 E46.74739
G1 X15.408 Y219.345 E46.77804
G1 X14.695 Y219.041 E46.80382
G1 X14.397 Y218.901 E46.81477
G1 X13.581 Y218.474 E46.84541
G1 X12.992 Y218.105 E46.86852
G1 X12.646 Y217.87 E46.88243
G1 X12.215 Y217.569 E46.89992
G1 X11.484 Y217.01 E46.93053
G1 X10.804 Y216.389 E46.96116
G1 X10.18 Y215.712 E46.99178
G1 X9.371 Y214.616 E47.03709
G1 X9.259 Y214.442 E47.04397
G1 X8.795 Y213.647 E47.07459
G1 X8.401 Y212.815 E47.1052
G1 X8.081 Y211.951 E47.13585
G1 X7.873 Y211.215 E47.16129
G1 X7.757 Y210.739 E47.17758
G1 X7.684 Y210.415 E47.18863
G1 X7.641 Y210.211 E47.19556
G1 X7.45 Y208.905 E47.23946
G1 X7.443 Y208.821 E47.24227
G1 X7.407 Y208.076 E47.26707
G1 X7.398 Y207.312 E47.29249
G1 X7.4 Y27.519 E53.27243
G1 X7.409 Y26.928 E53.29208
G1 X7.463 Y26.009 E53.3227
G1 X7.497 Y25.677 E53.3338
G1 X7.631 Y24.766 E53.36443
G1 X7.788 Y24.072 E53.3881
G1 X7.871 Y23.755 E53.39899
G1 X8.142 Y22.875 E53.42962
G1 X8.489 Y22.023 E53.46022
G1 X9.082 Y20.91 E53.50216
G1 X9.411 Y20.372 E53.52314
G1 X9.925 Y19.608 E53.55376
G1 X10.503 Y18.892 E53.58437
G1 X11.141 Y18.228 E53.615
G1 X11.835 Y17.623 E53.64562
G1 X12.278 Y17.287 E53.66411
G1 X12.384 Y17.211 E53.66845
G0 F6000 X12.617 Y17.536
G1 F1200 X12.939 Y17.314 E53.68146
G1 X13.151 Y17.174 E53.68991
G1 X13.926 Y16.711 E53.71993
G1 X14.739 Y16.317 E53.74998
G1 X15.648 Y15.976 E53.78227
G1 X15.85 Y15.911 E53.78933
G1 X16.885 Y15.637 E53.82494
G1 X17.425 Y15.524 E53.84329
G1 X18.316 Y15.379 E53.87331
G1 X19.177 Y15.314 E53.90203
G1 X19.639 Y15.301 E53.91741
G1 X19.96 Y15.299 E53.92808
G1 X199.777 Y15.298 E59.90882
G1 X200.627 Y15.309 E59.93709
G1 X201.497 Y15.359 E59.96608
G1 X201.537 Y15.363 E59.96741
G1 X202.556 Y15.517 E60.00169
G1 X202.846 Y15.576 E60.01153
G1 X203.235 Y15.663 E60.02479
G1 X203.603 Y15.753 E60.03739
G1 X204.47 Y16.006 E60.06743
G1 X205.311 Y16.335 E60.09747
G1 X206.12 Y16.737 E60.12751
G1 X206.974 Y17.266 E60.16093
G1 X207.342 Y17.52 E60.1758
G1 X208.062 Y18.066 E60.20585
G1 X208.731 Y18.673 E60.2359
G1 X209.343 Y19.336 E60.26591
G1 X209.896 Y20.055 E60.29608
G1 X210.002 Y20.206 E60.30221
G1 X210.347 Y20.73 E60.32308
G1 X210.568 Y21.09 E60.33713
G1 X211.006 Y21.879 E60.36714
G1 X211.372 Y22.705 E60.39719
G1 X211.652 Y23.52 E60.42586
G1 X211.726 Y23.769 E60.4345
G1 X211.99 Y24.882 E60.47254
G1 X212.01 Y24.994 E60.47633
G1 X212.118 Y25.767 E60.50228
G1 X212.139 Y25.976 E60.50927
G1 X212.186 Y26.695 E60.53324
G1 X212.197 Y27.068 E60.54565
G1 X212.201 Y27.369 E60.55566
G1 X212.201 Y45.434 E61.1565
G1 X212.238 Y48.04 E61.24319
G1 X212.347 Y50.605 E61.32858
G1 X212.525 Y53.112 E61.41217
G1 X212.776 Y55.653 E61.4971
G1 X213.097 Y58.161 E61.58119
G1 X213.491 Y60.666 E61.66553
G1 X213.953 Y63.153 E61.74967
G1 X214.494 Y65.667 E61.8352
G1 X215.093 Y68.113 E61.91896
G1 X215.766 Y70.557 E62.00327
G1 X216.511 Y72.992 E62.08796
G1 X217.322 Y75.394 E62.17229
G1 X218.212 Y77.807 E62.25783
G1 X219.138 Y80.114 E62.34051
G1 X220.17 Y82.485 E62.42651
G1 X221.251 Y84.791 E62.51122
G1 X222.38 Y87.033 E62.59471
G1 X223.59 Y89.273 E62.67939
G1 X225.373 Y92.329 E62.79707
G1 X225.754 Y92.953 E62.82138
G1 X226.297 Y93.969 E62.8597
G1 X226.654 Y94.832 E62.89076
G1 X226.923 Y95.694 E62.9208
G1 X227.114 Y96.577 E62.95084
G1 X227.226 Y97.473 E62.98088
G1 X227.258 Y98.138 E63.00302
G1 X227.269 Y98.867 E63.02727
G1 X227.268 Y99.2 E63.03835
G1 X227.259 Y99.714 E63.05544
G1 X227.25 Y100.004 E63.06509
G1 X227.214 Y100.781 E63.09097
G1 X227.131 Y103.415 E63.17862
G1 X227.119 Y105.625 E63.25212
G1 X227.123 Y106.18 E63.27058
G1 X227.121 Y107.819 E63.3251
G1 X227.123 Y118.792 E63.69006
G1 X227.104 Y124.36 E63.87525
G1 X227.131 Y126.926 E63.9606
G1 X227.235 Y129.558 E64.04821
G1 X227.261 Y130.135 E64.06742
G1 X227.27 Y130.441 E64.0776
G1 X227.281 Y131.252 E64.10458
G1 X227.282 Y134.673 E64.21836
G1 X227.272 Y136.189 E64.26879
G1 X227.257 Y136.906 E64.29264
G1 X227.198 Y137.808 E64.3227
G1 X227.06 Y138.7 E64.35273
G1 X226.843 Y139.577 E64.38277
G1 X226.549 Y140.431 E64.41281
G1 X226.182 Y141.256 E64.44285
G1 X225.918 Y141.748 E64.46142
G1 X225.715 Y142.1 E64.47493
G1 X224.327 Y144.416 E64.56474
G1 X223.099 Y146.602 E64.64813
G1 X221.91 Y148.867 E64.73321
G1 X220.796 Y151.14 E64.81741
G1 X219.739 Y153.467 E64.90241
G1 X218.746 Y155.82 E64.98736
G1 X217.836 Y158.17 E65.07117
G1 X216.986 Y160.559 E65.15551
G1 X216.202 Y162.972 E65.2399
G1 X215.486 Y165.415 E65.32457
G1 X214.842 Y167.863 E65.40876
G1 X214.252 Y170.389 E65.49504
G1 X213.762 Y172.812 E65.57726
G1 X213.321 Y175.347 E65.66284
G1 X212.961 Y177.828 E65.74622
G1 X212.663 Y180.386 E65.83188
G1 X212.442 Y182.908 E65.91608
G1 X212.293 Y185.435 E66.00027
G1 X212.214 Y187.981 E66.085
G1 X212.201 Y189.561 E66.13755
G1 X212.2 Y207.4 E66.73088
G1 X212.19 Y208.104 E66.75429
G1 X212.14 Y208.977 E66.78338
G1 X212.11 Y209.276 E66.79337
