;FLAVOR:Marlin
;TIME:71290
;Filament used: 55.3871m
;Layer height: 0.2
;MINX:7.905
;MINY:15.404
;MINZ:0.2
;MAXX:217.299
;MAXY:219.595
;MAXZ:29
;Generated with Cura_SteamEngine 4.13.1
M140 S60
M105
M190 S60
M104 S200
M105
M109 S200
M82 ;absolute extrusion mode
; Ender 3 Custom Start G-code
G92 E0 ; Reset Extruder
G28 ; Home all axes
G1 Z2.0 F3000 ; Move Z Axis up little to prevent scratching of Heat Bed
G1 X0.1 Y20 Z0.3 F5000.0 ; Move to start position
G1 X0.1 Y200.0 Z0.3 F1500.0 E15 ; Draw the first line
G1 X0.4 Y200.0 Z0.3 F5000.0 ; Move to side a little
G1 X0.4 Y20 Z0.3 F1500.0 E30 ; Draw the second line
G92 E0 ; Reset Extruder
G1 Z2.0 F3000 ; Move Z Axis up little to prevent scratching of Heat Bed
G1 X5 Y20 Z0.3 F5000.0 ; Move over to prevent blob squish
G92 E0
G92 E0
G1 F2700 E-5
;LAYER_COUNT:145
;LAYER:0
M107
G0 F6000 X13.031 Y17.444 Z0.2
;TYPE:SKIRT
G1 F2700 E0
G1 F1200 X13.827 Y16.948 E0.03119
G1 X14.663 Y16.522 E0.0624
G1 X15.262 Y16.269 E0.08403
G1 X15.525 Y16.167 E0.09341
G1 X16.413 Y15.866 E0.1246
G1 X17.323 Y15.641 E0.15577
G1 X18.249 Y15.495 E0.18695
G1 X19.289 Y15.425 E0.22162
G1 X20.22 Y15.407 E0.25259
G1 X20.433 Y15.405 E0.25968
G1 X199.793 Y15.404 E6.22522
G1 X200.632 Y15.415 E6.25312
G1 X201.568 Y15.469 E6.28431
G1 X202.496 Y15.602 E6.31549
G1 X203.41 Y15.814 E6.34669
G1 X204.056 Y16.015 E6.3692
G1 X204.314 Y16.104 E6.37827
G1 X205.187 Y16.448 E6.40948
G1 X206.027 Y16.864 E6.44066
G1 X206.829 Y17.351 E6.47187
G1 X207.586 Y17.904 E6.50305
G1 X208.354 Y18.576 E6.53699
G1 X208.645 Y18.856 E6.55042
G1 X209.292 Y19.535 E6.58162
G1 X209.88 Y20.266 E6.61282
G1 X210.403 Y21.045 E6.64403
G1 X210.857 Y21.865 E6.6752
G1 X211.241 Y22.721 E6.7064
G1 X211.549 Y23.605 E6.73754
G1 X211.616 Y23.827 E6.74525
G1 X211.848 Y24.735 E6.77642
G1 X212.003 Y25.66 E6.80762
G1 X212.079 Y26.647 E6.84054
G1 X212.092 Y27.097 E6.85552
G1 X212.095 Y27.394 E6.86539
G1 X212.096 Y65.91 E8.14644
G1 X212.137 Y68.737 E8.24048
G1 X212.145 Y69 E8.24923
G1 X212.15 Y69.323 E8.25997
G1 X212.149 Y70.443 E8.29723
G1 X212.127 Y72.087 E8.35191
G1 X212.131 Y72.647 E8.37054
G1 X212.096 Y74.296 E8.42539
G1 X212.095 Y161.893 E11.33888
G1 X212.136 Y164.711 E11.43262
G1 X212.145 Y165.009 E11.44254
G1 X212.15 Y165.332 E11.45328
G1 X212.149 Y166.443 E11.49023
G1 X212.127 Y168.087 E11.54492
G1 X212.131 Y168.647 E11.56354
G1 X212.096 Y170.296 E11.6184
G1 X212.094 Y207.454 E12.85428
G1 X212.084 Y208.141 E12.87713
G1 X212.03 Y209.077 E12.90832
G1 X211.897 Y210.006 E12.93953
G1 X211.642 Y211.073 E12.97602
G1 X211.572 Y211.312 E12.9843
G1 X211.27 Y212.2 E13.0155
G1 X210.893 Y213.059 E13.0467
G1 X210.445 Y213.883 E13.07789
G1 X209.929 Y214.666 E13.10908
G1 X209.098 Y215.681 E13.15271
G1 X209.014 Y215.772 E13.15683
G1 X208.592 Y216.205 E13.17694
G1 X208.423 Y216.369 E13.18477
G1 X207.722 Y216.993 E13.21599
G1 X206.971 Y217.555 E13.24719
G1 X206.175 Y218.051 E13.27838
G1 X205.34 Y218.477 E13.30956
G1 X204.726 Y218.736 E13.33172
G1 X204.462 Y218.838 E13.34114
G1 X203.574 Y219.138 E13.37231
G1 X202.663 Y219.362 E13.40351
G1 X201.737 Y219.507 E13.43469
G1 X200.711 Y219.575 E13.46889
G1 X199.78 Y219.593 E13.49986
G1 X199.567 Y219.595 E13.50694
G1 X20.054 Y219.595 E19.47757
G1 X19.406 Y219.586 E19.49912
G1 X18.47 Y219.533 E19.53031
G1 X17.136 Y219.317 E19.57525
G1 X17.074 Y219.303 E19.57737
G1 X16.388 Y219.125 E19.60094
G1 X16.164 Y219.059 E19.60871
G1 X15.277 Y218.755 E19.63989
G1 X14.418 Y218.378 E19.67109
G1 X13.595 Y217.928 E19.70229
G1 X12.813 Y217.41 E19.73349
G1 X11.84 Y216.616 E19.77526
G1 X11.756 Y216.539 E19.77905
G1 X11.323 Y216.12 E19.79909
G1 X11.148 Y215.941 E19.80742
G1 X10.522 Y215.243 E19.8386
G1 X9.957 Y214.494 E19.8698
G1 X9.458 Y213.7 E19.901
G1 X9.029 Y212.866 E19.93219
G1 X8.791 Y212.313 E19.95221
G1 X8.702 Y212.089 E19.96023
G1 X8.394 Y211.203 E19.99143
G1 X8.161 Y210.294 E20.02264
G1 X8.007 Y209.369 E20.05383
G1 X7.927 Y208.244 E20.09134
G1 X7.907 Y207.229 E20.12511
G1 X7.905 Y207.012 E20.13232
G1 X7.905 Y27.554 E26.10112
G1 X7.914 Y26.906 E26.12268
G1 X7.967 Y25.97 E26.15386
G1 X8.183 Y24.636 E26.1988
G1 X8.197 Y24.574 E26.20092
G1 X8.375 Y23.888 E26.22449
G1 X8.441 Y23.664 E26.23226
G1 X8.745 Y22.777 E26.26344
G1 X9.122 Y21.918 E26.29464
G1 X9.572 Y21.095 E26.32584
G1 X10.09 Y20.313 E26.35704
G1 X10.892 Y19.332 E26.39918
G1 X10.971 Y19.246 E26.40307
G1 X11.413 Y18.792 E26.42414
G1 X11.58 Y18.63 E26.43188
G1 X12.28 Y18.006 E26.46307
G1 X13.031 Y17.444 E26.49427
G0 F6000 X13.285 Y17.755
G1 F1200 X14.068 Y17.272 E26.52487
G1 X14.891 Y16.858 E26.55551
G1 X15.406 Y16.642 E26.57408
G1 X15.669 Y16.54 E26.58347
G1 X16.541 Y16.245 E26.61408
G1 X17.435 Y16.026 E26.6447
G1 X18.345 Y15.886 E26.67532
G1 X19.297 Y15.825 E26.70705
G1 X20.228 Y15.807 E26.73802
G1 X20.433 Y15.805 E26.74484
G1 X199.793 Y15.804 E32.71038
G1 X200.626 Y15.815 E32.73808
G1 X201.545 Y15.869 E32.7687
G1 X202.456 Y16.002 E32.79932
G1 X203.352 Y16.214 E32.82995
G1 X203.926 Y16.393 E32.84995
G1 X204.184 Y16.482 E32.85902
G1 X205.04 Y16.82 E32.88963
G1 X205.864 Y17.231 E32.92026
G1 X206.649 Y17.712 E32.95088
G1 X207.39 Y18.259 E32.98151
G1 X208.077 Y18.865 E33.01198
G1 X208.368 Y19.145 E33.02541
G1 X209.003 Y19.811 E33.05602
G1 X209.577 Y20.53 E33.08662
G1 X210.088 Y21.297 E33.11727
G1 X210.53 Y22.104 E33.14788
G1 X210.9 Y22.947 E33.1785
G1 X211.166 Y23.72 E33.20569
G1 X211.233 Y23.942 E33.2134
G1 X211.46 Y24.834 E33.24401
G1 X211.61 Y25.743 E33.27466
G1 X211.679 Y26.66 E33.30524
G1 X211.692 Y27.103 E33.31998
G1 X211.695 Y27.394 E33.32966
G1 X211.696 Y65.933 E34.61147
G1 X211.737 Y68.735 E34.70468
G1 X211.745 Y69.012 E34.7139
G1 X211.75 Y69.323 E34.72424
G1 X211.749 Y70.438 E34.76133
G1 X211.722 Y72.4 E34.82659
G1 X211.731 Y72.639 E34.83454
G1 X211.696 Y74.288 E34.8894
G1 X211.695 Y161.899 E37.80336
G1 X211.736 Y164.729 E37.89749
G1 X211.745 Y165.021 E37.90721
G1 X211.75 Y165.332 E37.91755
G1 X211.749 Y166.438 E37.95434
G1 X211.722 Y168.4 E38.0196
G1 X211.731 Y168.639 E38.02756
G1 X211.696 Y170.288 E38.08241
G1 X211.694 Y207.448 E39.31836
G1 X211.684 Y208.135 E39.34121
G1 X211.631 Y209.054 E39.37183
G1 X211.498 Y209.965 E39.40245
G1 X211.258 Y210.96 E39.43649
G1 X211.188 Y211.199 E39.44478
G1 X210.891 Y212.071 E39.47542
G1 X210.519 Y212.913 E39.50603
G1 X210.076 Y213.72 E39.53665
G1 X209.565 Y214.486 E39.56728
G1 X208.804 Y215.41 E39.60709
G1 X208.72 Y215.501 E39.61121
G1 X208.313 Y215.918 E39.63059
G1 X208.144 Y216.082 E39.63842
G1 X207.456 Y216.694 E39.66905
G1 X206.718 Y217.244 E39.69966
G1 X205.934 Y217.727 E39.73029
G1 X205.112 Y218.141 E39.7609
G1 X204.582 Y218.363 E39.78001
G1 X204.318 Y218.465 E39.78943
G1 X203.446 Y218.759 E39.82003
G1 X202.551 Y218.976 E39.85066
G1 X201.641 Y219.115 E39.88128
G1 X200.703 Y219.175 E39.91254
G1 X199.772 Y219.193 E39.94351
G1 X199.567 Y219.195 E39.95033
G1 X20.06 Y219.195 E45.92076
G1 X19.412 Y219.186 E45.94231
G1 X18.493 Y219.133 E45.97293
G1 X17.224 Y218.927 E46.01569
G1 X17.162 Y218.913 E46.01781
G1 X16.501 Y218.741 E46.04052
G1 X16.277 Y218.675 E46.04829
G1 X15.406 Y218.377 E46.07891
G1 X14.564 Y218.004 E46.10954
G1 X13.758 Y217.559 E46.14016
G1 X12.993 Y217.047 E46.17078
G1 X12.11 Y216.321 E46.2088
G1 X12.026 Y216.244 E46.21259
G1 X11.609 Y215.84 E46.2319
G1 X11.434 Y215.661 E46.24022
G1 X10.82 Y214.976 E46.27082
G1 X10.267 Y214.239 E46.30147
G1 X9.781 Y213.458 E46.33206
G1 X9.364 Y212.637 E46.36269
G1 X9.163 Y212.165 E46.37975
G1 X9.074 Y211.941 E46.38777
G1 X8.772 Y211.071 E46.4184
G1 X8.546 Y210.179 E46.449
G1 X8.398 Y209.27 E46.47964
G1 X8.327 Y208.236 E46.51411
G1 X8.307 Y207.221 E46.54787
G1 X8.305 Y207.012 E46.55482
G1 X8.305 Y27.56 E52.52342
G1 X8.314 Y26.912 E52.54498
G1 X8.367 Y25.993 E52.57559
G1 X8.573 Y24.724 E52.61835
G1 X8.587 Y24.662 E52.62047
G1 X8.759 Y24.001 E52.64318
G1 X8.825 Y23.777 E52.65095
G1 X9.123 Y22.906 E52.68157
G1 X9.496 Y22.064 E52.7122
G1 X9.941 Y21.258 E52.74282
G1 X10.453 Y20.493 E52.77344
G1 X11.187 Y19.602 E52.81183
G1 X11.266 Y19.516 E52.81572
G1 X11.691 Y19.079 E52.83599
G1 X11.858 Y18.917 E52.84373
G1 X12.546 Y18.305 E52.87436
G1 X13.285 Y17.755 E52.905
G0 F6000 X13.538 Y18.067
G1 F1200 X14.309 Y17.596 E52.93505
G1 X15.118 Y17.195 E52.96508
G1 X15.551 Y17.015 E52.98068
G1 X15.814 Y16.913 E52.99006
G1 X16.669 Y16.624 E53.02008
G1 X17.547 Y16.412 E53.05012
G1 X18.44 Y16.278 E53.08015
G1 X19.305 Y16.225 E53.10897
G1 X20.236 Y16.207 E53.13995
G1 X20.433 Y16.205 E53.1465
G1 X199.793 Y16.204 E59.11204
G1 X200.62 Y16.215 E59.13954
G1 X201.521 Y16.268 E59.16956
G1 X202.415 Y16.401 E59.19963
G1 X203.293 Y16.613 E59.22967
G1 X203.795 Y16.772 E59.24718
G1 X204.053 Y16.861 E59.25626
G1 X204.893 Y17.193 E59.2863
G1 X205.7 Y17.598 E59.31633
G1 X206.469 Y18.072 E59.34638
G1 X207.192 Y18.613 E59.37641
G1 X207.799 Y19.153 E59.40343
G1 X208.09 Y19.433 E59.41686
G1 X208.713 Y20.087 E59.44691
G1 X209.275 Y20.794 E59.47695
G1 X209.772 Y21.548 E59.50698
G1 X210.201 Y22.343 E59.53703
G1 X210.558 Y23.172 E59.56705
G1 X210.783 Y23.836 E59.59037
G1 X210.85 Y24.058 E59.59808
G1 X211.072 Y24.933 E59.6281
G1 X211.216 Y25.825 E59.65816
G1 X211.28 Y26.673 E59.68644
G1 X211.292 Y27.108 E59.70091
G1 X211.295 Y27.394 E59.71043
G1 X211.296 Y65.939 E60.99244
G1 X211.337 Y68.704 E61.08441
G1 X211.346 Y69.024 E61.09506
G1 X211.35 Y69.323 E61.10501
G1 X211.349 Y70.432 E61.14189
G1 X211.323 Y72.299 E61.20399
G1 X211.331 Y72.63 E61.21501
G1 X211.296 Y74.279 E61.26987
G1 X211.295 Y161.905 E64.18432
G1 X211.336 Y164.679 E64.27659
G1 X211.346 Y165.033 E64.28837
G1 X211.35 Y165.332 E64.29832
G1 X211.349 Y166.432 E64.3349
G1 X211.323 Y168.299 E64.397
G1 X211.331 Y168.63 E64.40802
G1 X211.296 Y170.279 E64.46288
G1 X211.294 Y207.442 E65.69892
G1 X211.284 Y208.129 E65.72177
G1 X211.231 Y209.031 E65.75183
G1 X211.098 Y209.924 E65.78186
G1 X210.874 Y210.848 E65.81348
G1 X210.804 Y211.087 E65.82176
G1 X210.512 Y211.942 E65.85181
G1 X210.145 Y212.767 E65.88184
G1 X209.707 Y213.557 E65.91189
G1 X209.201 Y214.305 E65.94192
G1 X208.51 Y215.138 E65.97792
G1 X208.426 Y215.229 E65.98204
G1 X208.034 Y215.631 E66.00071
G1 X207.865 Y215.795 E66.00855
G1 X207.19 Y216.395 E66.03859
G1 X206.464 Y216.932 E66.06862
G1 X205.694 Y217.403 E66.09864
G1 X204.885 Y217.805 E66.12869
G1 X204.438 Y217.99 E66.14478
G1 X204.174 Y218.092 E66.15419
G1 X203.318 Y218.379 E66.18422
G1 X202.44 Y218.59 E66.21425
G1 X201.547 Y218.723 E66.24428
G1 X200.695 Y218.775 E66.27267
G1 X199.764 Y218.793 E66.30364
G1 X199.567 Y218.795 E66.3102
G1 X20.065 Y218.795 E72.28046
G1 X19.417 Y218.786 E72.30201
G1 X18.516 Y218.734 E72.33203
G1 X17.312 Y218.536 E72.37261
G1 X17.25 Y218.522 E72.37473
G1 X16.614 Y218.357 E72.39658
G1 X16.39 Y218.291 E72.40435
G1 X15.536 Y217.998 E72.43438
G1 X14.711 Y217.63 E72.46442
G1 X13.922 Y217.191 E72.49445
G1 X13.175 Y216.683 E72.5245
G1 X12.381 Y216.026 E72.55878
G1 X12.297 Y215.949 E72.56257
G1 X11.895 Y215.561 E72.58115
G1 X11.72 Y215.382 E72.58947
G1 X11.118 Y214.708 E72.61953
G1 X10.578 Y213.985 E72.64955
G1 X10.104 Y213.216 E72.67959
G1 X9.535 Y212.017 E72.72373
G1 X9.446 Y211.793 E72.73175
G1 X9.15 Y210.94 E72.76178
G1 X8.93 Y210.064 E72.79182
G1 X8.789 Y209.172 E72.82186
G1 X8.727 Y208.228 E72.85332
G1 X8.707 Y207.213 E72.88709
G1 X8.705 Y207.012 E72.89377
G1 X8.705 Y27.565 E78.86221
G1 X8.714 Y26.917 E78.88376
G1 X8.766 Y26.016 E78.91378
G1 X8.964 Y24.812 E78.95436
G1 X8.978 Y24.75 E78.95647
G1 X9.143 Y24.114 E78.97833
G1 X9.209 Y23.89 E78.98609
G1 X9.502 Y23.036 E79.01612
G1 X9.87 Y22.211 E79.04617
G1 X10.309 Y21.422 E79.0762
G1 X10.817 Y20.675 E79.10625
G1 X11.481 Y19.873 E79.14088
G1 X11.56 Y19.787 E79.14476
G1 X11.97 Y19.366 E79.16431
G1 X12.137 Y19.204 E79.17205
G1 X12.812 Y18.604 E79.20208
G1 X13.538 Y18.067 E79.23212
G1 F2700 E74.23212
;MESH:DeskDrawer3.stl
G0 F6000 X18.653 Y26.159
G0 X19.714 Y27.215
G0 X19.687 Y207.814
G0 X200.395 Y207.995
;TYPE:WALL-INNER
G1 F2700 E79.23212
G1 F1200 X19.596 Y207.996 E85.24552
G1 X19.505 Y207.891 E85.25014
G1 X19.504 Y27.097 E91.26337
G1 X19.605 Y27.005 E91.26792
G1 X200.393 Y27.004 E97.28095
G1 X200.495 Y27.093 E97.28545
G1 X200.496 Y69.6 E98.69924
G1 X200.55 Y69.6 E98.70104
G1 X200.55 Y70.4 E98.72764
G1 X200.496 Y70.4 E98.72944
G1 X200.495 Y165.6 E101.8958
G1 X200.55 Y165.6 E101.89763
G1 X200.55 Y166.4 E101.92424
G1 X200.496 Y166.4 E101.92604
G1 X200.495 Y207.904 E103.30647
G1 X200.395 Y207.995 E103.31096
G0 F6000 X200.465 Y208.395
;TYPE:WALL-OUTER
G1 F1200 X19.522 Y208.396 E109.32915
G1 X19.389 Y208.354 E109.33379
G1 X19.168 Y208.134 E109.34416
G1 X19.105 Y207.959 E109.35035
G1 X19.104 Y27.022 E115.36834
G1 X19.146 Y26.889 E115.37298
G1 X19.369 Y26.666 E115.38347
G1 X19.535 Y26.605 E115.38935
G1 X200.464 Y26.604 E121.40707
G1 X200.631 Y26.665 E121.41298
G1 X200.854 Y26.887 E121.42345
G1 X200.895 Y27.019 E121.42805
G1 X200.896 Y69.2 E122.83099
G1 X200.95 Y69.2 E122.83279
G1 X200.95 Y70.8 E122.88601
G1 X200.896 Y70.8 E122.8878
G1 X200.895 Y165.2 E126.02756
G1 X200.95 Y165.2 E126.02939
G1 X200.95 Y166.8 E126.0826
G1 X200.896 Y166.8 E126.0844
G1 X200.895 Y207.98 E127.45405
G1 X200.854 Y208.111 E127.45862
G1 X200.631 Y208.334 E127.46911
G1 X200.465 Y208.395 E127.47499
G0 F6000 X200.388 Y207.962
G0 X200.105 Y207.605
;TYPE:SKIN
G1 F1200 X19.895 Y207.606 E133.4688
G1 X19.894 Y27.395 E139.46264
G1 X200.105 Y27.394 E145.45648
G1 X200.106 Y69.99 E146.87323
G1 X200.16 Y70.01 E146.87515
G1 X200.106 Y70.01 E146.87694
G1 X200.105 Y165.99 E150.06925
G1 X200.16 Y166.01 E150.0712
G1 X200.106 Y166.01 E150.07299
G1 X200.105 Y207.605 E151.45645
G1 F2700 E146.45645
G0 F6000 X200.385 Y207.606
G0 X20.202 Y207.886
G1 F2700 E151.45645
G0 F6000 X20.202 Y207.444
G1 F1200 X20.054 Y207.296 E151.46341
G0 F6000 X20.054 Y206.73
G1 F1200 X20.768 Y207.444 E151.49699
G0 F6000 X21.334 Y207.444
G1 F1200 X20.054 Y206.164 E151.5572
G0 F6000 X20.054 Y205.599
G1 F1200 X21.899 Y207.444 E151.64398
G0 F6000 X22.465 Y207.444
G1 F1200 X20.054 Y205.033 E151.75739
G0 F6000 X20.054 Y204.467
G1 F1200 X23.031 Y207.444 E151.89742
G0 F6000 X23.596 Y207.444
G1 F1200 X20.054 Y203.902 E152.06402
G0 F6000 X20.054 Y203.336
G1 F1200 X24.162 Y207.444 E152.25725
G0 F6000 X24.728 Y207.444
G1 F1200 X20.054 Y202.77 E152.4771
G0 F6000 X20.054 Y202.204
G1 F1200 X25.293 Y207.444 E152.72355
G0 F6000 X25.859 Y207.444
G1 F1200 X20.054 Y201.639 E152.9966
G0 F6000 X20.054 Y201.073
G1 F1200 X26.425 Y207.444 E153.29627
G0 F6000 X26.99 Y207.444
G1 F1200 X20.054 Y200.507 E153.62255
G0 F6000 X20.054 Y199.942
G1 F1200 X27.556 Y207.444 E153.97542
G0 F6000 X28.122 Y207.444
G1 F1200 X20.054 Y199.376 E154.35491
G0 F6000 X20.054 Y198.81
G1 F1200 X28.688 Y207.444 E154.76103
G0 F6000 X29.253 Y207.444
G1 F1200 X20.054 Y198.245 E155.19372
G0 F6000 X20.054 Y197.679
G1 F1200 X29.819 Y207.444 E155.65304
G0 F6000 X30.385 Y207.444
G1 F1200 X20.054 Y197.113 E156.13898
G0 F6000 X20.054 Y196.548
G1 F1200 X30.95 Y207.444 E156.65149
G0 F6000 X31.516 Y207.444
G1 F1200 X20.054 Y195.982 E157.19063
G0 F6000 X20.054 Y195.416
G1 F1200 X32.082 Y207.444 E157.75639
G0 F6000 X32.647 Y207.444
G1 F1200 X20.054 Y194.851 E158.34872
G0 F6000 X20.054 Y194.285
G1 F1200 X33.213 Y207.444 E158.96768
G0 F6000 X33.779 Y207.444
G1 F1200 X20.054 Y193.719 E159.61326
G0 F6000 X20.054 Y193.153
G1 F1200 X34.344 Y207.444 E160.28545
G0 F6000 X34.91 Y207.444
G1 F1200 X20.054 Y192.588 E160.98423
G0 F6000 X20.054 Y192.022
G1 F1200 X35.476 Y207.444 E161.70963
G0 F6000 X36.041 Y207.444
G1 F1200 X20.054 Y191.456 E162.46163
G0 F6000 X20.054 Y190.891
G1 F1200 X36.607 Y207.444 E163.24024
G0 F6000 X37.173 Y207.444
G1 F1200 X20.054 Y190.325 E164.04546
G0 F6000 X20.054 Y189.759
G1 F1200 X37.738 Y207.444 E164.87729
G0 F6000 X38.304 Y207.444
G1 F1200 X20.054 Y189.194 E165.73571
G0 F6000 X20.054 Y188.628
G1 F1200 X38.87 Y207.444 E166.62076
G0 F6000 X39.436 Y207.444
G1 F1200 X20.054 Y188.062 E167.53243
G0 F6000 X20.054 Y187.497
G1 F1200 X40.001 Y207.444 E168.47067
G0 F6000 X40.567 Y207.444
G1 F1200 X20.054 Y186.931 E169.43554
G0 F6000 X20.054 Y186.365
G1 F1200 X41.133 Y207.444 E170.42703
G0 F6000 X41.698 Y207.444
G1 F1200 X20.054 Y185.8 E171.4451
G0 F6000 X20.054 Y185.234
G1 F1200 X42.264 Y207.444 E172.48979
