;FLAVOR:Marlin
;TIME:68489
;Filament used: 51.5235m
;Layer height: 0.2
;MINX:11.5
;MINY:89
;MINZ:0.2
;MAXX:223.5
;MAXY:146
;MAXZ:190
;Generated with Cura_SteamEngine 4.13.1
M140 S60
M105
M190 S60
M104 S200
M105
M109 S200
M82 ;absolute extrusion mode
; Ender 3 Custom Start G-code
G92 E0 ; Reset Extruder
G28 ; Home all axes
G1 Z2.0 F3000 ; Move Z Axis up little to prevent scratching of Heat Bed
G1 X0.1 Y20 Z0.3 F5000.0 ; Move to start position
G1 X0.1 Y200.0 Z0.3 F1500.0 E15 ; Draw the first line
G1 X0.4 Y200.0 Z0.3 F5000.0 ; Move to side a little
G1 X0.4 Y20 Z0.3 F1500.0 E30 ; Draw the second line
G92 E0 ; Reset Extruder
G1 Z2.0 F3000 ; Move Z Axis up little to prevent scratching of Heat Bed
G1 X5 Y20 Z0.3 F5000.0 ; Move over to prevent blob squish
G92 E0
G92 E0
G1 F2700 E-5
;LAYER_COUNT:950
;LAYER:0
M107
G0 F6000 X20.403 Y89.213 Z0.2
;TYPE:SKIRT
G1 F2700 E0
G1 F1200 X21.33 Y89.072 E0.03119
G1 X22.201 Y89.013 E0.06022
G1 X22.522 Y89.004 E0.0709
G1 X22.83 Y89 E0.08115
G1 X211.793 Y89 E6.36608
G1 X212.649 Y89.011 E6.39456
G1 X213.585 Y89.065 E6.42574
G1 X214.513 Y89.197 E6.45692
G1 X215.427 Y89.409 E6.48812
G1 X216.319 Y89.698 E6.51931
G1 X217.184 Y90.061 E6.55051
G1 X218.014 Y90.497 E6.58169
G1 X218.805 Y91.002 E6.61291
G1 X219.549 Y91.573 E6.6441
G1 X220.242 Y92.205 E6.67529
G1 X220.879 Y92.893 E6.70648
G1 X221.454 Y93.634 E6.73767
G1 X221.965 Y94.42 E6.76886
G1 X222.407 Y95.248 E6.80007
G1 X222.776 Y96.11 E6.83126
G1 X223.071 Y97 E6.86245
G1 X223.289 Y97.912 E6.89363
G1 X223.429 Y98.84 E6.92485
G1 X223.487 Y99.701 E6.95355
G1 X223.496 Y100.021 E6.9642
G1 X223.5 Y100.33 E6.97448
G1 X223.499 Y134.4 E8.10765
G1 X223.49 Y135.127 E8.13183
G1 X223.439 Y136.064 E8.16304
G1 X223.307 Y136.992 E8.19422
G1 X223.098 Y137.906 E8.2254
G1 X222.811 Y138.799 E8.2566
G1 X222.449 Y139.665 E8.28782
G1 X222.015 Y140.496 E8.319
G1 X221.511 Y141.287 E8.35019
G1 X220.942 Y142.032 E8.38137
G1 X220.311 Y142.727 E8.4126
G1 X219.624 Y143.365 E8.44378
G1 X218.885 Y143.942 E8.47496
G1 X218.099 Y144.454 E8.50616
G1 X217.273 Y144.897 E8.53734
G1 X216.411 Y145.269 E8.56856
G1 X215.522 Y145.565 E8.59973
G1 X214.61 Y145.785 E8.63093
G1 X213.683 Y145.926 E8.66212
G1 X212.799 Y145.987 E8.69159
G1 X212.478 Y145.996 E8.70227
G1 X212.17 Y146 E8.71252
G1 X23.065 Y145.999 E15.00217
G1 X22.367 Y145.99 E15.02539
G1 X21.431 Y145.938 E15.05657
G1 X20.502 Y145.806 E15.08778
G1 X19.588 Y145.596 E15.11897
G1 X18.695 Y145.309 E15.15017
G1 X17.83 Y144.946 E15.18137
G1 X16.999 Y144.512 E15.21255
G1 X16.208 Y144.008 E15.24375
G1 X15.463 Y143.438 E15.27495
G1 X14.769 Y142.807 E15.30614
G1 X14.132 Y142.12 E15.3373
G1 X13.555 Y141.38 E15.36851
G1 X13.043 Y140.594 E15.39971
G1 X12.6 Y139.767 E15.43092
G1 X12.229 Y138.906 E15.4621
G1 X11.933 Y138.016 E15.4933
G1 X11.714 Y137.104 E15.52449
G1 X11.573 Y136.177 E15.55568
G1 X11.513 Y135.288 E15.58531
G1 X11.504 Y134.955 E15.59639
G1 X11.5 Y134.658 E15.60627
G1 X11.501 Y100.525 E16.74154
G1 X11.51 Y99.86 E16.76366
G1 X11.563 Y98.924 E16.79484
G1 X11.695 Y97.995 E16.82605
G1 X11.906 Y97.081 E16.85725
G1 X12.194 Y96.189 E16.88843
G1 X12.557 Y95.324 E16.91963
G1 X12.992 Y94.493 E16.95082
G1 X13.496 Y93.703 E16.98199
G1 X14.066 Y92.958 E17.01319
G1 X14.698 Y92.264 E17.04441
G1 X15.386 Y91.627 E17.07559
G1 X16.126 Y91.051 E17.10678
G1 X16.912 Y90.539 E17.13798
G1 X17.739 Y90.097 E17.16917
G1 X18.601 Y89.727 E17.20037
G1 X19.491 Y89.431 E17.23157
G1 X20.403 Y89.213 E17.26276
G0 F6000 X20.745 Y89.557
G1 F1200 X21.659 Y89.443 E17.29339
G1 X22.212 Y89.413 E17.31181
G1 X22.533 Y89.404 E17.32249
G1 X22.83 Y89.4 E17.33237
G1 X211.793 Y89.4 E23.61731
G1 X212.643 Y89.411 E23.64558
G1 X213.562 Y89.464 E23.6762
G1 X214.473 Y89.597 E23.70682
G1 X215.369 Y89.808 E23.73743
G1 X216.243 Y90.096 E23.76804
G1 X217.09 Y90.459 E23.79869
G1 X217.901 Y90.894 E23.8293
G1 X218.671 Y91.398 E23.85991
G1 X219.395 Y91.967 E23.89054
G1 X220.067 Y92.597 E23.92117
G1 X220.682 Y93.282 E23.95179
G1 X221.235 Y94.018 E23.98241
G1 X221.722 Y94.799 E24.01302
G1 X222.139 Y95.62 E24.04365
G1 X222.484 Y96.474 E24.07428
G1 X222.753 Y97.354 E24.10489
G1 X222.945 Y98.255 E24.13553
G1 X223.058 Y99.168 E24.16613
G1 X223.087 Y99.712 E24.18425
G1 X223.096 Y100.032 E24.19489
G1 X223.1 Y100.33 E24.20481
G1 X223.099 Y134.395 E25.33781
G1 X223.09 Y135.122 E25.362
G1 X223.039 Y136.041 E25.39261
G1 X222.908 Y136.953 E25.42325
G1 X222.698 Y137.849 E25.45386
G1 X222.412 Y138.724 E25.48448
G1 X222.051 Y139.571 E25.5151
G1 X221.617 Y140.383 E25.54573
G1 X221.115 Y141.155 E25.57635
G1 X220.547 Y141.88 E25.60699
G1 X219.919 Y142.553 E25.6376
G1 X219.235 Y143.169 E25.66822
G1 X218.5 Y143.723 E25.69883
G1 X217.72 Y144.212 E25.72945
G1 X216.9 Y144.631 E25.76008
G1 X216.047 Y144.977 E25.79069
G1 X215.167 Y145.248 E25.82132
G1 X214.267 Y145.441 E25.85193
G1 X213.353 Y145.556 E25.88257
G1 X212.788 Y145.587 E25.90139
G1 X212.467 Y145.596 E25.91207
G1 X212.17 Y145.6 E25.92195
G1 X23.07 Y145.599 E32.21144
G1 X22.372 Y145.59 E32.23466
G1 X21.453 Y145.538 E32.26528
G1 X20.542 Y145.407 E32.29589
G1 X19.646 Y145.197 E32.3265
G1 X18.771 Y144.91 E32.35713
G1 X17.924 Y144.548 E32.38776
G1 X17.112 Y144.114 E32.41839
G1 X16.341 Y143.612 E32.44899
G1 X15.616 Y143.044 E32.47962
G1 X14.943 Y142.415 E32.51026
G1 X14.328 Y141.731 E32.54085
G1 X13.774 Y140.996 E32.57146
G1 X13.286 Y140.215 E32.60209
G1 X12.867 Y139.395 E32.63272
G1 X12.521 Y138.542 E32.66334
G1 X12.251 Y137.662 E32.69395
G1 X12.058 Y136.761 E32.7246
G1 X11.944 Y135.848 E32.7552
G1 X11.913 Y135.277 E32.77422
G1 X11.904 Y134.944 E32.7853
G1 X11.9 Y134.658 E32.79481
G1 X11.901 Y100.531 E33.92988
G1 X11.91 Y99.866 E33.952
G1 X11.962 Y98.946 E33.98265
G1 X12.094 Y98.035 E34.01327
G1 X12.305 Y97.139 E34.04388
G1 X12.592 Y96.264 E34.07451
G1 X12.955 Y95.418 E34.10513
G1 X13.389 Y94.606 E34.13575
G1 X13.892 Y93.835 E34.16637
G1 X14.461 Y93.111 E34.197
G1 X15.089 Y92.439 E34.22759
G1 X15.774 Y91.823 E34.25823
G1 X16.51 Y91.27 E34.28885
G1 X17.291 Y90.782 E34.31948
G1 X18.111 Y90.364 E34.35009
G1 X18.965 Y90.019 E34.38073
G1 X19.845 Y89.749 E34.41134
G1 X20.745 Y89.557 E34.44195
G0 F6000 X20.196 Y90.075
G1 F1200 X21.084 Y89.909 E34.472
G1 X22.223 Y89.813 E34.51001
G1 X22.544 Y89.804 E34.5207
G1 X22.83 Y89.8 E34.53021
G1 X211.793 Y89.8 E40.81514
G1 X212.637 Y89.811 E40.84322
G1 X213.539 Y89.864 E40.87327
G1 X214.432 Y89.996 E40.90329
G1 X215.31 Y90.207 E40.93333
G1 X216.166 Y90.495 E40.96337
G1 X216.993 Y90.857 E40.99339
G1 X217.785 Y91.292 E41.02345
G1 X218.536 Y91.794 E41.05349
G1 X219.239 Y92.361 E41.08353
G1 X219.889 Y92.988 E41.11357
G1 X220.481 Y93.67 E41.14361
G1 X221.011 Y94.401 E41.17364
G1 X221.473 Y95.177 E41.20367
G1 X221.866 Y95.99 E41.23371
G1 X222.184 Y96.835 E41.26374
G1 X222.427 Y97.705 E41.29378
G1 X222.592 Y98.593 E41.32382
G1 X222.687 Y99.723 E41.36154
G1 X222.696 Y100.043 E41.37219
G1 X222.7 Y100.33 E41.38173
G1 X222.699 Y134.39 E42.51457
G1 X222.69 Y135.117 E42.53875
G1 X222.639 Y136.019 E42.5688
G1 X222.508 Y136.913 E42.59886
G1 X222.299 Y137.791 E42.62887
G1 X222.013 Y138.648 E42.65892
G1 X221.652 Y139.476 E42.68897
G1 X221.22 Y140.268 E42.71897
G1 X220.719 Y141.02 E42.74903
G1 X220.153 Y141.724 E42.77907
G1 X219.528 Y142.375 E42.80909
G1 X218.847 Y142.969 E42.83914
G1 X218.116 Y143.5 E42.86919
G1 X217.342 Y143.964 E42.89921
G1 X216.529 Y144.358 E42.92926
G1 X215.685 Y144.678 E42.95928
G1 X214.815 Y144.923 E42.98934
G1 X213.928 Y145.089 E43.01935
G1 X212.777 Y145.187 E43.05777
G1 X212.456 Y145.196 E43.06845
G1 X212.17 Y145.2 E43.07797
G1 X23.075 Y145.199 E49.36729
G1 X22.377 Y145.19 E49.39051
G1 X21.476 Y145.139 E49.42053
G1 X20.582 Y145.007 E49.45058
G1 X19.704 Y144.798 E49.4806
G1 X18.847 Y144.511 E49.51066
G1 X18.02 Y144.15 E49.54067
G1 X17.227 Y143.717 E49.57072
G1 X16.476 Y143.216 E49.60075
G1 X15.772 Y142.65 E49.6308
G1 X15.121 Y142.024 E49.66083
G1 X14.528 Y141.343 E49.69087
G1 X13.998 Y140.612 E49.7209
G1 X13.534 Y139.837 E49.75094
G1 X13.14 Y139.024 E49.78099
G1 X12.82 Y138.18 E49.81101
G1 X12.576 Y137.31 E49.84107
G1 X12.41 Y136.422 E49.87111
G1 X12.313 Y135.267 E49.90966
G1 X12.304 Y134.934 E49.92074
G1 X12.3 Y134.658 E49.92992
G1 X12.301 Y100.536 E51.06483
G1 X12.31 Y99.871 E51.08695
G1 X12.362 Y98.969 E51.117
G1 X12.494 Y98.076 E51.14702
G1 X12.704 Y97.198 E51.17705
G1 X12.991 Y96.341 E51.20711
G1 X13.353 Y95.514 E51.23713
G1 X13.786 Y94.722 E51.26715
G1 X14.288 Y93.971 E51.2972
G1 X14.855 Y93.267 E51.32726
G1 X15.481 Y92.617 E51.35728
G1 X16.162 Y92.024 E51.38731
G1 X16.894 Y91.494 E51.41737
G1 X17.669 Y91.031 E51.4474
G1 X18.482 Y90.638 E51.47743
G1 X19.327 Y90.318 E51.50748
G1 X20.196 Y90.075 E51.5375
G1 F2700 E46.5375
;MESH:DeskDrawerCase.stl
G0 F6000 X23.31 Y99.335
G0 X23.31 Y100.81
G0 X23.282 Y134.218
G0 X211.9 Y134.4
;TYPE:WALL-INNER
G1 F2700 E51.5375
G1 F1200 X23.1 Y134.4 E57.81701
G1 X23.1 Y100.6 E58.9412
G1 X211.9 Y100.6 E65.22072
G1 X211.9 Y134.4 E66.34491
G0 F6000 X212.3 Y134.8
;TYPE:WALL-OUTER
G1 F1200 X22.7 Y134.8 E72.65103
G1 X22.7 Y100.2 E73.80183
G1 X212.3 Y100.2 E80.10795
G1 X212.3 Y134.8 E81.25875
G0 F6000 X212.03 Y134.53
G0 X211.79 Y134.01
G0 X211.51 Y134.01
;TYPE:SKIN
G1 F1200 X23.49 Y134.01 E87.51232
G1 X23.49 Y100.99 E88.61057
G1 X211.51 Y100.99 E94.86414
G1 X211.51 Y134.01 E95.96239
G1 F2700 E90.96239
G0 F6000 X211.79 Y134.01
G0 X211.79 Y101.606
G1 F2700 E95.96239
G0 F6000 X211.349 Y101.606
G1 F1200 X210.892 Y101.149 E95.98389
G0 F6000 X210.326 Y101.149
G1 F1200 X211.349 Y102.171 E96.03198
G0 F6000 X211.349 Y102.737
G1 F1200 X209.761 Y101.149 E96.10668
G0 F6000 X209.195 Y101.149
G1 F1200 X211.349 Y103.303 E96.208
G0 F6000 X211.349 Y103.869
G1 F1200 X208.629 Y101.149 E96.33594
G0 F6000 X208.064 Y101.149
G1 F1200 X211.349 Y104.434 E96.49045
G0 F6000 X211.349 Y105
G1 F1200 X207.498 Y101.149 E96.67159
G0 F6000 X206.932 Y101.149
G1 F1200 X211.349 Y105.566 E96.87935
G0 F6000 X211.349 Y106.131
G1 F1200 X206.366 Y101.149 E97.11372
G0 F6000 X205.801 Y101.149
G1 F1200 X211.349 Y106.697 E97.37468
G0 F6000 X211.349 Y107.263
G1 F1200 X205.235 Y101.149 E97.66226
G0 F6000 X204.669 Y101.149
G1 F1200 X211.349 Y107.828 E97.97644
G0 F6000 X211.349 Y108.394
G1 F1200 X204.104 Y101.149 E98.31723
G0 F6000 X203.538 Y101.149
G1 F1200 X211.349 Y108.96 E98.68463
G0 F6000 X211.349 Y109.525
G1 F1200 X202.972 Y101.149 E99.07864
G0 F6000 X202.407 Y101.149
G1 F1200 X211.349 Y110.091 E99.49924
G0 F6000 X211.349 Y110.657
G1 F1200 X201.841 Y101.149 E99.94647
G0 F6000 X201.275 Y101.149
G1 F1200 X211.349 Y111.222 E100.42029
G0 F6000 X211.349 Y111.788
G1 F1200 X200.71 Y101.149 E100.92072
G0 F6000 X200.144 Y101.149
G1 F1200 X211.349 Y112.354 E101.44777
G0 F6000 X211.349 Y112.92
G1 F1200 X199.578 Y101.149 E102.00144
G0 F6000 X199.013 Y101.149
G1 F1200 X211.349 Y113.485 E102.58169
G0 F6000 X211.349 Y114.051
G1 F1200 X198.447 Y101.149 E103.18856
G0 F6000 X197.881 Y101.149
G1 F1200 X211.349 Y114.617 E103.82205
G0 F6000 X211.349 Y115.182
G1 F1200 X197.316 Y101.149 E104.48212
G0 F6000 X196.75 Y101.149
G1 F1200 X211.349 Y115.748 E105.16881
G0 F6000 X211.349 Y116.314
G1 F1200 X196.184 Y101.149 E105.88213
G0 F6000 X195.618 Y101.149
G1 F1200 X211.349 Y116.879 E106.62204
G0 F6000 X211.349 Y117.445
G1 F1200 X195.053 Y101.149 E107.38856
G0 F6000 X194.487 Y101.149
G1 F1200 X211.349 Y118.011 E108.18169
G0 F6000 X211.349 Y118.576
G1 F1200 X193.921 Y101.149 E109.00143
G0 F6000 X193.356 Y101.149
G1 F1200 X211.349 Y119.142 E109.84777
G0 F6000 X211.349 Y119.708
G1 F1200 X192.79 Y101.149 E110.72072
G0 F6000 X192.224 Y101.149
G1 F1200 X211.349 Y120.273 E111.62028
G0 F6000 X211.349 Y120.839
G1 F1200 X191.659 Y101.149 E112.54644
G0 F6000 X191.093 Y101.149
G1 F1200 X211.349 Y121.405 E113.49922
G0 F6000 X211.349 Y121.97
G1 F1200 X190.527 Y101.149 E114.4786
G0 F6000 X189.962 Y101.149
G1 F1200 X211.349 Y122.536 E115.48458
G0 F6000 X211.349 Y123.102
G1 F1200 X189.396 Y101.149 E116.51718
G0 F6000 X188.83 Y101.149
G1 F1200 X211.349 Y123.668 E117.5764
G0 F6000 X211.349 Y124.233
G1 F1200 X188.265 Y101.149 E118.66221
G0 F6000 X187.699 Y101.149
G1 F1200 X211.349 Y124.799 E119.77463
G0 F6000 X211.349 Y125.365
G1 F1200 X187.133 Y101.149 E120.91368
G0 F6000 X186.568 Y101.149
G1 F1200 X211.349 Y125.93 E122.0793
G0 F6000 X211.349 Y126.496
G1 F1200 X186.002 Y101.149 E123.27154
G0 F6000 X185.436 Y101.149
G1 F1200 X211.349 Y127.062 E124.49041
G0 F6000 X211.349 Y127.627
G1 F1200 X184.87 Y101.149 E125.73588
G0 F6000 X184.305 Y101.149
G1 F1200 X211.349 Y128.193 E127.00795
G0 F6000 X211.349 Y128.759
G1 F1200 X183.739 Y101.149 E128.30663
G0 F6000 X183.173 Y101.149
G1 F1200 X211.349 Y129.324 E129.63192
G0 F6000 X211.349 Y129.89
G1 F1200 X182.608 Y101.149 E130.98381
G0 F6000 X182.042 Y101.149
G1 F1200 X211.349 Y130.456 E132.36232
G0 F6000 X211.349 Y131.021
G1 F1200 X181.476 Y101.149 E133.76743
G0 F6000 X180.911 Y101.149
G1 F1200 X211.349 Y131.587 E135.19914
G0 F6000 X211.349 Y132.153
G1 F1200 X180.345 Y101.149 E136.65748
G0 F6000 X179.779 Y101.149
G1 F1200 X211.349 Y132.718 E138.14241
G0 F6000 X211.349 Y133.284
G1 F1200 X179.214 Y101.149 E139.65394
G0 F6000 X178.648 Y101.149
G1 F1200 X211.349 Y133.85 E141.1921
G0 F6000 X210.782 Y133.849
G1 F1200 X178.082 Y101.149 E142.7302
G0 F6000 X177.517 Y101.149
G1 F1200 X210.217 Y133.849 E144.26831
G0 F6000 X209.651 Y133.849
G1 F1200 X176.951 Y101.149 E145.80642
G0 F6000 X176.385 Y101.149
G1 F1200 X209.085 Y133.849 E147.34453
G0 F6000 X208.52 Y133.849
G1 F1200 X175.819 Y101.149 E148.88266
G0 F6000 X175.254 Y101.149
G1 F1200 X207.954 Y133.849 E150.42077
G0 F6000 X207.388 Y133.849
G1 F1200 X174.688 Y101.149 E151.95887
G0 F6000 X174.122 Y101.149
G1 F1200 X206.823 Y133.849 E153.49701
G0 F6000 X206.257 Y133.849
G1 F1200 X173.557 Y101.149 E155.03511
G0 F6000 X172.991 Y101.149
G1 F1200 X205.691 Y133.849 E156.57322
G0 F6000 X205.126 Y133.849
G1 F1200 X172.425 Y101.149 E158.11135
G0 F6000 X171.86 Y101.149
G1 F1200 X204.56 Y133.849 E159.64946
G0 F6000 X203.994 Y133.849
G1 F1200 X171.294 Y101.149 E161.18757
G0 F6000 X170.728 Y101.149
G1 F1200 X203.428 Y133.849 E162.72568
G0 F6000 X202.863 Y133.849
G1 F1200 X170.163 Y101.149 E164.26378
G0 F6000 X169.597 Y101.149
G1 F1200 X202.297 Y133.849 E165.80189
G0 F6000 X201.731 Y133.849
G1 F1200 X169.031 Y101.149 E167.34
G0 F6000 X168.466 Y101.149
G1 F1200 X201.166 Y133.849 E168.87811
G0 F6000 X200.6 Y133.849
G1 F1200 X167.9 Y101.149 E170.41621
G0 F6000 X167.334 Y101.149
G1 F1200 X200.034 Y133.849 E171.95432
G0 F6000 X199.469 Y133.849
G1 F1200 X166.769 Y101.149 E173.49243
G0 F6000 X166.203 Y101.149
G1 F1200 X198.903 Y133.849 E175.03054
G0 F6000 X198.337 Y133.849
G1 F1200 X165.637 Y101.149 E176.56865
G0 F6000 X165.071 Y101.149
G1 F1200 X197.772 Y133.849 E178.10678
G0 F6000 X197.206 Y133.849
G1 F1200 X164.506 Y101.149 E179.64488
G0 F6000 X163.94 Y101.149
G1 F1200 X196.64 Y133.849 E181.18299
G0 F6000 X196.075 Y133.849
G1 F1200 X163.374 Y101.149 E182.72112
G0 F6000 X162.809 Y101.149
G1 F1200 X195.509 Y133.849 E184.25923
G0 F6000 X194.943 Y133.849
G1 F1200 X162.243 Y101.149 E185.79734
G0 F6000 X161.677 Y101.149
G1 F1200 X194.377 Y133.849 E187.33545
G0 F6000 X193.812 Y133.849
G1 F1200 X161.112 Y101.149 E188.87355
G0 F6000 X160.546 Y101.149
G1 F1200 X193.246 Y133.849 E190.41166
G0 F6000 X192.68 Y133.849
G1 F1200 X159.98 Y101.149 E191.94977
G0 F6000 X159.415 Y101.149
G1 F1200 X192.115 Y133.849 E193.48788
G0 F6000 X191.549 Y133.849
G1 F1200 X158.849 Y101.149 E195.02599
G0 F6000 X158.283 Y101.149
G1 F1200 X190.983 Y133.849 E196.56409
G0 F6000 X190.418 Y133.849
G1 F1200 X157.718 Y101.149 E198.1022
G0 F6000 X157.152 Y101.149
G1 F1200 X189.852 Y133.849 E199.64031
G0 F6000 X189.286 Y133.849
G1 F1200 X156.586 Y101.149 E201.17842
G0 F6000 X156.02 Y101.149
G1 F1200 X188.721 Y133.849 E202.71655
G0 F6000 X188.155 Y133.849
G1 F1200 X155.455 Y101.149 E204.25466
G0 F6000 X154.889 Y101.149
G1 F1200 X187.589 Y133.849 E205.79276
G0 F6000 X187.024 Y133.849
G1 F1200 X154.323 Y101.149 E207.33089
G0 F6000 X153.758 Y101.149
G1 F1200 X186.458 Y133.849 E208.869
G0 F6000 X185.892 Y133.849
G1 F1200 X153.192 Y101.149 E210.40711
G0 F6000 X152.626 Y101.149
G1 F1200 X185.327 Y133.849 E211.94524
G0 F6000 X184.761 Y133.849
