;FLAVOR:Marlin
;TIME:1797
;Filament used: 0.590319m
;Layer height: 0.2
;MINX:101.514
;MINY:101.514
;MINZ:0.2
;MAXX:133.486
;MAXY:133.486
;MAXZ:30
;Generated with Cura_SteamEngine main
M140 S60
M105
M190 S60
M104 S200
M105
M109 S200
M82 ;absolute extrusion mode
; Ender 3 Custom Start G-code
G92 E0 ; Reset Extruder
G28 ; Home all axes
G1 Z2.0 F3000 ; Move Z Axis up little to prevent scratching of Heat Bed
G1 X0.1 Y20 Z0.3 F5000.0 ; Move to start position
G1 X0.1 Y200.0 Z0.3 F1500.0 E15 ; Draw the first line
G1 X0.4 Y200.0 Z0.3 F5000.0 ; Move to side a little
G1 X0.4 Y20 Z0.3 F1500.0 E30 ; Draw the second line
G92 E0 ; Reset Extruder
G1 Z2.0 F3000 ; Move Z Axis up little to prevent scratching of Heat Bed
G1 X5 Y20 Z0.3 F5000.0 ; Move over to prevent blob squish
G92 E0
G92 E0
G1 F2700 E-5
;LAYER_COUNT:150
;LAYER:0
M107
G0 F6000 X106.168 Y106.228 Z0.2
G0 X101.627 Y115.614
;TYPE:SKIRT
G1 F2700 E0
G1 F1200 X101.719 Y114.957 E0.02207
G1 X102 Y113.59 E0.06848
G1 X102.133 Y113.102 E0.08531
G1 X102.386 Y112.29 E0.11359
G1 X102.643 Y111.604 E0.13796
G1 X102.849 Y111.105 E0.15591
G1 X103.466 Y109.844 E0.20261
G1 X103.71 Y109.417 E0.21896
G1 X104.052 Y108.858 E0.24076
G1 X104.216 Y108.607 E0.25073
G1 X104.64 Y108.004 E0.27525
G1 X104.799 Y107.793 E0.28404
G1 X105.189 Y107.305 E0.30481
G1 X105.399 Y107.057 E0.31562
G1 X105.892 Y106.513 E0.34004
G1 X106.168 Y106.228 E0.35324
G1 X106.689 Y105.724 E0.37735
G1 X107.335 Y105.164 E0.40578
G1 X107.631 Y104.926 E0.41841
G1 X108.159 Y104.528 E0.44041
G1 X108.369 Y104.379 E0.44897
G1 X108.979 Y103.976 E0.47329
G1 X109.238 Y103.817 E0.48339
G1 X109.837 Y103.474 E0.50635
G1 X110.278 Y103.24 E0.52296
G1 X111.524 Y102.675 E0.56846
G1 X112.121 Y102.448 E0.5897
G1 X113.44 Y102.04 E0.63563
G1 X114.03 Y101.897 E0.65582
G1 X115.384 Y101.657 E0.70155
G1 X116.038 Y101.583 E0.72344
G1 X117.425 Y101.514 E0.76963
G1 X118.012 Y101.522 E0.78916
G1 X119.388 Y101.627 E0.83506
G1 X120.052 Y101.72 E0.85736
G1 X120.974 Y101.89 E0.88854
G1 X121.437 Y102.006 E0.90442
G1 X121.918 Y102.138 E0.92101
G1 X122.729 Y102.393 E0.94928
G1 X123.396 Y102.643 E0.97297
G1 X123.893 Y102.848 E0.99085
G1 X124.744 Y103.242 E1.02204
G1 X125.157 Y103.466 E1.03767
G1 X125.584 Y103.71 E1.05403
G1 X126.152 Y104.058 E1.07618
G1 X126.404 Y104.223 E1.0862
G1 X127.055 Y104.678 E1.11262
G1 X127.722 Y105.211 E1.14102
G1 X128.046 Y105.488 E1.15519
G1 X128.682 Y106.074 E1.18396
G1 X129.201 Y106.608 E1.20873
G1 X129.427 Y106.857 E1.21991
G1 X129.862 Y107.367 E1.24221
G1 X130.081 Y107.64 E1.25385
G1 X130.464 Y108.146 E1.27495
G1 X130.612 Y108.354 E1.28344
G1 X131.027 Y108.982 E1.30848
G1 X131.187 Y109.243 E1.31866
G1 X131.521 Y109.827 E1.34104
G1 X131.755 Y110.267 E1.35761
G1 X132.323 Y111.517 E1.40328
G1 X132.55 Y112.113 E1.42449
G1 X132.96 Y113.436 E1.47056
G1 X133.104 Y114.03 E1.49089
G1 X133.346 Y115.398 E1.53709
G1 X133.419 Y116.05 E1.55892
G1 X133.486 Y117.424 E1.60467
G1 X133.478 Y118.011 E1.62419
G1 X133.373 Y119.387 E1.67009
G1 X133.28 Y120.051 E1.69239
G1 X133.11 Y120.973 E1.72358
G1 X132.994 Y121.436 E1.73945
G1 X132.862 Y121.917 E1.75604
G1 X132.614 Y122.71 E1.78368
G1 X132.348 Y123.417 E1.8088
G1 X132.14 Y123.918 E1.82684
G1 X131.539 Y125.145 E1.87229
G1 X131.298 Y125.568 E1.88848
G1 X130.949 Y126.14 E1.91076
G1 X130.785 Y126.391 E1.92074
G1 X130.371 Y126.981 E1.94471
G1 X130.211 Y127.194 E1.95357
G1 X129.81 Y127.696 E1.97494
G1 X129.572 Y127.977 E1.98719
G1 X129.086 Y128.514 E2.01128
G1 X128.911 Y128.695 E2.01965
G1 X128.395 Y129.195 E2.04355
G1 X128.103 Y129.46 E2.05666
G1 X127.592 Y129.896 E2.07901
G1 X127.375 Y130.07 E2.08826
G1 X126.865 Y130.455 E2.10951
G1 X126.637 Y130.617 E2.11881
G1 X126.021 Y131.024 E2.14337
G1 X125.762 Y131.183 E2.15348
G1 X125.172 Y131.521 E2.17609
G1 X124.732 Y131.755 E2.19267
G1 X123.486 Y132.321 E2.23819
G1 X122.888 Y132.549 E2.25947
G1 X121.998 Y132.846 E2.29068
G1 X121.543 Y132.966 E2.30633
G1 X120.953 Y133.108 E2.32651
G1 X119.616 Y133.343 E2.37166
G1 X118.962 Y133.417 E2.39355
G1 X117.575 Y133.486 E2.43974
G1 X116.988 Y133.478 E2.45927
G1 X115.612 Y133.373 E2.50517
G1 X114.948 Y133.28 E2.52747
G1 X114.026 Y133.11 E2.55865
G1 X113.563 Y132.994 E2.57453
G1 X113.082 Y132.862 E2.59112
G1 X112.271 Y132.607 E2.61939
G1 X111.604 Y132.357 E2.64308
G1 X111.107 Y132.152 E2.66096
G1 X110.256 Y131.758 E2.69215
G1 X109.843 Y131.534 E2.70778
G1 X109.416 Y131.29 E2.72414
G1 X108.831 Y130.93 E2.74698
G1 X108.577 Y130.763 E2.7571
G1 X107.939 Y130.316 E2.78301
G1 X107.268 Y129.78 E2.81157
G1 X106.949 Y129.507 E2.82553
G1 X106.424 Y129.028 E2.84917
G1 X105.83 Y128.424 E2.87735
G1 X105.603 Y128.176 E2.88853
G1 X105.134 Y127.628 E2.91252
G1 X104.916 Y127.356 E2.92411
G1 X104.528 Y126.842 E2.94553
G1 X104.379 Y126.632 E2.9541
G1 X103.982 Y126.032 E2.97803
G1 X103.822 Y125.772 E2.98818
G1 X103.473 Y125.163 E3.01153
G1 X103.239 Y124.722 E3.02813
G1 X102.672 Y123.47 E3.07384
G1 X102.445 Y122.872 E3.09512
G1 X102.042 Y121.575 E3.14029
G1 X101.9 Y120.993 E3.16022
G1 X101.717 Y120.074 E3.19138
G1 X101.654 Y119.603 E3.20719
G1 X101.58 Y118.938 E3.22944
G1 X101.514 Y117.57 E3.27499
G1 X101.522 Y116.988 E3.29435
G1 X101.627 Y115.614 E3.34019
G0 F6000 X101.914 Y117.575
G1 F1200 X101.922 Y116.993 E3.35955
G1 X102.023 Y115.669 E3.40371
G1 X102.115 Y115.012 E3.42578
G1 X102.386 Y113.695 E3.4705
G1 X102.519 Y113.207 E3.48732
G1 X102.765 Y112.418 E3.51481
G1 X103.013 Y111.756 E3.53832
G1 X103.219 Y111.257 E3.55628
G1 X103.814 Y110.043 E3.60124
G1 X104.058 Y109.616 E3.6176
G1 X104.387 Y109.077 E3.6386
G1 X104.551 Y108.826 E3.64858
G1 X104.959 Y108.245 E3.67219
G1 X105.118 Y108.034 E3.68098
G1 X105.495 Y107.563 E3.70104
G1 X105.705 Y107.315 E3.71185
G1 X106.179 Y106.791 E3.73535
G1 X106.455 Y106.506 E3.74855
G1 X106.957 Y106.021 E3.77176
G1 X107.586 Y105.476 E3.79944
G1 X107.882 Y105.238 E3.81208
G1 X108.39 Y104.854 E3.83326
G1 X108.6 Y104.705 E3.84182
G1 X109.188 Y104.316 E3.86527
G1 X109.447 Y104.157 E3.87538
G1 X110.025 Y103.828 E3.8975
G1 X110.466 Y103.594 E3.9141
G1 X111.667 Y103.049 E3.95797
G1 X112.264 Y102.822 E3.97921
G1 X113.534 Y102.428 E4.02344
G1 X114.124 Y102.285 E4.04363
G1 X115.429 Y102.054 E4.08771
G1 X116.083 Y101.98 E4.1096
G1 X117.419 Y101.914 E4.15409
G1 X118.006 Y101.922 E4.17362
G1 X119.332 Y102.023 E4.21785
G1 X119.996 Y102.116 E4.24015
G1 X121.331 Y102.392 E4.28549
G1 X121.812 Y102.524 E4.30208
G1 X122.6 Y102.772 E4.32955
G1 X123.244 Y103.013 E4.35242
G1 X123.741 Y103.218 E4.37031
G1 X124.958 Y103.814 E4.41538
G1 X125.385 Y104.058 E4.43173
G1 X125.933 Y104.393 E4.4531
G1 X126.185 Y104.558 E4.46311
G1 X126.816 Y104.999 E4.48872
G1 X127.462 Y105.515 E4.51622
G1 X127.786 Y105.792 E4.5304
G1 X128.405 Y106.362 E4.55838
G1 X128.905 Y106.877 E4.58226
G1 X129.131 Y107.126 E4.59344
G1 X129.55 Y107.617 E4.61491
G1 X129.769 Y107.89 E4.62655
G1 X130.138 Y108.378 E4.6469
G1 X130.286 Y108.586 E4.65539
G1 X130.686 Y109.191 E4.67951
G1 X130.846 Y109.452 E4.68969
G1 X131.168 Y110.015 E4.71127
G1 X131.402 Y110.455 E4.72784
G1 X131.949 Y111.659 E4.77183
G1 X132.176 Y112.255 E4.79304
G1 X132.572 Y113.531 E4.83748
G1 X132.716 Y114.125 E4.8578
G1 X132.948 Y115.443 E4.90231
G1 X133.021 Y116.095 E4.92414
G1 X133.086 Y117.418 E4.96819
G1 X133.078 Y118.005 E4.98772
G1 X132.977 Y119.331 E5.03195
G1 X132.884 Y119.995 E5.05425
G1 X132.608 Y121.33 E5.09959
G1 X132.476 Y121.811 E5.11618
G1 X132.235 Y122.582 E5.14305
G1 X131.979 Y123.263 E5.16724
G1 X131.771 Y123.764 E5.18529
G1 X131.191 Y124.947 E5.22911
G1 X130.95 Y125.37 E5.2453
G1 X130.614 Y125.921 E5.26677
G1 X130.45 Y126.172 E5.27674
G1 X130.051 Y126.74 E5.29982
G1 X129.891 Y126.953 E5.30869
G1 X129.505 Y127.438 E5.3293
G1 X129.267 Y127.719 E5.34155
G1 X128.799 Y128.236 E5.36474
G1 X128.624 Y128.417 E5.37312
G1 X128.127 Y128.898 E5.39612
G1 X127.835 Y129.163 E5.40924
G1 X127.342 Y129.584 E5.4308
G1 X127.125 Y129.758 E5.44005
G1 X126.634 Y130.129 E5.46052
G1 X126.406 Y130.291 E5.46982
G1 X125.812 Y130.684 E5.49351
G1 X125.553 Y130.843 E5.50362
G1 X124.984 Y131.168 E5.52541
G1 X124.544 Y131.402 E5.54199
G1 X123.343 Y131.948 E5.58587
G1 X122.745 Y132.176 E5.60715
G1 X121.449 Y132.577 E5.65228
G1 X120.859 Y132.719 E5.67246
G1 X119.571 Y132.946 E5.71596
G1 X118.917 Y133.02 E5.73785
G1 X117.581 Y133.086 E5.78234
G1 X116.994 Y133.078 E5.80187
G1 X115.668 Y132.977 E5.8461
G1 X115.004 Y132.884 E5.8684
G1 X113.669 Y132.608 E5.91374
G1 X113.188 Y132.476 E5.93033
G1 X112.4 Y132.228 E5.9578
G1 X111.756 Y131.987 E5.98067
G1 X111.259 Y131.782 E5.99855
G1 X110.042 Y131.186 E6.04363
G1 X109.615 Y130.942 E6.05998
G1 X109.051 Y130.596 E6.08199
G1 X108.797 Y130.429 E6.0921
G1 X108.177 Y129.995 E6.11727
G1 X107.528 Y129.476 E6.14491
G1 X107.209 Y129.203 E6.15888
G1 X106.703 Y128.741 E6.18167
G1 X106.125 Y128.154 E6.20907
G1 X105.898 Y127.906 E6.22025
G1 X105.446 Y127.378 E6.24337
G1 X105.228 Y127.106 E6.25496
G1 X104.854 Y126.611 E6.27559
G1 X104.705 Y126.401 E6.28416
G1 X104.322 Y125.822 E6.30725
G1 X104.162 Y125.562 E6.3174
G1 X103.827 Y124.975 E6.33988
G1 X103.593 Y124.534 E6.35649
G1 X103.046 Y123.328 E6.40053
G1 X102.819 Y122.73 E6.4218
G1 X102.431 Y121.481 E6.4653
G1 X102.289 Y120.899 E6.48523
G1 X102.052 Y119.558 E6.53052
G1 X101.978 Y118.893 E6.55278
G1 X101.914 Y117.575 E6.59667
G0 F6000 X102.314 Y117.581
G1 F1200 X102.322 Y116.999 E6.61603
G1 X102.42 Y115.724 E6.65856
G1 X102.512 Y115.067 E6.68062
G1 X102.772 Y113.8 E6.72364
G1 X102.905 Y113.312 E6.74046
G1 X103.144 Y112.545 E6.76718
G1 X103.383 Y111.909 E6.78978
G1 X103.589 Y111.41 E6.80774
G1 X104.161 Y110.241 E6.85102
G1 X104.405 Y109.814 E6.86738
G1 X104.722 Y109.296 E6.88758
G1 X104.886 Y109.045 E6.89755
G1 X105.279 Y108.485 E6.92031
G1 X105.438 Y108.274 E6.92909
G1 X105.8 Y107.822 E6.94835
G1 X106.01 Y107.574 E6.95916
G1 X106.467 Y107.069 E6.98182
G1 X106.743 Y106.784 E6.99501
G1 X107.225 Y106.317 E7.01733
G1 X107.836 Y105.788 E7.04421
G1 X108.132 Y105.55 E7.05685
G1 X108.622 Y105.18 E7.07727
G1 X108.832 Y105.031 E7.08583
G1 X109.398 Y104.657 E7.1084
G1 X109.657 Y104.498 E7.1185
G1 X110.212 Y104.181 E7.13976
G1 X110.653 Y103.947 E7.15637
G1 X111.809 Y103.423 E7.19858
G1 X112.406 Y103.196 E7.21982
G1 X113.628 Y102.817 E7.26238
G1 X114.218 Y102.674 E7.28257
G1 X115.474 Y102.452 E7.32499
G1 X116.128 Y102.378 E7.34688
G1 X117.414 Y102.314 E7.38971
G1 X118.001 Y102.322 E7.40923
G1 X119.277 Y102.42 E7.4518
G1 X119.941 Y102.513 E7.4741
G1 X121.225 Y102.778 E7.51771
G1 X121.706 Y102.91 E7.5343
G1 X122.472 Y103.15 E7.56099
G1 X123.091 Y103.383 E7.58299
G1 X123.588 Y103.588 E7.60087
G1 X124.76 Y104.161 E7.64426
G1 X125.187 Y104.405 E7.66062
G1 X125.713 Y104.727 E7.68113
G1 X125.965 Y104.892 E7.69115
G1 X126.577 Y105.32 E7.71599
G1 X127.202 Y105.819 E7.74259
G1 X127.526 Y106.096 E7.75677
G1 X128.128 Y106.65 E7.78398
G1 X128.609 Y107.146 E7.80696
G1 X128.835 Y107.395 E7.81814
G1 X129.238 Y107.867 E7.83879
G1 X129.457 Y108.14 E7.85043
G1 X129.812 Y108.609 E7.86999
G1 X129.96 Y108.817 E7.87848
G1 X130.345 Y109.4 E7.90172
G1 X130.505 Y109.661 E7.9119
G1 X130.815 Y110.203 E7.93267
G1 X131.049 Y110.643 E7.94924
G1 X131.575 Y111.802 E7.99158
G1 X131.802 Y112.398 E8.01279
G1 X132.183 Y113.625 E8.05552
G1 X132.327 Y114.219 E8.07585
G1 X132.551 Y115.487 E8.11868
G1 X132.624 Y116.139 E8.1405
G1 X132.686 Y117.413 E8.18292
G1 X132.678 Y118 E8.20245
G1 X132.58 Y119.276 E8.24501
G1 X132.487 Y119.94 E8.26731
G1 X132.222 Y121.224 E8.31092
G1 X132.09 Y121.705 E8.32751
G1 X131.856 Y122.455 E8.35364
G1 X131.609 Y123.11 E8.37692
G1 X131.401 Y123.611 E8.39496
G1 X130.844 Y124.749 E8.4371
G1 X130.603 Y125.172 E8.4533
G1 X130.279 Y125.702 E8.47396
G1 X130.115 Y125.953 E8.48393
G1 X129.731 Y126.5 E8.50616
G1 X129.571 Y126.713 E8.51502
G1 X129.199 Y127.179 E8.53485
G1 X128.961 Y127.46 E8.5471
G1 X128.511 Y127.958 E8.56942
G1 X128.336 Y128.139 E8.5778
G1 X127.858 Y128.602 E8.59993
G1 X127.566 Y128.867 E8.61305
G1 X127.092 Y129.272 E8.63378
G1 X126.875 Y129.446 E8.64303
G1 X126.402 Y129.803 E8.66274
G1 X126.174 Y129.965 E8.67205
G1 X125.602 Y130.343 E8.69485
G1 X125.343 Y130.502 E8.70496
G1 X124.796 Y130.815 E8.72592
G1 X124.356 Y131.049 E8.74249
G1 X123.201 Y131.574 E8.78469
G1 X122.603 Y131.802 E8.80598
G1 X121.356 Y132.188 E8.8494
G1 X120.766 Y132.33 E8.86958
G1 X119.526 Y132.548 E8.91145
G1 X118.872 Y132.622 E8.93335
G1 X117.586 Y132.686 E8.97617
G1 X116.999 Y132.678 E8.9957
G1 X115.723 Y132.58 E9.03826
G1 X115.059 Y132.487 E9.06056
G1 X113.775 Y132.222 E9.10417
G1 X113.294 Y132.09 E9.12076
G1 X112.528 Y131.85 E9.14746
G1 X111.909 Y131.617 E9.16945
G1 X111.412 Y131.412 E9.18734
G1 X110.24 Y130.839 E9.23073
G1 X109.813 Y130.595 E9.24708
G1 X109.27 Y130.262 E9.26827
G1 X109.016 Y130.095 E9.27838
G1 X108.417 Y129.675 E9.30271
G1 X107.788 Y129.173 E9.32948
G1 X107.469 Y128.9 E9.34344
G1 X106.982 Y128.455 E9.36538
G1 X106.42 Y127.884 E9.39203
G1 X106.193 Y127.636 E9.40321
G1 X105.758 Y127.128 E9.42546
G1 X105.54 Y126.856 E9.43705
G1 X105.18 Y126.379 E9.45693
G1 X105.031 Y126.169 E9.46549
G1 X104.663 Y125.613 E9.48767
G1 X104.503 Y125.353 E9.49782
G1 X104.18 Y124.788 E9.51947
G1 X103.946 Y124.347 E9.53607
G1 X103.42 Y123.186 E9.57847
G1 X103.193 Y122.588 E9.59974
G1 X102.82 Y121.386 E9.6416
G1 X102.678 Y120.804 E9.66153
G1 X102.45 Y119.514 E9.7051
G1 X102.376 Y118.849 E9.72735
G1 X102.314 Y117.581 E9.76957
G1 F2700 E4.76957
;MESH:washer_20221209-54-121z6o4.stl
G0 F6000 X115.327 Y119.966
G0 X117.182 Y120.683
G1 F2700 E9.76957
G0 F6000 X117.304 Y120.595
;TYPE:WALL-INNER
G1 F1200 X116.919 Y120.546 E9.78248
G1 X116.558 Y120.454 E9.79487
G1 X116.197 Y120.314 E9.80775
G1 X115.84 Y120.119 E9.82128
G1 X115.447 Y119.83 E9.83751
G1 X115.111 Y119.476 E9.85374
G1 X114.873 Y119.147 E9.86725
G1 X114.693 Y118.819 E9.87969
G1 X114.555 Y118.471 E9.89214
G1 X114.458 Y118.102 E9.90483
G1 X114.405 Y117.697 E9.91842
G1 X114.405 Y117.324 E9.93082
G1 X114.451 Y116.935 E9.94385
G1 X114.556 Y116.527 E9.95786
G1 X114.686 Y116.197 E9.96966
G1 X114.871 Y115.856 E9.98256
G1 X115.166 Y115.447 E9.99934
G1 X115.507 Y115.125 E10.01494
G1 X115.856 Y114.871 E10.02929
G1 X116.18 Y114.694 E10.04157
G1 X116.521 Y114.558 E10.05378
G1 X116.898 Y114.458 E10.06675
G1 X117.306 Y114.405 E10.08044
G1 X117.712 Y114.405 E10.09394
G1 X118.102 Y114.457 E10.10703
G1 X118.473 Y114.554 E10.11978
G1 X118.836 Y114.7 E10.1328
G1 X119.18 Y114.893 E10.14592
G1 X119.554 Y115.169 E10.16137
G1 X119.876 Y115.506 E10.17688
G1 X120.108 Y115.819 E10.18984
G1 X120.3 Y116.164 E10.20297
G1 X120.445 Y116.526 E10.21594
G1 X120.543 Y116.897 E10.2287
G1 X120.594 Y117.284 E10.24168
G1 X120.595 Y117.712 E10.25592
G1 X120.544 Y118.101 E10.26897
G1 X120.445 Y118.475 E10.28184
G1 X120.3 Y118.835 E10.29474
G1 X120.109 Y119.179 E10.30783
G1 X119.831 Y119.552 E10.3233
G1 X119.493 Y119.877 E10.3389
G1 X119.177 Y120.109 E10.35194
G1 X118.836 Y120.3 E10.36494
G1 X118.479 Y120.442 E10.37772
G1 X118.102 Y120.543 E10.3907
G1 X117.712 Y120.594 E10.40378
G1 X117.304 Y120.595 E10.41735
G0 F6000 X117.675 Y120.195
;TYPE:WALL-OUTER
G1 F1200 X117.319 Y120.194 E10.42919
G1 X116.986 Y120.152 E10.44035
G1 X116.652 Y120.064 E10.45184
G1 X116.363 Y119.95 E10.46217
G1 X116.054 Y119.781 E10.47389
G1 X115.712 Y119.53 E10.488
G1 X115.425 Y119.228 E10.50186
G1 X115.213 Y118.936 E10.51386
G1 X115.055 Y118.649 E10.52475
G1 X114.928 Y118.321 E10.53645
G1 X114.848 Y118.014 E10.547
G1 X114.805 Y117.678 E10.55827
G1 X114.805 Y117.337 E10.56961
G1 X114.848 Y116.987 E10.58134
G1 X114.935 Y116.655 E10.59276
G1 X115.061 Y116.34 E10.60404
G1 X115.227 Y116.042 E10.61539
G1 X115.47 Y115.712 E10.62902
G1 X115.772 Y115.425 E10.64287
G1 X116.064 Y115.213 E10.65487
G1 X116.363 Y115.05 E10.6662
G1 X116.675 Y114.929 E10.67733
G1 X116.986 Y114.848 E10.68802
G1 X117.325 Y114.805 E10.69939
G1 X117.681 Y114.806 E10.71123
G1 X118.014 Y114.848 E10.72239
G1 X118.341 Y114.933 E10.73363
G1 X118.66 Y115.061 E10.74506
G1 X118.953 Y115.223 E10.7562
G1 X119.288 Y115.469 E10.77002
G1 X119.575 Y115.772 E10.7839
G1 X119.783 Y116.056 E10.79561
G1 X119.95 Y116.363 E10.80723
G1 X120.067 Y116.659 E10.81782
G1 X120.152 Y116.986 E10.82906
G1 X120.195 Y117.322 E10.84032
