;FLAVOR:Marlin
;TIME:3458
;Filament used: 2.51451m
;Layer height: 0.2
;MINX:51.985
;MINY:82.482
;MINZ:0.2
;MAXX:183.954
;MAXY:152.921
;MAXZ:8.4
;Generated with Cura_SteamEngine 4.8.0
M140 S50
M105
M190 S50
M104 S200
M105
M109 S200
M82 ;absolute extrusion mode
; Ender 3 Custom Start G-code
G92 E0 ; Reset Extruder
G28 ; Home all axes
G1 Z2.0 F3000 ; Move Z Axis up little to prevent scratching of Heat Bed
G1 X0.1 Y20 Z0.3 F5000.0 ; Move to start position
G1 X0.1 Y200.0 Z0.3 F1500.0 E15 ; Draw the first line
G1 X0.4 Y200.0 Z0.3 F5000.0 ; Move to side a little
G1 X0.4 Y20 Z0.3 F1500.0 E30 ; Draw the second line
G92 E0 ; Reset Extruder
G1 Z2.0 F3000 ; Move Z Axis up little to prevent scratching of Heat Bed
G1 X5 Y20 Z0.3 F5000.0 ; Move over to prevent blob squish
G92 E0
G92 E0
G1 F2700 E-5
;LAYER_COUNT:42
;LAYER:0
M107
G0 F6000 X60.547 Y101.953 Z0.2
;TYPE:SKIRT
G1 F2700 E0
G1 F1200 X60.979 Y101.714 E0.01642
G1 X61.351 Y101.519 E0.03039
G1 X61.589 Y101.398 E0.03927
G1 X62.215 Y101.089 E0.06249
G1 X63.073 Y100.71 E0.09369
G1 X63.605 Y100.517 E0.11251
G1 X63.827 Y100.443 E0.12029
G1 X64.179 Y100.333 E0.13256
G1 X64.682 Y100.186 E0.14999
G1 X65.359 Y100 E0.17334
G1 X66.273 Y99.79 E0.20453
G1 X66.852 Y99.699 E0.22403
G1 X67.067 Y99.671 E0.23124
G1 X67.573 Y99.617 E0.24816
G1 X68.208 Y99.564 E0.26936
G1 X68.48 Y99.545 E0.27842
G1 X68.856 Y99.523 E0.29095
G1 X69.175 Y99.509 E0.30157
G1 X69.514 Y99.499 E0.31285
G1 X69.838 Y99.494 E0.32363
G1 X105.974 Y99.494 E1.52552
G1 X108.582 Y99.457 E1.61227
G1 X111.104 Y99.35 E1.69623
G1 X113.599 Y99.173 E1.77942
G1 X116.097 Y98.925 E1.86291
G1 X118.586 Y98.607 E1.94637
G1 X121.095 Y98.213 E2.03084
G1 X123.561 Y97.754 E2.11427
G1 X126.012 Y97.227 E2.19765
G1 X128.472 Y96.624 E2.2819
G1 X130.906 Y95.954 E2.36586
G1 X133.285 Y95.226 E2.44861
G1 X135.688 Y94.415 E2.53296
G1 X138.058 Y93.541 E2.61698
G1 X140.391 Y92.605 E2.70059
G1 X142.683 Y91.608 E2.78372
G1 X144.997 Y90.522 E2.86874
G1 X147.211 Y89.407 E2.95119
G1 X149.443 Y88.203 E3.03553
G1 X151.615 Y86.949 E3.11895
G1 X153.766 Y85.627 E3.20293
G1 X154.951 Y84.848 E3.25009
G1 X155.828 Y84.287 E3.28472
G1 X156.638 Y83.815 E3.3159
G1 X157.486 Y83.415 E3.34708
G1 X158.366 Y83.088 E3.37831
G1 X159.274 Y82.836 E3.40965
G1 X159.49 Y82.786 E3.41703
G1 X160.412 Y82.614 E3.44822
G1 X161.8 Y82.504 E3.49453
G1 X162.669 Y82.492 E3.52344
G1 X165.559 Y82.49 E3.61956
G1 X167.169 Y82.493 E3.67311
G1 X170.172 Y82.482 E3.77299
G1 X172.299 Y82.487 E3.84373
G1 X173.116 Y82.5 E3.87091
G1 X174.052 Y82.555 E3.90209
G1 X174.98 Y82.69 E3.93328
G1 X175.893 Y82.904 E3.96447
G1 X176.785 Y83.195 E3.99568
G1 X177.648 Y83.56 E4.02685
G1 X178.478 Y83.998 E4.05806
G1 X179.267 Y84.505 E4.08925
G1 X180.01 Y85.078 E4.12046
G1 X180.701 Y85.711 E4.15163
G1 X181.336 Y86.401 E4.18282
G1 X181.91 Y87.143 E4.21402
G1 X182.419 Y87.931 E4.24522
G1 X182.859 Y88.759 E4.27641
G1 X183.227 Y89.622 E4.30761
G1 X183.519 Y90.513 E4.3388
G1 X183.735 Y91.426 E4.37
G1 X183.872 Y92.354 E4.4012
G1 X183.93 Y93.266 E4.4316
G1 X183.951 Y94.262 E4.46473
G1 X183.953 Y94.494 E4.47245
G1 X183.954 Y141.245 E6.02739
G1 X183.941 Y142.085 E6.05533
G1 X183.886 Y143.021 E6.08652
G1 X183.75 Y143.949 E6.11771
G1 X183.537 Y144.862 E6.1489
G1 X183.246 Y145.754 E6.1801
G1 X182.88 Y146.617 E6.21128
G1 X182.442 Y147.447 E6.24249
G1 X181.935 Y148.236 E6.27369
G1 X181.363 Y148.979 E6.30487
G1 X180.729 Y149.67 E6.33607
G1 X180.039 Y150.305 E6.36725
G1 X179.297 Y150.879 E6.39846
G1 X178.509 Y151.388 E6.42966
G1 X177.681 Y151.827 E6.46083
G1 X176.818 Y152.195 E6.49203
G1 X175.927 Y152.488 E6.52323
G1 X175.014 Y152.703 E6.55442
G1 X174.086 Y152.84 E6.58562
G1 X173.167 Y152.898 E6.61625
G1 X172.137 Y152.919 E6.65052
G1 X171.909 Y152.921 E6.6581
G1 X162.485 Y152.917 E6.97154
G1 X161.809 Y152.907 E6.99403
G1 X160.873 Y152.853 E7.02521
G1 X159.945 Y152.72 E7.05639
G1 X159.031 Y152.508 E7.0876
G1 X158.041 Y152.181 E7.12228
G1 X157.764 Y152.075 E7.13214
G1 X157.348 Y151.907 E7.14706
G1 X156.502 Y151.501 E7.17828
G1 X155.69 Y151.021 E7.20965
G1 X155.002 Y150.573 E7.23696
G1 X153.924 Y149.852 E7.28009
G1 X151.774 Y148.5 E7.36456
G1 X149.629 Y147.235 E7.44739
G1 X147.421 Y146.013 E7.53132
G1 X145.172 Y144.853 E7.61549
G1 X142.878 Y143.749 E7.70016
G1 X140.628 Y142.746 E7.7821
G1 X138.268 Y141.77 E7.86704
G1 X135.893 Y140.866 E7.95156
G1 X133.578 Y140.061 E8.03308
G1 X131.13 Y139.286 E8.11848
G1 X128.754 Y138.606 E8.20068
G1 X126.277 Y137.974 E8.28571
G1 X123.855 Y137.426 E8.3683
G1 X121.362 Y136.938 E8.45279
G1 X118.889 Y136.525 E8.53618
G1 X116.375 Y136.177 E8.6206
G1 X113.908 Y135.908 E8.70314
G1 X111.364 Y135.703 E8.78802
G1 X108.891 Y135.574 E8.87039
G1 X105.365 Y135.506 E8.98768
G1 X70.042 Y135.505 E10.16253
G1 X69.473 Y135.497 E10.18146
G1 X69.137 Y135.487 E10.19264
G1 X68.555 Y135.461 E10.21202
G1 X68.219 Y135.441 E10.22321
G1 X67.874 Y135.415 E10.23472
G1 X67.557 Y135.386 E10.24531
G1 X67.251 Y135.354 E10.25554
G1 X66.129 Y135.178 E10.29331
G1 X66.015 Y135.154 E10.29719
G1 X65.686 Y135.079 E10.30841
G1 X65.34 Y134.995 E10.32025
G1 X65.039 Y134.918 E10.33059
G1 X64.449 Y134.757 E10.35093
G1 X63.556 Y134.472 E10.38211
G1 X62.948 Y134.228 E10.4039
G1 X62.361 Y133.972 E10.4252
G1 X62.139 Y133.872 E10.43329
G1 X61.737 Y133.686 E10.44803
G1 X60.903 Y133.256 E10.47923
G1 X60.342 Y132.914 E10.50109
G1 X59.76 Y132.534 E10.52421
G1 X59.501 Y132.359 E10.5346
G1 X59.125 Y132.098 E10.54983
G1 X58.379 Y131.531 E10.58099
G1 X57.925 Y131.133 E10.60107
G1 X57.582 Y130.813 E10.61667
G1 X57.358 Y130.596 E10.62705
G1 X57.19 Y130.429 E10.63493
G1 X56.664 Y129.897 E10.65981
G1 X56.033 Y129.203 E10.69101
G1 X55.649 Y128.714 E10.71169
G1 X55.394 Y128.37 E10.72593
G1 X55.022 Y127.849 E10.74722
G1 X54.488 Y127.021 E10.77999
G1 X54.351 Y126.786 E10.78904
G1 X54.148 Y126.422 E10.8029
G1 X53.876 Y125.912 E10.82212
G1 X53.361 Y124.803 E10.86279
G1 X53.207 Y124.416 E10.87665
G1 X53.112 Y124.167 E10.88551
G1 X52.961 Y123.759 E10.89998
G1 X52.661 Y122.823 E10.93267
G1 X52.582 Y122.532 E10.9427
G1 X52.476 Y122.108 E10.95724
G1 X52.374 Y121.663 E10.97242
G1 X52.196 Y120.682 E11.00558
G1 X52.12 Y120.121 E11.02441
G1 X52.06 Y119.585 E11.04235
G1 X52.037 Y119.317 E11.0513
G1 X52.002 Y118.708 E11.07159
G1 X51.99 Y118.31 E11.08483
G1 X51.985 Y118.001 E11.09511
G1 X51.985 Y117.371 E11.11606
G1 X51.995 Y116.576 E11.14251
G1 X52.01 Y116.13 E11.15735
G1 X52.015 Y116.036 E11.16048
G1 X52.087 Y115.234 E11.18726
G1 X52.158 Y114.675 E11.206
G1 X52.214 Y114.281 E11.21924
G1 X52.328 Y113.596 E11.24234
G1 X52.523 Y112.678 E11.27355
G1 X52.693 Y112.088 E11.29397
G1 X52.799 Y111.755 E11.30559
G1 X52.917 Y111.407 E11.31782
G1 X53.028 Y111.098 E11.32874
G1 X53.272 Y110.438 E11.35214
G1 X53.634 Y109.573 E11.38333
G1 X53.893 Y109.058 E11.4025
G1 X53.983 Y108.89 E11.40884
G1 X54.134 Y108.617 E11.41922
G1 X54.319 Y108.294 E11.4316
G1 X54.461 Y108.053 E11.4409
G1 X54.804 Y107.488 E11.46288
G1 X55.325 Y106.707 E11.49411
G1 X55.716 Y106.203 E11.51533
G1 X56.01 Y105.85 E11.53061
G1 X56.22 Y105.606 E11.54131
G1 X56.389 Y105.415 E11.5498
G1 X56.849 Y104.905 E11.57264
G1 X57.506 Y104.236 E11.60383
G1 X57.963 Y103.831 E11.62414
G1 X58.324 Y103.534 E11.63968
G1 X58.594 Y103.32 E11.65114
G1 X59.301 Y102.778 E11.68077
G1 X60.07 Y102.24 E11.71199
G1 X60.547 Y101.953 E11.7305
G0 F6000 X60.744 Y102.301
G1 F1200 X60.846 Y102.243 E11.73441
G1 X61.165 Y102.069 E11.74649
G1 X61.537 Y101.874 E11.76046
G1 X61.766 Y101.757 E11.76901
G1 X62.392 Y101.448 E11.79223
G1 X63.235 Y101.077 E11.82287
G1 X63.732 Y100.897 E11.84045
G1 X63.954 Y100.823 E11.84823
G1 X64.292 Y100.716 E11.86002
G1 X64.582 Y100.63 E11.87008
G1 X65.465 Y100.386 E11.90055
G1 X66.362 Y100.181 E11.93116
G1 X66.904 Y100.096 E11.9494
G1 X67.119 Y100.068 E11.95661
G1 X67.606 Y100.016 E11.9729
G1 X68.241 Y99.963 E11.9941
G1 X68.504 Y99.944 E12.00287
G1 X68.88 Y99.922 E12.0154
G1 X69.186 Y99.909 E12.02558
G1 X69.525 Y99.899 E12.03686
G1 X69.838 Y99.894 E12.04727
G1 X105.98 Y99.894 E13.24936
G1 X108.605 Y99.857 E13.33668
G1 X111.113 Y99.75 E13.42017
G1 X113.63 Y99.572 E13.5041
G1 X116.154 Y99.322 E13.58845
G1 X118.662 Y99.001 E13.67255
G1 X121.124 Y98.614 E13.75544
G1 X123.646 Y98.145 E13.84076
G1 X126.12 Y97.613 E13.92493
G1 X128.568 Y97.013 E14.00876
G1 X130.991 Y96.346 E14.09235
G1 X133.425 Y95.601 E14.17701
G1 X135.85 Y94.783 E14.26213
G1 X138.167 Y93.928 E14.34427
G1 X140.564 Y92.966 E14.43018
G1 X142.863 Y91.966 E14.51357
G1 X145.139 Y90.898 E14.59719
G1 X147.402 Y89.759 E14.68145
G1 X149.654 Y88.543 E14.76657
G1 X151.819 Y87.294 E14.8497
G1 X153.966 Y85.974 E14.93353
G1 X155.166 Y85.185 E14.9813
G1 X156.043 Y84.624 E15.01592
G1 X156.839 Y84.162 E15.04653
G1 X157.673 Y83.771 E15.07717
G1 X158.537 Y83.453 E15.10779
G1 X159.365 Y83.226 E15.13635
G1 X159.581 Y83.176 E15.14372
G1 X160.486 Y83.008 E15.17434
G1 X161.806 Y82.904 E15.21838
G1 X162.67 Y82.892 E15.24712
G1 X165.559 Y82.89 E15.3432
G1 X167.17 Y82.893 E15.39679
G1 X170.171 Y82.882 E15.4966
G1 X172.45 Y82.888 E15.5724
G1 X173.109 Y82.899 E15.59432
G1 X174.028 Y82.955 E15.62495
G1 X174.939 Y83.09 E15.65558
G1 X175.834 Y83.303 E15.68618
G1 X176.708 Y83.593 E15.7168
G1 X177.553 Y83.958 E15.74742
G1 X178.363 Y84.395 E15.77803
G1 X179.133 Y84.901 E15.80867
G1 X179.855 Y85.471 E15.83927
G1 X180.526 Y86.102 E15.86991
G1 X181.139 Y86.789 E15.90053
G1 X181.69 Y87.527 E15.93116
G1 X182.175 Y88.309 E15.96177
G1 X182.591 Y89.131 E15.99241
G1 X182.933 Y89.985 E16.02301
G1 X183.2 Y90.866 E16.05362
G1 X183.39 Y91.767 E16.08425
G1 X183.5 Y92.681 E16.11487
G1 X183.53 Y93.275 E16.13465
G1 X183.551 Y94.271 E16.16779
G1 X183.553 Y94.494 E16.1752
G1 X183.553 Y141.423 E17.73607
G1 X183.542 Y142.078 E17.75786
G1 X183.486 Y142.997 E17.78848
G1 X183.351 Y143.908 E17.81911
G1 X183.138 Y144.803 E17.84971
G1 X182.847 Y145.677 E17.88035
G1 X182.482 Y146.522 E17.91096
G1 X182.045 Y147.332 E17.94157
G1 X181.539 Y148.102 E17.97222
G1 X180.969 Y148.824 E18.00281
G1 X180.338 Y149.495 E18.03345
G1 X179.651 Y150.108 E18.06407
G1 X178.913 Y150.659 E18.09471
G1 X178.131 Y151.144 E18.12531
G1 X177.309 Y151.559 E18.15594
G1 X176.455 Y151.901 E18.18654
G1 X175.574 Y152.168 E18.21715
G1 X174.673 Y152.358 E18.24778
G1 X173.759 Y152.469 E18.2784
G1 X173.159 Y152.498 E18.29838
G1 X172.129 Y152.519 E18.33265
G1 X171.91 Y152.521 E18.33993
G1 X162.491 Y152.517 E18.65321
G1 X161.815 Y152.507 E18.6757
G1 X160.896 Y152.453 E18.70631
G1 X159.985 Y152.32 E18.73694
G1 X159.089 Y152.108 E18.76756
G1 X158.184 Y151.808 E18.79927
G1 X157.907 Y151.702 E18.80914
G1 X157.505 Y151.539 E18.82356
G1 X156.676 Y151.14 E18.85416
G1 X155.907 Y150.686 E18.88386
G1 X155.224 Y150.241 E18.91098
G1 X154.128 Y149.508 E18.95483
G1 X151.994 Y148.166 E19.03868
G1 X149.82 Y146.883 E19.12264
G1 X147.578 Y145.643 E19.20785
G1 X145.35 Y144.495 E19.29121
G1 X143.078 Y143.401 E19.37509
G1 X140.765 Y142.369 E19.45933
G1 X138.427 Y141.403 E19.54346
G1 X136.03 Y140.49 E19.62878
G1 X133.682 Y139.674 E19.71145
G1 X131.289 Y138.916 E19.79494
G1 X128.826 Y138.211 E19.88015
G1 X126.393 Y137.59 E19.96367
G1 X123.915 Y137.03 E20.04816
G1 X121.433 Y136.543 E20.13229
G1 X118.938 Y136.127 E20.21642
G1 X116.44 Y135.782 E20.30029
G1 X113.947 Y135.509 E20.38371
G1 X111.383 Y135.303 E20.46926
G1 X108.918 Y135.174 E20.55136
G1 X105.373 Y135.106 E20.66929
G1 X70.048 Y135.105 E21.8442
G1 X69.479 Y135.097 E21.86313
G1 X69.155 Y135.087 E21.87391
G1 X68.573 Y135.061 E21.89329
G1 X68.249 Y135.042 E21.90408
G1 X67.904 Y135.016 E21.91559
G1 X67.599 Y134.989 E21.92577
G1 X67.293 Y134.957 E21.93601
G1 X66.211 Y134.787 E21.97243
G1 X65.78 Y134.691 E21.98712
G1 X65.434 Y134.607 E21.99896
G1 X65.144 Y134.532 E22.00893
G1 X64.554 Y134.371 E22.02927
G1 X63.678 Y134.09 E22.05986
G1 X63.108 Y133.861 E22.0803
G1 X62.521 Y133.605 E22.1016
G1 X62.307 Y133.509 E22.1094
G1 X61.905 Y133.323 E22.12413
G1 X61.087 Y132.901 E22.15474
G1 X60.561 Y132.579 E22.17526
G1 X59.979 Y132.199 E22.19837
G1 X59.73 Y132.031 E22.20836
G1 X59.354 Y131.77 E22.22359
G1 X58.621 Y131.212 E22.25423
G1 X58.196 Y130.84 E22.27301
G1 X57.861 Y130.525 E22.28831
G1 X57.474 Y130.148 E22.30628
G1 X56.948 Y129.616 E22.33116
G1 X56.33 Y128.934 E22.36177
G1 X55.97 Y128.475 E22.38117
G1 X55.715 Y128.131 E22.39542
G1 X55.588 Y127.956 E22.40261
G1 X55.348 Y127.618 E22.41639
G1 X54.834 Y126.82 E22.44797
G1 X54.697 Y126.585 E22.45701
G1 X54.501 Y126.234 E22.47038
G1 X54.229 Y125.724 E22.48961
G1 X53.733 Y124.655 E22.5288
G1 X53.579 Y124.268 E22.54266
G1 X53.487 Y124.028 E22.55121
G1 X53.336 Y123.62 E22.56568
G1 X53.047 Y122.718 E22.59718
G1 X52.968 Y122.427 E22.60721
G1 X52.866 Y122.018 E22.62123
G1 X52.764 Y121.573 E22.63641
G1 X52.592 Y120.628 E22.66836
G1 X52.516 Y120.067 E22.68719
G1 X52.459 Y119.55 E22.70449
G1 X52.436 Y119.282 E22.71344
G1 X52.402 Y118.695 E22.73299
G1 X52.39 Y118.297 E22.74624
G1 X52.385 Y118.001 E22.75608
G1 X52.385 Y117.376 E22.77687
G1 X52.395 Y116.581 E22.80331
G1 X52.409 Y116.151 E22.81762
G1 X52.414 Y116.057 E22.82075
G1 X52.483 Y115.284 E22.84657
G1 X52.554 Y114.725 E22.86531
G1 X52.61 Y114.341 E22.87821
G1 X52.723 Y113.662 E22.90111
G1 X52.915 Y112.762 E22.93172
G1 X53.074 Y112.21 E22.95082
G1 X53.18 Y111.877 E22.96245
G1 X53.294 Y111.541 E22.97425
G1 X53.403 Y111.236 E22.98502
G1 X53.647 Y110.576 E23.00842
G1 X54.003 Y109.728 E23.03901
G1 X54.245 Y109.246 E23.05695
G1 X54.335 Y109.078 E23.06329
G1 X54.481 Y108.816 E23.07327
G1 X54.666 Y108.493 E23.08565
G1 X54.803 Y108.26 E23.09464
G1 X55.146 Y107.695 E23.11662
G1 X55.657 Y106.93 E23.14722
G1 X56.025 Y106.458 E23.16712
G1 X56.313 Y106.111 E23.18212
G1 X56.523 Y105.867 E23.19283
G1 X56.686 Y105.682 E23.20103
G1 X57.146 Y105.172 E23.22387
G1 X57.791 Y104.516 E23.25447
G1 X58.22 Y104.138 E23.27349
G1 X58.36 Y104.021 E23.27956
G1 X58.573 Y103.848 E23.28869
G1 X58.987 Y103.521 E23.30623
G1 X59.544 Y103.095 E23.32956
G1 X60.299 Y102.568 E23.36018
G1 X60.744 Y102.301 E23.37744
G0 F6000 X60.942 Y102.648
G1 F1200 X61.044 Y102.59 E23.38134
G1 X61.35 Y102.423 E23.39294
G1 X61.722 Y102.228 E23.40691
G1 X61.943 Y102.116 E23.41515
G1 X62.569 Y101.807 E23.43837
G1 X63.396 Y101.443 E23.46842
G1 X63.858 Y101.276 E23.48476
G1 X64.08 Y101.202 E23.49254
G1 X64.406 Y101.1 E23.5039
G1 X64.894 Y100.957 E23.52082
G1 X65.571 Y100.771 E23.54417
G1 X66.451 Y100.571 E23.57418
G1 X66.956 Y100.492 E23.59118
G1 X67.171 Y100.464 E23.59839
G1 X67.64 Y100.414 E23.61408
G1 X68.275 Y100.361 E23.63528
G1 X68.527 Y100.343 E23.64368
G1 X68.903 Y100.321 E23.65621
G1 X69.198 Y100.308 E23.66603
G1 X69.537 Y100.298 E23.67731
G1 X69.838 Y100.294 E23.68732
G1 X105.986 Y100.294 E24.88961
G1 X108.592 Y100.257 E24.97629
G1 X111.16 Y100.148 E25.06178
G1 X113.662 Y99.971 E25.14521
G1 X116.174 Y99.722 E25.22916
G1 X118.737 Y99.394 E25.31511
G1 X121.222 Y99.003 E25.39877
G1 X123.705 Y98.542 E25.48277
G1 X126.186 Y98.008 E25.56718
G1 X128.664 Y97.401 E25.65203
G1 X131.151 Y96.716 E25.73783
G1 X133.523 Y95.99 E25.82034
G1 X135.968 Y95.165 E25.90616
G1 X138.348 Y94.287 E25.99054
G1 X140.693 Y93.346 E26.07458
G1 X143.027 Y92.331 E26.15923
G1 X145.31 Y91.26 E26.2431
G1 X147.593 Y90.11 E26.32812
G1 X149.838 Y88.899 E26.41296
G1 X152.007 Y87.647 E26.49626
G1 X154.204 Y86.296 E26.58204
G1 X155.382 Y85.522 E26.62892
G1 X156.259 Y84.961 E26.66355
G1 X157.04 Y84.508 E26.69358
G1 X157.859 Y84.127 E26.72362
G1 X158.708 Y83.819 E26.75366
G1 X159.455 Y83.616 E26.77941
G1 X159.671 Y83.566 E26.78678
G1 X160.559 Y83.401 E26.81682
G1 X161.812 Y83.304 E26.85862
G1 X162.67 Y83.292 E26.88716
G1 X165.558 Y83.29 E26.98322
G1 X167.169 Y83.293 E27.0368
G1 X170.17 Y83.282 E27.13662
G1 X172.443 Y83.288 E27.21222
G1 X173.102 Y83.299 E27.23414
G1 X174.004 Y83.354 E27.26419
G1 X174.897 Y83.489 E27.29423
G1 X175.774 Y83.702 E27.32425
G1 X176.63 Y83.992 E27.35431
G1 X177.456 Y84.356 E27.38433
G1 X178.247 Y84.792 E27.41437
G1 X178.996 Y85.296 E27.4444
G1 X179.698 Y85.865 E27.47445
G1 X180.346 Y86.493 E27.50447
G1 X180.937 Y87.177 E27.53453
G1 X181.465 Y87.909 E27.56455
G1 X181.926 Y88.686 E27.5946
G1 X182.316 Y89.5 E27.62462
G1 X182.633 Y90.346 E27.65467
G1 X182.874 Y91.217 E27.68473
G1 X183.036 Y92.105 E27.71475
