;FLAVOR:Marlin
;TIME:902
;Filament used: 0.271568m
;Layer height: 0.2
;MINX:103
;MINY:91.5
;MINZ:0.2
;MAXX:132
;MAXY:143.5
;MAXZ:23
;Generated with Cura_SteamEngine 4.8.0
M140 S60
M105
M190 S60
M104 S200
M105
M109 S200
M82 ;absolute extrusion mode
; Ender 3 Custom Start G-code
G92 E0 ; Reset Extruder
G28 ; Home all axes
G1 Z2.0 F3000 ; Move Z Axis up little to prevent scratching of Heat Bed
G1 X0.1 Y20 Z0.3 F5000.0 ; Move to start position
G1 X0.1 Y200.0 Z0.3 F1500.0 E15 ; Draw the first line
G1 X0.4 Y200.0 Z0.3 F5000.0 ; Move to side a little
G1 X0.4 Y20 Z0.3 F1500.0 E30 ; Draw the second line
G92 E0 ; Reset Extruder
G1 Z2.0 F3000 ; Move Z Axis up little to prevent scratching of Heat Bed
G1 X5 Y20 Z0.3 F5000.0 ; Move over to prevent blob squish
G92 E0
G92 E0
G1 F2700 E-5
;LAYER_COUNT:115
;LAYER:0
M107
G0 F6000 X105.566 Y95.458 Z0.2
;TYPE:SKIRT
G1 F2700 E0
G1 F1200 X106.198 Y94.764 E0.03122
G1 X106.886 Y94.127 E0.0624
G1 X107.626 Y93.551 E0.09359
G1 X108.412 Y93.039 E0.12479
G1 X109.239 Y92.597 E0.15598
G1 X110.101 Y92.227 E0.18718
G1 X110.991 Y91.931 E0.21838
G1 X111.903 Y91.713 E0.24957
G1 X112.83 Y91.572 E0.28075
G1 X113.701 Y91.513 E0.30979
G1 X114.022 Y91.504 E0.32047
G1 X114.33 Y91.5 E0.33071
G1 X120.293 Y91.5 E0.52904
G1 X121.149 Y91.511 E0.55752
G1 X122.085 Y91.565 E0.5887
G1 X123.013 Y91.697 E0.61988
G1 X123.927 Y91.909 E0.65108
G1 X124.819 Y92.198 E0.68227
G1 X125.684 Y92.561 E0.71347
G1 X126.514 Y92.997 E0.74465
G1 X127.305 Y93.502 E0.77587
G1 X128.049 Y94.073 E0.80706
G1 X128.742 Y94.705 E0.83825
G1 X129.379 Y95.393 E0.86944
G1 X129.954 Y96.134 E0.90064
G1 X130.465 Y96.92 E0.93182
G1 X130.907 Y97.748 E0.96303
G1 X131.276 Y98.61 E0.99422
G1 X131.571 Y99.5 E1.02541
G1 X131.789 Y100.412 E1.05659
G1 X131.929 Y101.34 E1.08781
G1 X131.987 Y102.201 E1.11651
G1 X131.996 Y102.521 E1.12716
G1 X132 Y102.83 E1.13744
G1 X131.999 Y131.9 E2.10431
G1 X131.99 Y132.627 E2.12849
G1 X131.939 Y133.564 E2.1597
G1 X131.807 Y134.492 E2.19088
G1 X131.598 Y135.406 E2.22206
G1 X131.311 Y136.299 E2.25326
G1 X130.949 Y137.165 E2.28448
G1 X130.515 Y137.996 E2.31566
G1 X130.011 Y138.787 E2.34685
G1 X129.442 Y139.532 E2.37803
G1 X128.811 Y140.227 E2.40926
G1 X128.124 Y140.865 E2.44044
G1 X127.385 Y141.442 E2.47162
G1 X126.599 Y141.954 E2.50282
G1 X125.773 Y142.397 E2.534
G1 X124.911 Y142.769 E2.56522
G1 X124.022 Y143.065 E2.59639
G1 X123.11 Y143.285 E2.62759
G1 X122.183 Y143.426 E2.65878
G1 X121.299 Y143.487 E2.68825
G1 X120.978 Y143.496 E2.69893
G1 X120.67 Y143.5 E2.70918
G1 X114.565 Y143.499 E2.91223
G1 X113.867 Y143.49 E2.93545
G1 X112.931 Y143.438 E2.96663
G1 X112.002 Y143.306 E2.99783
G1 X111.088 Y143.096 E3.02903
G1 X110.195 Y142.809 E3.06022
G1 X109.33 Y142.446 E3.09142
G1 X108.499 Y142.012 E3.12261
G1 X107.708 Y141.508 E3.1538
G1 X106.963 Y140.938 E3.185
G1 X106.269 Y140.307 E3.2162
G1 X105.632 Y139.62 E3.24736
G1 X105.055 Y138.88 E3.27857
G1 X104.543 Y138.094 E3.30977
G1 X104.1 Y137.267 E3.34097
G1 X103.729 Y136.406 E3.37216
G1 X103.433 Y135.516 E3.40335
G1 X103.214 Y134.604 E3.43455
G1 X103.073 Y133.677 E3.46573
G1 X103.013 Y132.788 E3.49537
G1 X103.004 Y132.455 E3.50645
G1 X103 Y132.158 E3.51633
G1 X103.001 Y103.025 E4.48529
G1 X103.01 Y102.36 E4.50741
G1 X103.063 Y101.424 E4.5386
G1 X103.195 Y100.495 E4.56981
G1 X103.406 Y99.581 E4.601
G1 X103.694 Y98.689 E4.63218
G1 X104.057 Y97.824 E4.66338
G1 X104.492 Y96.993 E4.69458
G1 X104.996 Y96.203 E4.72575
G1 X105.566 Y95.458 E4.75695
G0 F6000 X105.961 Y95.611
G1 F1200 X106.589 Y94.939 E4.78754
G1 X107.274 Y94.323 E4.81818
G1 X108.01 Y93.77 E4.8488
G1 X108.791 Y93.282 E4.87943
G1 X109.611 Y92.864 E4.91004
G1 X110.465 Y92.519 E4.94067
G1 X111.345 Y92.249 E4.97129
G1 X112.245 Y92.057 E5.0019
G1 X113.159 Y91.943 E5.03253
G1 X113.712 Y91.913 E5.05095
G1 X114.033 Y91.904 E5.06163
G1 X114.33 Y91.9 E5.07151
G1 X120.293 Y91.9 E5.26984
G1 X121.143 Y91.911 E5.29812
G1 X122.062 Y91.964 E5.32873
G1 X122.973 Y92.097 E5.35935
G1 X123.869 Y92.308 E5.38997
G1 X124.743 Y92.596 E5.42058
G1 X125.59 Y92.959 E5.45123
G1 X126.401 Y93.394 E5.48184
G1 X127.171 Y93.898 E5.51244
G1 X127.895 Y94.467 E5.54307
G1 X128.567 Y95.097 E5.57371
G1 X129.182 Y95.782 E5.60433
G1 X129.735 Y96.518 E5.63495
G1 X130.222 Y97.299 E5.66556
G1 X130.639 Y98.12 E5.69619
G1 X130.984 Y98.974 E5.72682
G1 X131.253 Y99.854 E5.75743
G1 X131.445 Y100.755 E5.78807
G1 X131.558 Y101.668 E5.81866
G1 X131.587 Y102.212 E5.83678
G1 X131.596 Y102.532 E5.84743
G1 X131.6 Y102.83 E5.85734
G1 X131.599 Y131.895 E6.82405
G1 X131.59 Y132.622 E6.84823
G1 X131.539 Y133.541 E6.87884
G1 X131.408 Y134.453 E6.90949
G1 X131.198 Y135.349 E6.9401
G1 X130.912 Y136.224 E6.97071
G1 X130.551 Y137.071 E7.00134
G1 X130.117 Y137.883 E7.03196
G1 X129.615 Y138.655 E7.06259
G1 X129.047 Y139.38 E7.09322
G1 X128.419 Y140.053 E7.12384
G1 X127.735 Y140.669 E7.15445
G1 X127 Y141.223 E7.18507
G1 X126.22 Y141.712 E7.21569
G1 X125.4 Y142.131 E7.24631
G1 X124.547 Y142.477 E7.27693
G1 X123.667 Y142.748 E7.30755
G1 X122.767 Y142.941 E7.33817
G1 X121.853 Y143.056 E7.36881
G1 X121.288 Y143.087 E7.38763
G1 X120.967 Y143.096 E7.39831
G1 X120.67 Y143.1 E7.40819
G1 X114.57 Y143.099 E7.61108
G1 X113.872 Y143.09 E7.63429
G1 X112.953 Y143.038 E7.66491
G1 X112.042 Y142.907 E7.69552
G1 X111.146 Y142.697 E7.72613
G1 X110.271 Y142.41 E7.75676
G1 X109.424 Y142.048 E7.78739
G1 X108.612 Y141.614 E7.81802
G1 X107.841 Y141.112 E7.84862
G1 X107.116 Y140.544 E7.87925
G1 X106.443 Y139.915 E7.90989
G1 X105.828 Y139.231 E7.94048
G1 X105.274 Y138.496 E7.97109
G1 X104.786 Y137.715 E8.00172
G1 X104.367 Y136.895 E8.03235
G1 X104.021 Y136.042 E8.06297
G1 X103.751 Y135.162 E8.09358
G1 X103.558 Y134.261 E8.12423
G1 X103.444 Y133.348 E8.15483
G1 X103.413 Y132.777 E8.17385
G1 X103.404 Y132.444 E8.18493
G1 X103.4 Y132.158 E8.19444
G1 X103.401 Y103.031 E9.16321
G1 X103.41 Y102.366 E9.18533
G1 X103.462 Y101.446 E9.21598
G1 X103.594 Y100.535 E9.2466
G1 X103.805 Y99.639 E9.27721
G1 X104.092 Y98.764 E9.30784
G1 X104.455 Y97.918 E9.33846
G1 X104.889 Y97.106 E9.36908
G1 X105.392 Y96.335 E9.3997
G1 X105.961 Y95.611 E9.43033
G0 F6000 X106.355 Y95.767
G1 F1200 X106.981 Y95.117 E9.46034
G1 X107.662 Y94.524 E9.49038
G1 X108.394 Y93.994 E9.52044
G1 X109.169 Y93.531 E9.55046
G1 X109.982 Y93.138 E9.5805
G1 X110.827 Y92.818 E9.61055
G1 X111.696 Y92.575 E9.64056
G1 X112.584 Y92.409 E9.67061
G1 X113.723 Y92.313 E9.70862
G1 X114.044 Y92.304 E9.71931
G1 X114.33 Y92.3 E9.72882
G1 X120.293 Y92.3 E9.92715
G1 X121.137 Y92.311 E9.95522
G1 X122.039 Y92.364 E9.98528
G1 X122.932 Y92.496 E10.0153
G1 X123.81 Y92.707 E10.04533
G1 X124.666 Y92.995 E10.07537
G1 X125.493 Y93.357 E10.1054
G1 X126.285 Y93.792 E10.13545
G1 X127.036 Y94.294 E10.1655
G1 X127.739 Y94.861 E10.19554
G1 X128.389 Y95.488 E10.22557
G1 X128.981 Y96.17 E10.25561
G1 X129.511 Y96.901 E10.28564
G1 X129.973 Y97.677 E10.31568
G1 X130.366 Y98.49 E10.34571
G1 X130.684 Y99.335 E10.37574
G1 X130.927 Y100.205 E10.40579
G1 X131.092 Y101.093 E10.43583
G1 X131.187 Y102.223 E10.47354
G1 X131.196 Y102.543 E10.48419
G1 X131.2 Y102.83 E10.49374
G1 X131.199 Y131.89 E11.46028
G1 X131.19 Y132.617 E11.48446
G1 X131.139 Y133.519 E11.51451
G1 X131.008 Y134.413 E11.54456
G1 X130.799 Y135.291 E11.57458
G1 X130.513 Y136.148 E11.60463
G1 X130.152 Y136.976 E11.63467
G1 X129.72 Y137.768 E11.66468
G1 X129.219 Y138.52 E11.69473
G1 X128.653 Y139.224 E11.72477
G1 X128.028 Y139.875 E11.75479
G1 X127.347 Y140.469 E11.78485
G1 X126.616 Y141 E11.8149
G1 X125.842 Y141.464 E11.84491
G1 X125.029 Y141.858 E11.87496
G1 X124.185 Y142.178 E11.90498
G1 X123.315 Y142.423 E11.93504
G1 X122.428 Y142.589 E11.96506
G1 X121.277 Y142.687 E12.00348
G1 X120.956 Y142.696 E12.01416
G1 X120.67 Y142.7 E12.02367
G1 X114.575 Y142.699 E12.22639
G1 X113.877 Y142.69 E12.24961
G1 X112.976 Y142.639 E12.27963
G1 X112.082 Y142.507 E12.30968
G1 X111.204 Y142.298 E12.3397
G1 X110.347 Y142.011 E12.36976
G1 X109.52 Y141.65 E12.39977
G1 X108.727 Y141.217 E12.42982
G1 X107.976 Y140.716 E12.45985
G1 X107.272 Y140.15 E12.4899
G1 X106.621 Y139.524 E12.51993
G1 X106.028 Y138.843 E12.54997
G1 X105.498 Y138.112 E12.58
G1 X105.034 Y137.337 E12.61004
G1 X104.64 Y136.524 E12.64009
G1 X104.32 Y135.68 E12.67011
G1 X104.076 Y134.81 E12.70017
G1 X103.91 Y133.922 E12.73021
G1 X103.813 Y132.767 E12.76876
G1 X103.804 Y132.434 E12.77984
G1 X103.8 Y132.158 E12.78902
G1 X103.801 Y103.036 E13.75763
G1 X103.81 Y102.371 E13.77975
G1 X103.862 Y101.469 E13.8098
G1 X103.994 Y100.576 E13.83982
G1 X104.204 Y99.698 E13.86985
G1 X104.491 Y98.841 E13.89991
G1 X104.853 Y98.014 E13.92993
G1 X105.286 Y97.222 E13.95995
G1 X105.788 Y96.471 E13.99
G1 X106.355 Y95.767 E14.02006
G1 F2700 E9.02006
;MESH:stringing.stl
G0 F6000 X113.335 Y102.914
G0 X114.414 Y102.914
G0 X114.782 Y131.718
G0 X120.4 Y131.9
;TYPE:WALL-INNER
G1 F2700 E14.02006
G1 F1200 X114.6 Y131.9 E14.21297
G1 X114.6 Y103.1 E15.17086
G1 X120.4 Y103.1 E15.36377
G1 X120.4 Y131.9 E16.32166
G0 F6000 X120.8 Y132.3
;TYPE:WALL-OUTER
G1 F1200 X114.2 Y132.3 E16.54118
G1 X114.2 Y102.7 E17.52568
G1 X120.8 Y102.7 E17.7452
G1 X120.8 Y132.3 E18.7297
G0 F6000 X120.53 Y132.03
G0 X120.29 Y131.51
G0 X120.01 Y131.51
;TYPE:SKIN
G1 F1200 X114.99 Y131.51 E18.89666
G1 X114.99 Y103.49 E19.82861
G1 X120.01 Y103.49 E19.99558
G1 X120.01 Y131.51 E20.92753
G0 F6000 X120.29 Y131.51
G0 X115.51 Y131.79
G0 X115.51 Y131.349
G1 F1200 X115.148 Y130.987 E20.94456
G0 F6000 X115.148 Y130.422
G1 F1200 X116.075 Y131.349 E20.98816
G0 F6000 X116.641 Y131.349
G1 F1200 X115.148 Y129.856 E21.05838
G0 F6000 X115.148 Y129.29
G1 F1200 X117.207 Y131.349 E21.15523
G0 F6000 X117.772 Y131.349
G1 F1200 X115.148 Y128.725 E21.27866
G0 F6000 X115.148 Y128.159
G1 F1200 X118.338 Y131.349 E21.42871
G0 F6000 X118.904 Y131.349
G1 F1200 X115.148 Y127.593 E21.60538
G0 F6000 X115.148 Y127.028
G1 F1200 X119.469 Y131.349 E21.80862
G0 F6000 X119.85 Y131.164
G1 F1200 X115.148 Y126.462 E22.02979
G0 F6000 X115.148 Y125.896
G1 F1200 X119.85 Y130.598 E22.25096
G0 F6000 X119.85 Y130.032
G1 F1200 X115.148 Y125.331 E22.4721
G0 F6000 X115.148 Y124.765
G1 F1200 X119.85 Y129.467 E22.69327
G0 F6000 X119.85 Y128.901
G1 F1200 X115.148 Y124.199 E22.91444
G0 F6000 X115.148 Y123.634
G1 F1200 X119.85 Y128.335 E23.13558
G0 F6000 X119.85 Y127.769
G1 F1200 X115.148 Y123.068 E23.35673
G0 F6000 X115.148 Y122.502
G1 F1200 X119.85 Y127.204 E23.57789
G0 F6000 X119.85 Y126.638
G1 F1200 X115.148 Y121.937 E23.79904
G0 F6000 X115.148 Y121.371
G1 F1200 X119.85 Y126.072 E24.02018
G0 F6000 X119.85 Y125.507
G1 F1200 X115.148 Y120.805 E24.24135
G0 F6000 X115.148 Y120.239
G1 F1200 X119.85 Y124.941 E24.46252
G0 F6000 X119.85 Y124.375
G1 F1200 X115.148 Y119.674 E24.68366
G0 F6000 X115.148 Y119.108
G1 F1200 X119.85 Y123.81 E24.90483
G0 F6000 X119.85 Y123.244
G1 F1200 X115.148 Y118.542 E25.126
G0 F6000 X115.148 Y117.977
G1 F1200 X119.85 Y122.678 E25.34714
G0 F6000 X119.85 Y122.113
G1 F1200 X115.148 Y117.411 E25.56831
G0 F6000 X115.148 Y116.845
G1 F1200 X119.85 Y121.547 E25.78948
G0 F6000 X119.85 Y120.981
G1 F1200 X115.148 Y116.28 E26.01062
G0 F6000 X115.148 Y115.714
G1 F1200 X119.85 Y120.416 E26.23179
G0 F6000 X119.85 Y119.85
G1 F1200 X115.148 Y115.148 E26.45296
G0 F6000 X115.148 Y114.583
G1 F1200 X119.85 Y119.284 E26.6741
G0 F6000 X119.85 Y118.718
G1 F1200 X115.148 Y114.017 E26.89524
G0 F6000 X115.148 Y113.451
G1 F1200 X119.85 Y118.153 E27.11641
G0 F6000 X119.85 Y117.587
G1 F1200 X115.148 Y112.886 E27.33756
G0 F6000 X115.148 Y112.32
G1 F1200 X119.85 Y117.021 E27.5587
G0 F6000 X119.85 Y116.456
G1 F1200 X115.148 Y111.754 E27.77987
G0 F6000 X115.148 Y111.189
G1 F1200 X119.85 Y115.89 E28.00101
G0 F6000 X119.85 Y115.324
G1 F1200 X115.148 Y110.623 E28.22216
G0 F6000 X115.148 Y110.057
G1 F1200 X119.85 Y114.759 E28.44332
G0 F6000 X119.85 Y114.193
G1 F1200 X115.148 Y109.491 E28.66449
G0 F6000 X115.148 Y108.926
G1 F1200 X119.85 Y113.627 E28.88564
G0 F6000 X119.85 Y113.062
G1 F1200 X115.148 Y108.36 E29.1068
G0 F6000 X115.148 Y107.794
G1 F1200 X119.85 Y112.496 E29.32797
G0 F6000 X119.85 Y111.93
G1 F1200 X115.148 Y107.229 E29.54912
G0 F6000 X115.148 Y106.663
G1 F1200 X119.85 Y111.365 E29.77028
G0 F6000 X119.85 Y110.799
G1 F1200 X115.148 Y106.097 E29.99145
G0 F6000 X115.148 Y105.532
G1 F1200 X119.85 Y110.233 E30.2126
G0 F6000 X119.85 Y109.668
G1 F1200 X115.148 Y104.966 E30.43376
G0 F6000 X115.148 Y104.4
G1 F1200 X119.85 Y109.102 E30.65493
G0 F6000 X119.85 Y108.536
G1 F1200 X115.148 Y103.835 E30.87607
G0 F6000 X115.529 Y103.649
G1 F1200 X119.85 Y107.97 E31.07932
G0 F6000 X119.85 Y107.405
G1 F1200 X116.094 Y103.649 E31.25599
G0 F6000 X116.66 Y103.649
G1 F1200 X119.85 Y106.839 E31.40604
G0 F6000 X119.85 Y106.273
G1 F1200 X117.226 Y103.649 E31.52946
G0 F6000 X117.791 Y103.649
G1 F1200 X119.85 Y105.708 E31.62631
G0 F6000 X119.85 Y105.142
G1 F1200 X118.357 Y103.649 E31.69654
G0 F6000 X118.923 Y103.649
G1 F1200 X119.85 Y104.576 E31.74014
G0 F6000 X119.85 Y104.011
G1 F1200 X119.489 Y103.649 E31.75715
G0 F6000 X119.489 Y103.3
;MESH:NONMESH
G0 F300 X119.489 Y103.3 Z0.4
G0 F6000 X119.489 Y103.21
G0 X120.218 Y103.282
G0 X120.4 Y131.9
;TIME_ELAPSED:58.776924
;LAYER:1
M106 S85
;TYPE:WALL-INNER
;MESH:stringing.stl
G1 F1350 X114.6 Y131.9 E31.95006
G1 X114.6 Y103.1 E32.90795
G1 X120.4 Y103.1 E33.10086
G1 X120.4 Y131.9 E34.05875
G0 F7500 X120.8 Y132.3
;TYPE:WALL-OUTER
G1 F1350 X114.2 Y132.3 E34.27827
G1 X114.2 Y102.7 E35.26277
G1 X120.8 Y102.7 E35.48228
G1 X120.8 Y132.3 E36.46678
G0 F7500 X120.53 Y132.03
G0 X120.29 Y131.51
G0 X120.01 Y131.51
;TYPE:SKIN
G1 F1350 X114.99 Y131.51 E36.63375
G1 X114.99 Y103.49 E37.5657
G1 X120.01 Y103.49 E37.73266
G1 X120.01 Y131.51 E38.66461
G0 F7500 X119.249 Y131.349
G1 F1350 X119.849 Y130.748 E38.69286
G0 F7500 X119.849 Y130.183
G1 F1350 X118.683 Y131.349 E38.7477
G0 F7500 X118.117 Y131.349
G1 F1350 X119.849 Y129.617 E38.82917
G0 F7500 X119.849 Y129.051
G1 F1350 X117.552 Y131.349 E38.93724
G0 F7500 X116.986 Y131.349
G1 F1350 X119.849 Y128.486 E39.0719
G0 F7500 X119.849 Y127.92
G1 F1350 X116.42 Y131.349 E39.23319
G0 F7500 X115.855 Y131.349
G1 F1350 X119.849 Y127.354 E39.42108
G0 F7500 X119.849 Y126.789
G1 F1350 X115.289 Y131.349 E39.63557
G0 F7500 X115.149 Y130.923
G1 F1350 X119.849 Y126.223 E39.85665
G0 F7500 X119.849 Y125.657
G1 F1350 X115.149 Y130.357 E40.07772
G0 F7500 X115.149 Y129.792
G1 F1350 X119.849 Y125.092 E40.29879
G0 F7500 X119.849 Y124.526
G1 F1350 X115.149 Y129.226 E40.51987
G0 F7500 X115.149 Y128.66
G1 F1350 X119.849 Y123.96 E40.74094
G0 F7500 X119.849 Y123.395
G1 F1350 X115.149 Y128.095 E40.96201
G0 F7500 X115.149 Y127.529
G1 F1350 X119.849 Y122.829 E41.18309
G0 F7500 X119.849 Y122.263
G1 F1350 X115.149 Y126.963 E41.40416
G0 F7500 X115.149 Y126.398
G1 F1350 X119.849 Y121.698 E41.62523
G0 F7500 X119.849 Y121.132
G1 F1350 X115.149 Y125.832 E41.84631
G0 F7500 X115.149 Y125.266
G1 F1350 X119.849 Y120.566 E42.06738
G0 F7500 X119.849 Y120
G1 F1350 X115.149 Y124.701 E42.28848
G0 F7500 X115.149 Y124.135
G1 F1350 X119.849 Y119.435 E42.50955
G0 F7500 X119.849 Y118.869
G1 F1350 X115.149 Y123.569 E42.73063
G0 F7500 X115.149 Y123.004
G1 F1350 X119.849 Y118.303 E42.95172
G0 F7500 X119.849 Y117.738
G1 F1350 X115.149 Y122.438 E43.1728
G0 F7500 X115.149 Y121.872
G1 F1350 X119.849 Y117.172 E43.39387
G0 F7500 X119.849 Y116.606
G1 F1350 X115.149 Y121.306 E43.61494
G0 F7500 X115.149 Y120.741
G1 F1350 X119.849 Y116.041 E43.83602
G0 F7500 X119.849 Y115.475
G1 F1350 X115.149 Y120.175 E44.05709
G0 F7500 X115.149 Y119.609
G1 F1350 X119.849 Y114.909 E44.27816
G0 F7500 X119.849 Y114.344
G1 F1350 X115.149 Y119.044 E44.49924
G0 F7500 X115.149 Y118.478
G1 F1350 X119.849 Y113.778 E44.72031
G0 F7500 X119.849 Y113.212
G1 F1350 X115.149 Y117.912 E44.94139
G0 F7500 X115.149 Y117.347
G1 F1350 X119.849 Y112.647 E45.16246
G0 F7500 X119.849 Y112.081
G1 F1350 X115.149 Y116.781 E45.38353
G0 F7500 X115.149 Y116.215
G1 F1350 X119.849 Y111.515 E45.60461
G0 F7500 X119.849 Y110.95
G1 F1350 X115.149 Y115.65 E45.82568
G0 F7500 X115.149 Y115.084
G1 F1350 X119.849 Y110.384 E46.04675
G0 F7500 X119.849 Y109.818
G1 F1350 X115.149 Y114.518 E46.26783
G0 F7500 X115.149 Y113.953
G1 F1350 X119.849 Y109.252 E46.48892
G0 F7500 X119.849 Y108.687
