;FLAVOR:Marlin
;TIME:1343
;Filament used: 0.704734m
;Layer height: 0.2
;MINX:88.241
;MINY:97.447
;MINZ:0.2
;MAXX:146.759
;MAXY:145.695
;MAXZ:5.8
;Generated with Cura_SteamEngine 4.13.1
M140 S60
M105
M190 S60
M104 S200
M105
M109 S200
M82 ;absolute extrusion mode
; Ender 3 Custom Start G-code
G92 E0 ; Reset Extruder
G28 ; Home all axes
G1 Z2.0 F3000 ; Move Z Axis up little to prevent scratching of Heat Bed
G1 X0.1 Y20 Z0.3 F5000.0 ; Move to start position
G1 X0.1 Y200.0 Z0.3 F1500.0 E15 ; Draw the first line
G1 X0.4 Y200.0 Z0.3 F5000.0 ; Move to side a little
G1 X0.4 Y20 Z0.3 F1500.0 E30 ; Draw the second line
G92 E0 ; Reset Extruder
G1 Z2.0 F3000 ; Move Z Axis up little to prevent scratching of Heat Bed
G1 X5 Y20 Z0.3 F5000.0 ; Move over to prevent blob squish
G92 E0
G92 E0
G1 F2700 E-5
;LAYER_COUNT:29
;LAYER:0
M107
G0 F6000 X92.136 Y109.827 Z0.2
;TYPE:SKIRT
G1 F2700 E0
G1 F1200 X92.876 Y109.251 E0.03119
G1 X93.663 Y108.741 E0.06238
G1 X94.491 Y108.299 E0.0936
G1 X95.353 Y107.93 E0.12479
G1 X96.243 Y107.635 E0.15597
G1 X97.155 Y107.417 E0.18716
G1 X98.304 Y107.257 E0.22574
G1 X99.229 Y107.177 E0.25662
G1 X101.846 Y106.914 E0.3441
G1 X104.334 Y106.592 E0.42755
G1 X106.842 Y106.195 E0.512
G1 X109.292 Y105.737 E0.5949
G1 X111.752 Y105.204 E0.67862
G1 X114.158 Y104.612 E0.76103
G1 X116.629 Y103.927 E0.84631
G1 X119.048 Y103.183 E0.93049
G1 X121.419 Y102.381 E1.01374
G1 X123.766 Y101.511 E1.09699
G1 X126.12 Y100.562 E1.18141
G1 X128.407 Y99.564 E1.2644
G1 X130.425 Y98.623 E1.33846
G1 X130.801 Y98.452 E1.3522
G1 X131.671 Y98.1 E1.38341
G1 X132.567 Y97.824 E1.41459
G1 X133.297 Y97.659 E1.43949
G1 X133.402 Y97.639 E1.44304
G1 X134.33 Y97.503 E1.47424
G1 X135.266 Y97.447 E1.50542
G1 X136.203 Y97.47 E1.5366
G1 X137.136 Y97.573 E1.56782
G1 X138.056 Y97.756 E1.59902
G1 X138.957 Y98.016 E1.63021
G1 X139.517 Y98.221 E1.65004
G1 X139.706 Y98.296 E1.6568
G1 X140.563 Y98.678 E1.68801
G1 X141.383 Y99.133 E1.7192
G1 X142.162 Y99.655 E1.75039
G1 X142.893 Y100.242 E1.78157
G1 X143.572 Y100.889 E1.81277
G1 X144.193 Y101.592 E1.84397
G1 X144.633 Y102.173 E1.86821
G1 X144.71 Y102.282 E1.87265
G1 X145.218 Y103.071 E1.90386
G1 X145.657 Y103.899 E1.93503
G1 X146.024 Y104.763 E1.96625
G1 X146.316 Y105.654 E1.99743
G1 X146.531 Y106.567 E2.02863
G1 X146.638 Y107.239 E2.05126
G1 X146.665 Y107.451 E2.05837
G1 X146.751 Y108.654 E2.09849
G1 X146.759 Y109.195 E2.11648
G1 X146.757 Y116.858 E2.37135
G1 X146.747 Y117.548 E2.39431
G1 X146.705 Y118.363 E2.42145
G1 X146.655 Y118.825 E2.4369
G1 X146.523 Y119.85 E2.47128
G1 X146.41 Y120.644 E2.49795
G1 X146.125 Y123.16 E2.58217
G1 X145.912 Y125.652 E2.66536
G1 X145.77 Y128.15 E2.74857
G1 X145.697 Y130.727 E2.83432
G1 X145.688 Y132.03 E2.87766
G1 X145.687 Y134.121 E2.94721
G1 X145.676 Y134.852 E2.97152
G1 X145.622 Y135.788 E3.00271
G1 X145.488 Y136.716 E3.03389
G1 X145.276 Y137.63 E3.0651
G1 X144.987 Y138.522 E3.09628
G1 X144.622 Y139.386 E3.12748
G1 X144.186 Y140.216 E3.15866
G1 X143.68 Y141.006 E3.18987
G1 X143.109 Y141.75 E3.22106
G1 X142.477 Y142.443 E3.25225
G1 X141.788 Y143.079 E3.28344
G1 X141.047 Y143.654 E3.31464
G1 X140.26 Y144.164 E3.34583
G1 X139.432 Y144.605 E3.37703
G1 X138.57 Y144.974 E3.40822
G1 X137.679 Y145.268 E3.43942
G1 X136.767 Y145.486 E3.47061
G1 X135.839 Y145.624 E3.50182
G1 X134.987 Y145.682 E3.53022
G1 X134.668 Y145.691 E3.54083
G1 X134.358 Y145.695 E3.55114
G1 X102.786 Y145.694 E4.60123
G1 X101.995 Y145.683 E4.62755
G1 X101.201 Y145.643 E4.65399
G1 X100.9 Y145.617 E4.66404
G1 X100.166 Y145.529 E4.68862
G1 X100.069 Y145.514 E4.69189
G1 X99.241 Y145.353 E4.71994
G1 X98.844 Y145.26 E4.7335
G1 X97.874 Y144.986 E4.76703
G1 X97.775 Y144.953 E4.7705
G1 X96.712 Y144.536 E4.80848
G1 X96.337 Y144.366 E4.82217
G1 X95.379 Y143.873 E4.85801
G1 X95.14 Y143.735 E4.86719
G1 X94.254 Y143.165 E4.90223
G1 X93.909 Y142.919 E4.91632
G1 X93.169 Y142.343 E4.94751
G1 X92.804 Y142.018 E4.96377
G1 X92.704 Y141.925 E4.96831
G1 X92.172 Y141.396 E4.99326
G1 X91.975 Y141.186 E5.00284
G1 X91.279 Y140.367 E5.03859
G1 X91.069 Y140.094 E5.05004
G1 X90.444 Y139.191 E5.08657
G1 X90.221 Y138.832 E5.10062
G1 X89.761 Y138.015 E5.13181
G1 X89.484 Y137.431 E5.15331
G1 X89.255 Y136.871 E5.17343
G1 X89.073 Y136.389 E5.19057
G1 X88.692 Y135.171 E5.23301
G1 X88.661 Y135.047 E5.23726
G1 X88.48 Y134.17 E5.26705
G1 X88.43 Y133.867 E5.27726
G1 X88.31 Y132.845 E5.31149
G1 X88.272 Y132.303 E5.32956
G1 X88.246 Y131.659 E5.35099
G1 X88.241 Y131.183 E5.36683
G1 X88.242 Y118.745 E5.78052
G1 X88.252 Y118.056 E5.80344
G1 X88.306 Y117.12 E5.83462
G1 X88.439 Y116.192 E5.8658
G1 X88.651 Y115.278 E5.89701
G1 X88.939 Y114.386 E5.92818
G1 X89.303 Y113.521 E5.9594
G1 X89.739 Y112.691 E5.99058
G1 X90.244 Y111.901 E6.02176
G1 X90.815 Y111.157 E6.05296
G1 X91.447 Y110.464 E6.08415
G1 X92.136 Y109.827 E6.11536
G0 F6000 X92.524 Y110.024
G1 F1200 X93.261 Y109.471 E6.14601
G1 X94.042 Y108.984 E6.17662
G1 X94.863 Y108.567 E6.20725
G1 X95.717 Y108.223 E6.23787
G1 X96.597 Y107.954 E6.26848
G1 X97.498 Y107.762 E6.29912
G1 X98.338 Y107.655 E6.32728
G1 X99.306 Y107.571 E6.3596
G1 X101.901 Y107.31 E6.44634
G1 X104.376 Y106.99 E6.52935
G1 X106.906 Y106.59 E6.61454
G1 X109.351 Y106.132 E6.69727
G1 X111.861 Y105.589 E6.78269
G1 X114.279 Y104.993 E6.86552
G1 X116.748 Y104.309 E6.95073
G1 X119.156 Y103.569 E7.03452
G1 X121.549 Y102.759 E7.11855
G1 X123.905 Y101.886 E7.20211
G1 X126.263 Y100.936 E7.28667
G1 X128.606 Y99.913 E7.3717
G1 X130.591 Y98.987 E7.44455
G1 X130.967 Y98.816 E7.45829
G1 X131.821 Y98.472 E7.48891
G1 X132.701 Y98.203 E7.51952
G1 X133.372 Y98.052 E7.54239
G1 X133.477 Y98.032 E7.54595
G1 X134.388 Y97.899 E7.57657
G1 X135.307 Y97.846 E7.60719
G1 X136.227 Y97.873 E7.6378
G1 X137.141 Y97.979 E7.6684
G1 X138.043 Y98.165 E7.69903
G1 X138.926 Y98.428 E7.72968
G1 X139.37 Y98.592 E7.74542
G1 X139.559 Y98.667 E7.75218
G1 X140.399 Y99.044 E7.78281
G1 X141.203 Y99.492 E7.81342
G1 X141.966 Y100.008 E7.84405
G1 X142.681 Y100.588 E7.87468
G1 X143.342 Y101.228 E7.90528
G1 X143.946 Y101.923 E7.9359
G1 X144.307 Y102.404 E7.95591
G1 X144.384 Y102.513 E7.96034
G1 X144.882 Y103.287 E7.99096
G1 X145.311 Y104.102 E8.02159
G1 X145.667 Y104.951 E8.05221
G1 X145.949 Y105.827 E8.08282
G1 X146.154 Y106.725 E8.11345
G1 X146.241 Y107.29 E8.13247
G1 X146.268 Y107.502 E8.13957
G1 X146.351 Y108.661 E8.17822
G1 X146.359 Y109.195 E8.19598
G1 X146.357 Y116.853 E8.45069
G1 X146.347 Y117.543 E8.47364
G1 X146.306 Y118.329 E8.49982
G1 X146.259 Y118.774 E8.5147
G1 X146.127 Y119.794 E8.54891
G1 X146.011 Y120.614 E8.57646
G1 X145.731 Y123.082 E8.65907
G1 X145.513 Y125.632 E8.74419
G1 X145.37 Y128.15 E8.82808
G1 X145.297 Y130.714 E8.91339
G1 X145.288 Y132.027 E8.95706
G1 X145.287 Y134.114 E9.02648
G1 X145.276 Y134.845 E9.05079
G1 X145.222 Y135.765 E9.08144
G1 X145.089 Y136.676 E9.11206
G1 X144.877 Y137.571 E9.14266
G1 X144.588 Y138.446 E9.1733
G1 X144.224 Y139.291 E9.20391
G1 X143.789 Y140.102 E9.23452
G1 X143.284 Y140.873 E9.26517
G1 X142.715 Y141.596 E9.29577
G1 X142.085 Y142.268 E9.32641
G1 X141.399 Y142.882 E9.35703
G1 X140.663 Y143.434 E9.38763
G1 X139.881 Y143.921 E9.41827
G1 X139.06 Y144.337 E9.44888
G1 X138.206 Y144.681 E9.4795
G1 X137.325 Y144.95 E9.51014
G1 X136.425 Y145.141 E9.54074
G1 X135.511 Y145.253 E9.57137
G1 X134.976 Y145.282 E9.58919
G1 X134.657 Y145.291 E9.5998
G1 X134.358 Y145.295 E9.60975
G1 X102.792 Y145.294 E10.65964
G1 X102.001 Y145.283 E10.68595
G1 X101.236 Y145.245 E10.71142
G1 X100.935 Y145.219 E10.72147
G1 X100.227 Y145.133 E10.74519
G1 X100.13 Y145.118 E10.74846
G1 X99.332 Y144.964 E10.77549
G1 X98.935 Y144.871 E10.78905
G1 X98.001 Y144.606 E10.82134
G1 X97.902 Y144.573 E10.82481
G1 X96.877 Y144.171 E10.86143
G1 X96.502 Y144.001 E10.87513
G1 X95.579 Y143.527 E10.90964
G1 X95.34 Y143.389 E10.91882
G1 X94.486 Y142.84 E10.95259
G1 X94.141 Y142.594 E10.96668
G1 X93.076 Y141.725 E11.0124
G1 X92.976 Y141.632 E11.01694
G1 X92.464 Y141.122 E11.04097
G1 X92.267 Y140.912 E11.05055
G1 X91.596 Y140.123 E11.085
G1 X91.386 Y139.85 E11.09646
G1 X90.784 Y138.98 E11.13164
G1 X90.561 Y138.621 E11.1457
G1 X90.109 Y137.819 E11.17632
G1 X89.85 Y137.269 E11.19654
G1 X89.629 Y136.729 E11.21595
G1 X89.447 Y136.247 E11.23308
G1 X89.08 Y135.074 E11.27396
G1 X89.049 Y134.95 E11.27821
G1 X88.874 Y134.105 E11.30691
G1 X88.824 Y133.802 E11.31713
G1 X88.709 Y132.817 E11.35011
G1 X88.671 Y132.275 E11.36818
G1 X88.646 Y131.655 E11.38882
G1 X88.641 Y131.183 E11.40452
G1 X88.642 Y118.751 E11.81801
G1 X88.652 Y118.062 E11.84093
G1 X88.705 Y117.143 E11.87155
G1 X88.838 Y116.232 E11.90217
G1 X89.05 Y115.336 E11.93279
G1 X89.338 Y114.462 E11.9634
G1 X89.701 Y113.616 E11.99402
G1 X90.136 Y112.804 E12.02466
G1 X90.64 Y112.034 E12.05526
G1 X91.209 Y111.31 E12.08589
G1 X91.839 Y110.638 E12.11653
G1 X92.524 Y110.024 E12.14712
G0 F6000 X92.912 Y110.225
G1 F1200 X93.644 Y109.695 E12.17718
G1 X94.42 Y109.233 E12.20722
G1 X95.233 Y108.841 E12.23724
G1 X96.078 Y108.522 E12.26728
G1 X96.948 Y108.279 E12.29732
G1 X97.836 Y108.115 E12.32736
G1 X98.373 Y108.054 E12.34533
G1 X99.305 Y107.973 E12.37645
G1 X101.921 Y107.71 E12.4639
G1 X104.458 Y107.382 E12.54898
G1 X106.971 Y106.985 E12.6336
G1 X109.438 Y106.523 E12.71708
G1 X111.962 Y105.976 E12.80298
G1 X114.352 Y105.388 E12.88484
G1 X116.867 Y104.691 E12.97164
G1 X119.287 Y103.947 E13.05585
G1 X121.68 Y103.137 E13.13988
G1 X124.065 Y102.253 E13.22447
G1 X126.424 Y101.302 E13.30907
G1 X128.756 Y100.284 E13.3937
G1 X130.756 Y99.351 E13.4671
G1 X131.132 Y99.18 E13.48084
G1 X131.97 Y98.843 E13.51088
G1 X132.835 Y98.581 E13.54094
G1 X133.446 Y98.445 E13.56176
G1 X133.551 Y98.425 E13.56532
G1 X134.445 Y98.296 E13.59536
G1 X135.347 Y98.246 E13.62541
G1 X136.25 Y98.276 E13.65546
G1 X137.146 Y98.385 E13.68548
G1 X138.029 Y98.574 E13.71551
G1 X139.222 Y98.964 E13.75726
G1 X139.411 Y99.039 E13.76402
G1 X140.235 Y99.409 E13.79406
G1 X141.023 Y99.851 E13.82411
G1 X141.769 Y100.36 E13.85415
G1 X142.467 Y100.933 E13.88419
G1 X143.111 Y101.566 E13.91422
G1 X143.697 Y102.253 E13.94426
G1 X143.98 Y102.635 E13.96007
G1 X144.057 Y102.744 E13.96451
G1 X144.545 Y103.504 E13.99455
G1 X144.964 Y104.304 E14.02458
G1 X145.31 Y105.138 E14.05461
G1 X145.581 Y105.999 E14.08464
G1 X145.775 Y106.881 E14.11467
G1 X145.844 Y107.34 E14.13011
G1 X145.871 Y107.552 E14.13722
G1 X145.952 Y108.668 E14.17444
G1 X145.959 Y109.195 E14.19196
G1 X145.957 Y116.847 E14.44647
G1 X145.947 Y117.537 E14.46942
G1 X145.908 Y118.295 E14.49467
G1 X145.862 Y118.723 E14.50899
G1 X145.731 Y119.738 E14.54302
G1 X145.616 Y120.55 E14.5703
G1 X145.329 Y123.075 E14.65482
G1 X145.113 Y125.611 E14.73948
G1 X144.97 Y128.115 E14.8229
G1 X144.897 Y130.7 E14.90891
G1 X144.888 Y132.025 E14.95298
G1 X144.887 Y134.108 E15.02226
G1 X144.876 Y134.839 E15.04658
G1 X144.822 Y135.741 E15.07663
G1 X144.689 Y136.634 E15.10666
G1 X144.478 Y137.512 E15.13669
G1 X144.189 Y138.368 E15.16674
G1 X143.826 Y139.195 E15.19678
G1 X143.392 Y139.987 E15.22682
G1 X142.889 Y140.737 E15.25685
G1 X142.321 Y141.439 E15.28689
G1 X141.694 Y142.089 E15.31693
G1 X141.012 Y142.681 E15.34696
G1 X140.28 Y143.21 E15.377
G1 X139.504 Y143.672 E15.40704
G1 X138.69 Y144.063 E15.43708
G1 X137.845 Y144.382 E15.46712
G1 X136.975 Y144.624 E15.49715
G1 X136.087 Y144.788 E15.52719
G1 X134.965 Y144.882 E15.56463
G1 X134.646 Y144.891 E15.57525
G1 X134.358 Y144.895 E15.58483
G1 X102.797 Y144.894 E16.63455
G1 X102.006 Y144.883 E16.66086
G1 X101.27 Y144.846 E16.68537
G1 X100.969 Y144.82 E16.69542
G1 X100.288 Y144.738 E16.71824
G1 X100.191 Y144.723 E16.7215
G1 X99.424 Y144.574 E16.74749
G1 X99.027 Y144.481 E16.76105
G1 X98.127 Y144.227 E16.79215
G1 X98.028 Y144.194 E16.79562
G1 X97.043 Y143.807 E16.83082
G1 X96.668 Y143.637 E16.84452
G1 X95.779 Y143.18 E16.87776
G1 X95.54 Y143.042 E16.88694
G1 X94.718 Y142.514 E16.91944
G1 X94.373 Y142.268 E16.93353
G1 X93.349 Y141.432 E16.9775
G1 X93.249 Y141.339 E16.98204
G1 X92.756 Y140.849 E17.00516
G1 X92.559 Y140.639 E17.01473
G1 X91.913 Y139.879 E17.04791
G1 X91.703 Y139.606 E17.05937
G1 X91.124 Y138.769 E17.09322
G1 X90.901 Y138.41 E17.10727
G1 X90.458 Y137.623 E17.13731
G1 X90.216 Y137.107 E17.15627
G1 X90.004 Y136.588 E17.17491
G1 X89.822 Y136.106 E17.19205
G1 X89.469 Y134.977 E17.23139
G1 X89.438 Y134.853 E17.23564
G1 X89.269 Y134.04 E17.26326
G1 X89.219 Y133.737 E17.27348
G1 X89.108 Y132.789 E17.30522
G1 X89.07 Y132.247 E17.32329
G1 X89.046 Y131.65 E17.34317
G1 X89.041 Y131.183 E17.3587
G1 X89.042 Y118.757 E17.77199
G1 X89.052 Y118.068 E17.79491
G1 X89.105 Y117.166 E17.82496
G1 X89.238 Y116.273 E17.85499
G1 X89.449 Y115.395 E17.88502
G1 X89.737 Y114.539 E17.91506
G1 X90.099 Y113.712 E17.94509
G1 X90.534 Y112.92 E17.97514
G1 X91.036 Y112.17 E18.00516
G1 X91.603 Y111.467 E18.0352
G1 X92.23 Y110.817 E18.06524
G1 X92.912 Y110.225 E18.09527
G1 F2700 E13.09527
;MESH:adj-bltouch-mount-3D-mount-EC-mod.stl
G0 F6000 X131.568 Y132.57
G0 X132.507 Y133.112
G0 X132.147 Y134.095
;TYPE:WALL-INNER
G1 F2700 E18.09527
G1 F1200 X133.708 Y131.394 E18.19903
G1 X133.969 Y130.942 E18.21639
G1 X132.384 Y128.198 E18.32179
G1 X132.682 Y128.245 E18.33182
G1 X133.297 Y128.277 E18.35231
G1 X133.813 Y128.254 E18.36949
G1 X134.088 Y128.216 E18.37872
G1 X134.088 Y130.942 E18.46939
G1 X134.088 Y131.464 E18.48087
G1 X134.088 Y134.095 E18.56837
G1 X132.147 Y134.095 E18.63293
G1 F2700 E13.63293
G0 F6000 X131.817 Y134.286
G0 X131.148 Y133.309
G0 X128.413 Y133.309
G0 X127.744 Y134.286
G0 X127.414 Y134.095
G1 F2700 E18.63293
G1 F1200 X102.262 Y134.095 E19.46949
G1 X101.993 Y134.082 E19.47845
G1 X101.532 Y133.987 E19.4941
G1 X101.104 Y133.808 E19.50953
G1 X100.909 Y133.69 E19.51711
G1 X100.708 Y133.54 E19.52546
G1 X100.383 Y133.212 E19.54081
G1 X100.12 Y132.816 E19.55662
G1 X100.027 Y132.617 E19.56393
G1 X99.942 Y132.378 E19.57237
G1 X99.853 Y131.915 E19.58805
G1 X99.841 Y131.695 E19.59538
G1 X99.841 Y118.807 E20.02403
G1 X104.062 Y118.807 E20.16442
G1 X104.044 Y118.956 E20.16942
G1 X104.024 Y119.815 E20.19799
G1 X104.089 Y120.671 E20.22655
G1 X104.24 Y121.517 E20.25513
G1 X104.472 Y122.343 E20.28367
G1 X104.788 Y123.143 E20.31227
G1 X105.18 Y123.906 E20.34081
G1 X105.646 Y124.628 E20.36939
G1 X106.182 Y125.299 E20.39795
G1 X106.782 Y125.914 E20.42653
G1 X107.439 Y126.466 E20.45507
G1 X108.148 Y126.951 E20.48364
G1 X108.902 Y127.361 E20.51219
G1 X109.694 Y127.695 E20.54077
G1 X110.514 Y127.949 E20.56933
G1 X111.356 Y128.12 E20.5979
G1 X112.239 Y128.21 E20.62742
G1 X113.125 Y128.124 E20.65703
G1 X113.97 Y127.957 E20.68568
G1 X114.792 Y127.706 E20.71426
G1 X115.586 Y127.374 E20.74289
G1 X116.342 Y126.964 E20.77149
G1 X117.054 Y126.481 E20.80011
G1 X117.714 Y125.928 E20.82875
G1 X118.315 Y125.313 E20.85735
G1 X118.853 Y124.64 E20.88601
G1 X119.32 Y123.916 E20.91466
G1 X119.711 Y123.15 E20.94327
G1 X120.025 Y122.35 E20.97185
G1 X120.257 Y121.52 E21.00051
G1 X120.405 Y120.672 E21.02914
G1 X120.466 Y119.814 E21.05775
G1 X120.442 Y118.954 E21.08637
G1 X120.423 Y118.807 E21.0913
G1 X127.483 Y118.807 E21.32612
G1 X127.483 Y113.245 E21.51111
G1 X127.884 Y113.243 E21.52445
G1 X128.906 Y113.136 E21.55862
G1 X129.912 Y112.927 E21.5928
G1 X130.892 Y112.617 E21.62698
G1 X131.836 Y112.212 E21.66115
G1 X132.735 Y111.713 E21.69535
G1 X133.579 Y111.128 E21.7295
G1 X134.362 Y110.46 E21.76374
G1 X135.072 Y109.717 E21.79792
G1 X135.159 Y109.606 E21.80261
G1 X135.158 Y116.94 E22.04654
G1 X135.026 Y116.891 E22.05122
G1 X134.457 Y116.745 E22.07076
G1 X133.861 Y116.654 E22.09081
G1 X133.288 Y116.626 E22.10989
G1 X132.665 Y116.66 E22.13064
G1 X132.078 Y116.752 E22.15041
G1 X131.475 Y116.916 E22.17119
G1 X130.92 Y117.128 E22.19095
G1 X130.362 Y117.416 E22.21184
G1 X129.852 Y117.748 E22.23208
G1 X129.392 Y118.121 E22.25177
G1 X128.96 Y118.553 E22.27209
G1 X128.568 Y119.04 E22.29289
G1 X128.244 Y119.537 E22.31262
G1 X127.962 Y120.097 E22.33347
G1 X127.744 Y120.665 E22.35371
G1 X127.592 Y121.238 E22.37343
G1 X127.495 Y121.857 E22.39426
G1 X127.463 Y122.465 E22.41452
G1 X127.495 Y123.059 E22.4343
G1 X127.594 Y123.676 E22.45508
G1 X127.749 Y124.254 E22.47499
G1 X127.968 Y124.824 E22.4953
G1 X128.248 Y125.371 E22.51574
G1 X128.579 Y125.88 E22.53593
G1 X128.962 Y126.352 E22.55615
