;FLAVOR:Marlin
;TIME:4112
;Filament used: 1.77265m
;Layer height: 0.2
;MINX:82.283
;MINY:88.676
;MINZ:0.2
;MAXX:140.097
;MAXY:132.493
;MAXZ:36.6
;Generated with Cura_SteamEngine 4.13.1
M140 S60
M105
M190 S60
M104 S200
M105
M109 S200
M82 ;absolute extrusion mode
; Ender 3 Custom Start G-code
G92 E0 ; Reset Extruder
G28 ; Home all axes
G1 Z2.0 F3000 ; Move Z Axis up little to prevent scratching of Heat Bed
G1 X0.1 Y20 Z0.3 F5000.0 ; Move to start position
G1 X0.1 Y200.0 Z0.3 F1500.0 E15 ; Draw the first line
G1 X0.4 Y200.0 Z0.3 F5000.0 ; Move to side a little
G1 X0.4 Y20 Z0.3 F1500.0 E30 ; Draw the second line
G92 E0 ; Reset Extruder
G1 Z2.0 F3000 ; Move Z Axis up little to prevent scratching of Heat Bed
G1 X5 Y20 Z0.3 F5000.0 ; Move over to prevent blob squish
G92 E0
G92 E0
G1 F2700 E-5
;LAYER_COUNT:183
;LAYER:0
M107
G0 F6000 X86.533 Y91.928 Z0.2
;TYPE:SKIRT
G1 F2700 E0
G1 F1200 X87.222 Y91.292 E0.03119
G1 X87.963 Y90.717 E0.06238
G1 X88.75 Y90.207 E0.09357
G1 X89.577 Y89.766 E0.12475
G1 X90.44 Y89.397 E0.15596
G1 X91.33 Y89.103 E0.18714
G1 X92.243 Y88.885 E0.21836
G1 X93.17 Y88.747 E0.24953
G1 X94.02 Y88.689 E0.27787
G1 X94.337 Y88.68 E0.28842
G1 X94.651 Y88.676 E0.29886
G1 X99.483 Y88.678 E0.45957
G1 X100.175 Y88.688 E0.48259
G1 X100.713 Y88.709 E0.5005
G1 X101.166 Y88.745 E0.51561
G1 X101.329 Y88.761 E0.52106
G1 X103.855 Y88.976 E0.60538
G1 X106.351 Y89.117 E0.68853
G1 X110.29 Y89.201 E0.81957
G1 X120.415 Y89.203 E1.15633
G1 X120.95 Y89.21 E1.17412
G1 X121.322 Y89.221 E1.1865
G1 X121.961 Y89.251 E1.20778
G1 X122.32 Y89.274 E1.21974
G1 X122.483 Y89.287 E1.22518
G1 X123.399 Y89.399 E1.25588
G1 X123.599 Y89.432 E1.26262
G1 X124.155 Y89.538 E1.28144
G1 X124.622 Y89.64 E1.29734
G1 X125.518 Y89.876 E1.32816
G1 X125.706 Y89.934 E1.3347
G1 X126.147 Y90.08 E1.35015
G1 X126.569 Y90.23 E1.36505
G1 X127.454 Y90.589 E1.39682
G1 X127.627 Y90.668 E1.40314
G1 X128.039 Y90.866 E1.41834
G1 X128.423 Y91.061 E1.43267
G1 X129.255 Y91.53 E1.46444
G1 X129.451 Y91.652 E1.47211
G1 X129.902 Y91.949 E1.49007
G1 X130.273 Y92.206 E1.50509
G1 X131.046 Y92.793 E1.53737
G1 X131.201 Y92.922 E1.54408
G1 X131.529 Y93.207 E1.55853
G1 X131.864 Y93.509 E1.57353
G1 X132.529 Y94.161 E1.6045
G1 X132.661 Y94.302 E1.61093
G1 X133.026 Y94.712 E1.62919
G1 X133.324 Y95.064 E1.64453
G1 X133.897 Y95.803 E1.67563
G1 X134.022 Y95.979 E1.68281
G1 X134.304 Y96.395 E1.69952
G1 X134.537 Y96.757 E1.71384
G1 X134.982 Y97.514 E1.74305
G1 X135.079 Y97.695 E1.74988
G1 X135.317 Y98.166 E1.76743
G1 X135.503 Y98.557 E1.78183
G1 X135.877 Y99.438 E1.81366
G1 X135.968 Y99.682 E1.82233
G1 X136.147 Y100.202 E1.84062
G1 X136.276 Y100.609 E1.85482
G1 X136.507 Y101.455 E1.88399
G1 X136.55 Y101.641 E1.89034
G1 X136.654 Y102.144 E1.90742
G1 X136.729 Y102.555 E1.92131
G1 X136.781 Y102.86 E1.93161
G1 X136.965 Y104.058 E1.97192
G1 X137.062 Y104.749 E1.99513
G1 X137.479 Y107.204 E2.07795
G1 X137.973 Y109.693 E2.16235
G1 X138.534 Y112.138 E2.24578
G1 X139.175 Y114.618 E2.33098
G1 X139.643 Y116.269 E2.38806
G1 X139.868 Y117.179 E2.41923
G1 X140.015 Y118.106 E2.45045
G1 X140.082 Y119.029 E2.48123
G1 X140.092 Y119.36 E2.49224
G1 X140.097 Y119.692 E2.50329
G1 X140.096 Y120.807 E2.54037
G1 X140.086 Y121.534 E2.56456
G1 X140.033 Y122.471 E2.59577
G1 X139.901 Y123.399 E2.62695
G1 X139.69 Y124.313 E2.65815
G1 X139.401 Y125.205 E2.68933
G1 X139.038 Y126.07 E2.72053
G1 X138.603 Y126.901 E2.75173
G1 X138.098 Y127.691 E2.78291
G1 X137.528 Y128.436 E2.81411
G1 X136.897 Y129.13 E2.84531
G1 X136.208 Y129.767 E2.87652
G1 X135.468 Y130.343 E2.90771
G1 X134.682 Y130.854 E2.93889
G1 X133.855 Y131.296 E2.97008
G1 X132.993 Y131.666 E3.00128
G1 X131.881 Y132.022 E3.04011
G1 X131.782 Y132.048 E3.04352
G1 X130.816 Y132.256 E3.07638
G1 X130.46 Y132.316 E3.08839
G1 X129.44 Y132.439 E3.12256
G1 X129.345 Y132.446 E3.12573
G1 X128.927 Y132.469 E3.13966
G1 X128.532 Y132.483 E3.1528
G1 X128.256 Y132.489 E3.16198
G1 X127.853 Y132.493 E3.17539
G1 X114.629 Y132.492 E3.61522
G1 X113.918 Y132.483 E3.63887
G1 X112.981 Y132.431 E3.67008
G1 X112.053 Y132.3 E3.70125
G1 X111.139 Y132.09 E3.73245
G1 X110.266 Y131.81 E3.76294
G1 X109.593 Y131.563 E3.78678
G1 X107.134 Y130.7 E3.87346
G1 X104.731 Y129.932 E3.95737
G1 X102.31 Y129.232 E4.04119
G1 X99.858 Y128.598 E4.12542
G1 X97.421 Y128.041 E4.20857
G1 X94.925 Y127.543 E4.29322
G1 X92.609 Y127.15 E4.37135
G1 X91.574 Y126.986 E4.40621
G1 X90.654 Y126.8 E4.43743
G1 X89.754 Y126.537 E4.46861
G1 X88.88 Y126.197 E4.4998
G1 X88.038 Y125.785 E4.53098
G1 X87.234 Y125.302 E4.56218
G1 X86.474 Y124.753 E4.59336
G1 X85.763 Y124.141 E4.62456
G1 X85.107 Y123.47 E4.65577
G1 X84.511 Y122.746 E4.68696
G1 X83.979 Y121.974 E4.71815
G1 X83.514 Y121.16 E4.74933
G1 X83.12 Y120.308 E4.78055
G1 X82.8 Y119.427 E4.81172
G1 X82.557 Y118.521 E4.84292
G1 X82.392 Y117.598 E4.87411
G1 X82.296 Y116.419 E4.91345
G1 X82.287 Y116.087 E4.9245
G1 X82.283 Y115.789 E4.93441
G1 X82.284 Y114.537 E4.97605
G1 X82.295 Y113.821 E4.99987
G1 X82.384 Y112.59 E5.04092
G1 X82.559 Y111.226 E5.08666
G1 X82.615 Y110.828 E5.10002
G1 X82.893 Y108.357 E5.18273
G1 X83.105 Y105.821 E5.26737
G1 X83.244 Y103.324 E5.35055
G1 X83.313 Y100.84 E5.4332
G1 X83.333 Y99.519 E5.47714
G1 X83.387 Y98.583 E5.50833
G1 X83.521 Y97.654 E5.53954
G1 X83.733 Y96.741 E5.57072
G1 X84.023 Y95.849 E5.60191
G1 X84.387 Y94.984 E5.63313
G1 X84.823 Y94.154 E5.66431
G1 X85.329 Y93.365 E5.69549
G1 X85.9 Y92.621 E5.72668
G1 X86.533 Y91.928 E5.7579
G0 F6000 X86.924 Y92.103
G1 F1200 X87.61 Y91.489 E5.78852
G1 X88.347 Y90.936 E5.81916
G1 X89.128 Y90.45 E5.84976
G1 X89.949 Y90.033 E5.88039
G1 X90.803 Y89.69 E5.911
G1 X91.684 Y89.421 E5.94163
G1 X92.585 Y89.23 E5.97227
G1 X93.498 Y89.118 E6.00286
G1 X94.031 Y89.089 E6.02061
G1 X94.348 Y89.08 E6.03116
G1 X94.651 Y89.076 E6.04124
G1 X99.477 Y89.078 E6.20175
G1 X100.169 Y89.088 E6.22477
G1 X100.689 Y89.108 E6.24208
G1 X101.127 Y89.143 E6.25669
G1 X101.256 Y89.156 E6.26101
G1 X103.869 Y89.379 E6.34823
G1 X106.321 Y89.517 E6.42991
G1 X110.282 Y89.601 E6.56169
G1 X120.41 Y89.603 E6.89855
G1 X120.945 Y89.61 E6.91634
G1 X121.303 Y89.621 E6.92825
G1 X121.942 Y89.651 E6.94953
G1 X122.288 Y89.673 E6.96106
G1 X122.451 Y89.686 E6.9665
G1 X123.334 Y89.793 E6.99608
G1 X123.534 Y89.826 E7.00283
G1 X124.07 Y89.929 E7.02098
G1 X124.537 Y90.031 E7.03688
G1 X125.4 Y90.258 E7.06656
G1 X125.588 Y90.316 E7.0731
G1 X126.013 Y90.457 E7.088
G1 X126.435 Y90.607 E7.10289
G1 X127.288 Y90.953 E7.13351
G1 X127.461 Y91.032 E7.13983
G1 X127.857 Y91.223 E7.15446
G1 X128.241 Y91.418 E7.16878
G1 X129.043 Y91.87 E7.1994
G1 X129.239 Y91.992 E7.20708
G1 X129.674 Y92.277 E7.22438
G1 X130.045 Y92.534 E7.23939
G1 X130.79 Y93.101 E7.27053
G1 X130.945 Y93.23 E7.27723
G1 X131.262 Y93.504 E7.29117
G1 X131.597 Y93.806 E7.30617
G1 X132.237 Y94.435 E7.33602
G1 X132.369 Y94.576 E7.34244
G1 X132.721 Y94.971 E7.36004
G1 X133.019 Y95.323 E7.37538
G1 X133.571 Y96.034 E7.40532
G1 X133.696 Y96.21 E7.4125
G1 X133.967 Y96.611 E7.42859
G1 X134.2 Y96.973 E7.44291
G1 X134.63 Y97.703 E7.47109
G1 X134.727 Y97.884 E7.47792
G1 X134.956 Y98.338 E7.49483
G1 X135.142 Y98.729 E7.50923
G1 X135.502 Y99.578 E7.53991
G1 X135.593 Y99.822 E7.54857
G1 X135.766 Y100.323 E7.5662
G1 X135.895 Y100.73 E7.5804
G1 X136.118 Y101.545 E7.6085
G1 X136.161 Y101.731 E7.61485
G1 X136.261 Y102.216 E7.63132
G1 X136.336 Y102.627 E7.64522
G1 X136.385 Y102.921 E7.65513
G1 X136.588 Y104.25 E7.69984
G1 X136.666 Y104.8 E7.71832
G1 X137.091 Y107.305 E7.80283
G1 X137.58 Y109.77 E7.88641
G1 X138.143 Y112.226 E7.97022
G1 X138.782 Y114.699 E8.05517
G1 X139.173 Y116.084 E8.10304
G1 X139.26 Y116.381 E8.11333
G1 X139.48 Y117.275 E8.14395
G1 X139.622 Y118.185 E8.17458
G1 X139.682 Y119.041 E8.20313
G1 X139.692 Y119.372 E8.21414
G1 X139.697 Y119.692 E8.22478
G1 X139.696 Y120.802 E8.2617
G1 X139.686 Y121.529 E8.28589
G1 X139.633 Y122.448 E8.3165
G1 X139.501 Y123.359 E8.34712
G1 X139.29 Y124.255 E8.37773
G1 X139.003 Y125.13 E8.40836
G1 X138.64 Y125.976 E8.43898
G1 X138.206 Y126.788 E8.4696
G1 X137.702 Y127.559 E8.50024
G1 X137.134 Y128.283 E8.53085
G1 X136.505 Y128.955 E8.56146
G1 X135.82 Y129.57 E8.59208
G1 X135.084 Y130.123 E8.6227
G1 X134.303 Y130.611 E8.65333
G1 X133.483 Y131.029 E8.68394
G1 X132.629 Y131.374 E8.71458
G1 X131.78 Y131.635 E8.74412
G1 X131.681 Y131.661 E8.74752
G1 X130.75 Y131.862 E8.7792
G1 X130.394 Y131.922 E8.79121
G1 X129.411 Y132.04 E8.82414
G1 X129.316 Y132.047 E8.82731
G1 X128.912 Y132.069 E8.84076
G1 X128.517 Y132.083 E8.85391
G1 X128.252 Y132.089 E8.86273
G1 X127.853 Y132.093 E8.876
G1 X114.634 Y132.092 E9.31566
G1 X113.923 Y132.083 E9.33931
G1 X113.004 Y132.032 E9.36993
G1 X112.092 Y131.9 E9.40058
G1 X111.196 Y131.691 E9.43118
G1 X110.404 Y131.435 E9.45886
G1 X109.716 Y131.182 E9.48324
G1 X107.252 Y130.317 E9.5701
G1 X104.826 Y129.542 E9.6548
G1 X102.449 Y128.855 E9.7371
G1 X99.941 Y128.207 E9.82326
G1 X97.516 Y127.653 E9.90599
G1 X94.998 Y127.15 E9.99139
G1 X92.659 Y126.753 E10.0703
G1 X91.636 Y126.591 E10.10475
G1 X90.734 Y126.408 E10.13536
G1 X89.851 Y126.147 E10.16599
G1 X88.994 Y125.811 E10.1966
G1 X88.169 Y125.401 E10.22724
G1 X87.384 Y124.922 E10.25783
G1 X86.642 Y124.376 E10.28847
G1 X85.951 Y123.768 E10.31908
G1 X85.315 Y123.102 E10.34971
G1 X84.74 Y122.383 E10.38033
G1 X84.228 Y121.617 E10.41098
G1 X83.786 Y120.81 E10.44158
G1 X83.415 Y119.968 E10.47218
G1 X83.118 Y119.096 E10.50282
G1 X82.898 Y118.202 E10.53344
G1 X82.757 Y117.292 E10.56407
G1 X82.696 Y116.408 E10.59354
G1 X82.687 Y116.076 E10.60459
G1 X82.683 Y115.789 E10.61414
G1 X82.684 Y114.543 E10.65558
G1 X82.695 Y113.827 E10.6794
G1 X82.78 Y112.641 E10.71894
G1 X82.955 Y111.282 E10.76452
G1 X83.009 Y110.896 E10.77748
G1 X83.294 Y108.363 E10.86226
G1 X83.502 Y105.876 E10.94527
G1 X83.644 Y103.322 E11.03035
G1 X83.713 Y100.857 E11.11236
G1 X83.733 Y99.525 E11.15667
G1 X83.787 Y98.606 E11.18729
G1 X83.92 Y97.695 E11.21791
G1 X84.132 Y96.799 E11.24854
G1 X84.421 Y95.925 E11.27915
G1 X84.785 Y95.079 E11.30978
G1 X85.221 Y94.268 E11.34041
G1 X85.725 Y93.498 E11.37102
G1 X86.294 Y92.774 E11.40165
G1 X86.924 Y92.103 E11.43226
G0 F6000 X87.315 Y92.282
G1 F1200 X87.998 Y91.69 E11.46232
G1 X88.73 Y91.161 E11.49236
G1 X89.506 Y90.699 E11.5224
G1 X90.32 Y90.307 E11.55245
G1 X91.165 Y89.989 E11.58248
G1 X92.035 Y89.747 E11.61251
G1 X92.923 Y89.583 E11.64254
G1 X94.043 Y89.489 E11.67993
G1 X94.36 Y89.48 E11.69047
G1 X94.651 Y89.476 E11.70015
G1 X99.471 Y89.478 E11.86047
G1 X100.163 Y89.488 E11.88349
G1 X100.666 Y89.508 E11.90023
G1 X101.087 Y89.541 E11.91428
G1 X101.248 Y89.557 E11.91966
G1 X103.814 Y89.776 E12.00531
G1 X106.318 Y89.917 E12.08873
G1 X110.273 Y90.001 E12.2203
G1 X120.404 Y90.003 E12.55726
G1 X120.939 Y90.01 E12.57506
G1 X121.284 Y90.02 E12.58653
G1 X121.923 Y90.05 E12.60781
G1 X122.256 Y90.071 E12.61891
G1 X122.419 Y90.084 E12.62435
G1 X123.269 Y90.188 E12.65283
G1 X123.469 Y90.221 E12.65957
G1 X123.985 Y90.32 E12.67705
G1 X124.452 Y90.422 E12.69295
G1 X125.282 Y90.64 E12.72149
G1 X125.47 Y90.698 E12.72803
G1 X125.879 Y90.834 E12.74237
G1 X126.301 Y90.984 E12.75726
G1 X127.122 Y91.317 E12.78673
G1 X127.295 Y91.396 E12.79306
G1 X127.676 Y91.579 E12.80711
G1 X128.06 Y91.774 E12.82144
G1 X128.832 Y92.21 E12.85093
G1 X129.028 Y92.332 E12.85861
G1 X129.446 Y92.606 E12.87523
G1 X129.817 Y92.863 E12.89024
G1 X130.534 Y93.408 E12.9202
G1 X130.689 Y93.537 E12.9269
G1 X130.994 Y93.801 E12.94032
G1 X131.329 Y94.103 E12.95532
G1 X131.945 Y94.708 E12.98404
G1 X132.077 Y94.849 E12.99046
G1 X132.416 Y95.229 E13.0074
G1 X132.714 Y95.581 E13.02274
G1 X133.245 Y96.266 E13.05157
G1 X133.37 Y96.442 E13.05875
G1 X133.631 Y96.827 E13.07422
G1 X133.864 Y97.189 E13.08853
G1 X134.277 Y97.892 E13.11565
G1 X134.374 Y98.073 E13.12248
G1 X134.595 Y98.509 E13.13874
G1 X134.781 Y98.9 E13.15314
G1 X135.127 Y99.718 E13.18268
G1 X135.218 Y99.962 E13.19134
G1 X135.384 Y100.444 E13.2083
G1 X135.513 Y100.851 E13.2225
G1 X135.728 Y101.636 E13.24957
G1 X135.771 Y101.822 E13.25592
G1 X135.867 Y102.288 E13.27174
G1 X135.942 Y102.699 E13.28564
G1 X135.99 Y102.982 E13.29519
G1 X136.192 Y104.305 E13.3397
G1 X136.27 Y104.857 E13.35824
G1 X136.698 Y107.379 E13.44332
G1 X137.192 Y109.865 E13.52763
G1 X137.757 Y112.332 E13.6118
G1 X138.401 Y114.822 E13.69735
G1 X138.789 Y116.197 E13.74486
G1 X138.876 Y116.494 E13.75516
G1 X139.091 Y117.371 E13.78519
G1 X139.228 Y118.263 E13.81521
G1 X139.282 Y119.053 E13.84154
G1 X139.292 Y119.384 E13.85256
G1 X139.297 Y119.692 E13.8628
G1 X139.296 Y120.796 E13.89952
G1 X139.286 Y121.523 E13.9237
G1 X139.234 Y122.425 E13.95375
G1 X139.102 Y123.318 E13.98378
G1 X138.891 Y124.197 E14.01384
G1 X138.604 Y125.053 E14.04387
G1 X138.242 Y125.88 E14.0739
G1 X137.808 Y126.672 E14.10394
G1 X137.306 Y127.423 E14.13398
G1 X136.74 Y128.126 E14.164
G1 X136.113 Y128.777 E14.19406
G1 X135.432 Y129.369 E14.22407
G1 X134.701 Y129.899 E14.25411
G1 X133.925 Y130.362 E14.28416
G1 X133.112 Y130.755 E14.31419
G1 X132.267 Y131.075 E14.34425
G1 X131.678 Y131.248 E14.36466
G1 X131.579 Y131.274 E14.36807
G1 X130.683 Y131.467 E14.39855
G1 X130.327 Y131.527 E14.41056
G1 X129.382 Y131.641 E14.44222
G1 X128.898 Y131.67 E14.45835
G1 X128.503 Y131.684 E14.47149
G1 X127.959 Y131.692 E14.48959
G1 X114.768 Y131.693 E14.92832
G1 X113.928 Y131.683 E14.95626
G1 X113.026 Y131.632 E14.98631
G1 X112.133 Y131.501 E15.01633
G1 X111.254 Y131.291 E15.04639
G1 X110.542 Y131.059 E15.0713
G1 X109.86 Y130.809 E15.09546
G1 X107.39 Y129.941 E15.18253
G1 X104.954 Y129.163 E15.26759
G1 X102.522 Y128.46 E15.35179
G1 X100.092 Y127.832 E15.43526
G1 X97.578 Y127.257 E15.52104
G1 X95.072 Y126.758 E15.60603
G1 X92.694 Y126.353 E15.68626
G1 X91.699 Y126.196 E15.71976
G1 X90.814 Y126.015 E15.7498
G1 X89.948 Y125.757 E15.77986
G1 X89.109 Y125.424 E15.80988
G1 X88.303 Y125.017 E15.83991
G1 X87.535 Y124.541 E15.86997
G1 X86.813 Y123.999 E15.89999
G1 X86.142 Y123.395 E15.93002
G1 X85.526 Y122.734 E15.96007
G1 X84.972 Y122.021 E15.9901
G1 X84.482 Y121.262 E16.02015
G1 X84.062 Y120.463 E16.05017
G1 X83.714 Y119.629 E16.08023
G1 X83.442 Y118.768 E16.11026
G1 X83.246 Y117.887 E16.14028
G1 X83.129 Y116.991 E16.17034
G1 X83.096 Y116.397 E16.19012
G1 X83.087 Y116.065 E16.20117
G1 X83.083 Y115.789 E16.21035
G1 X83.084 Y114.549 E16.25159
G1 X83.095 Y113.833 E16.27541
G1 X83.177 Y112.691 E16.31349
G1 X83.352 Y111.338 E16.35887
G1 X83.405 Y110.961 E16.37153
G1 X83.692 Y108.409 E16.45694
G1 X83.903 Y105.893 E16.54092
G1 X84.044 Y103.357 E16.6254
G1 X84.113 Y100.851 E16.70878
G1 X84.133 Y99.531 E16.75269
G1 X84.187 Y98.63 E16.78271
G1 X84.32 Y97.736 E16.81277
G1 X84.531 Y96.858 E16.8428
G1 X84.82 Y96.003 E16.87282
G1 X85.183 Y95.176 E16.90286
G1 X85.618 Y94.384 E16.93292
G1 X86.121 Y93.634 E16.96295
G1 X86.688 Y92.931 E16.99299
G1 X87.315 Y92.282 E17.023
G1 F2700 E12.023
;MESH:adj-bltouch-mount-4A-wing.stl
G0 F6000 X121.037 Y106.083
G0 X119.586 Y106.23
G0 X120.551 Y107.448
G0 X120.965 Y107.745
G0 X122.124 Y108.172
;TYPE:WALL-INNER
G1 F2700 E17.023
G1 F1200 X122.429 Y108.127 E17.03326
G1 X122.721 Y108.042 E17.04337
G1 X123.003 Y107.917 E17.05363
G1 X123.261 Y107.753 E17.0638
G1 X123.497 Y107.556 E17.07403
G1 X123.701 Y107.326 E17.08425
G1 X123.873 Y107.07 E17.09451
G1 X124.005 Y106.794 E17.10469
G1 X124.1 Y106.503 E17.11487
G1 X124.152 Y106.201 E17.12506
G1 X124.163 Y105.896 E17.13521
G1 X124.13 Y105.59 E17.14545
G1 X124.056 Y105.292 E17.15566
G1 X123.939 Y105.004 E17.166
G1 X123.785 Y104.74 E17.17616
G1 X123.595 Y104.5 E17.18634
G1 X123.374 Y104.287 E17.19655
G1 X123.123 Y104.106 E17.20685
G1 X122.853 Y103.966 E17.21696
G1 X122.567 Y103.859 E17.22712
G1 X122.264 Y103.797 E17.2374
G1 X121.959 Y103.775 E17.24758
G1 X121.652 Y103.799 E17.25782
G1 X121.352 Y103.862 E17.26801
G1 X121.063 Y103.969 E17.27826
G1 X120.793 Y104.112 E17.28842
G1 X120.545 Y104.295 E17.29868
G1 X120.325 Y104.507 E17.30884
G1 X120.135 Y104.752 E17.31915
G1 X119.985 Y105.016 E17.32925
G1 X119.869 Y105.3 E17.33945
G1 X119.796 Y105.601 E17.34975
G1 X119.765 Y105.905 E17.35992
G1 X119.776 Y106.21 E17.37007
G1 X119.83 Y106.513 E17.3803
G1 X119.926 Y106.806 E17.39056
G1 X120.061 Y107.082 E17.40078
G1 X120.233 Y107.335 E17.41095
