;FLAVOR:Marlin
;TIME:17490
;Filament used: 10.2134m
;Layer height: 0.2
;MINX:66.504
;MINY:51.786
;MINZ:0.2
;MAXX:168.496
;MAXY:163.732
;MAXZ:38
;Generated with Cura_SteamEngine 4.13.1
M140 S60
M105
M190 S60
M104 S200
M105
M109 S200
M82 ;absolute extrusion mode
; Ender 3 Custom Start G-code
G92 E0 ; Reset Extruder
G28 ; Home all axes
G1 Z2.0 F3000 ; Move Z Axis up little to prevent scratching of Heat Bed
G1 X0.1 Y20 Z0.3 F5000.0 ; Move to start position
G1 X0.1 Y200.0 Z0.3 F1500.0 E15 ; Draw the first line
G1 X0.4 Y200.0 Z0.3 F5000.0 ; Move to side a little
G1 X0.4 Y20 Z0.3 F1500.0 E30 ; Draw the second line
G92 E0 ; Reset Extruder
G1 Z2.0 F3000 ; Move Z Axis up little to prevent scratching of Heat Bed
G1 X5 Y20 Z0.3 F5000.0 ; Move over to prevent blob squish
G92 E0
G92 E0
G1 F2700 E-5
;LAYER_COUNT:190
;LAYER:0
M107
G0 F6000 X73.261 Y71.288 Z0.2
;TYPE:SKIRT
G1 F2700 E0
G1 F1200 X83.158 Y60.198 E0.49438
G1 X83.647 Y59.667 E0.51839
G1 X84.281 Y59.033 E0.54821
G1 X84.474 Y58.855 E0.55694
G1 X84.736 Y58.622 E0.5686
G1 X85.215 Y58.209 E0.58964
G1 X85.712 Y57.791 E0.61124
G1 X86.53 Y57.165 E0.6455
G1 X87.346 Y56.6 E0.67851
G1 X87.62 Y56.417 E0.68947
G1 X88.224 Y56.025 E0.71342
G1 X88.787 Y55.683 E0.73533
G1 X89.041 Y55.539 E0.74504
G1 X89.284 Y55.405 E0.75427
G1 X90.111 Y54.965 E0.78543
G1 X90.636 Y54.696 E0.80505
G1 X91.252 Y54.404 E0.82772
G1 X92.235 Y53.975 E0.86339
G1 X92.71 Y53.778 E0.88049
G1 X93.238 Y53.568 E0.89939
G1 X93.891 Y53.331 E0.9225
G1 X95.019 Y52.963 E0.96196
G1 X95.362 Y52.858 E0.97389
G1 X96.04 Y52.661 E0.99738
G1 X96.596 Y52.515 E1.0165
G1 X96.856 Y52.454 E1.02538
G1 X97.215 Y52.376 E1.0376
G1 X98.008 Y52.219 E1.06448
G1 X98.656 Y52.1 E1.0864
G1 X99.639 Y51.965 E1.1194
G1 X100.588 Y51.878 E1.1511
G1 X100.924 Y51.852 E1.1623
G1 X101.532 Y51.815 E1.18256
G1 X101.86 Y51.8 E1.19348
G1 X102.119 Y51.792 E1.2021
G1 X102.459 Y51.787 E1.21341
G1 X132.102 Y51.786 E2.19934
G1 X132.964 Y51.797 E2.22802
G1 X133.274 Y51.806 E2.23833
G1 X133.557 Y51.818 E2.24775
G1 X133.868 Y51.835 E2.25811
G1 X134.32 Y51.867 E2.27318
G1 X135.18 Y51.942 E2.30189
G1 X136.153 Y52.072 E2.33454
G1 X137.166 Y52.254 E2.36878
G1 X137.49 Y52.318 E2.37976
G1 X138.154 Y52.458 E2.40233
G1 X138.813 Y52.618 E2.42489
G1 X139.11 Y52.7 E2.43513
G1 X139.41 Y52.787 E2.44552
G1 X140.319 Y53.067 E2.47716
G1 X140.818 Y53.228 E2.4946
G1 X141.454 Y53.455 E2.51706
G1 X142.467 Y53.852 E2.55325
G1 X142.728 Y53.958 E2.56262
G1 X142.921 Y54.039 E2.56958
G1 X143.461 Y54.272 E2.58914
G1 X144.061 Y54.553 E2.61117
G1 X145.069 Y55.062 E2.64873
G1 X145.401 Y55.236 E2.6612
G1 X146.092 Y55.615 E2.68741
G1 X146.632 Y55.932 E2.70824
G1 X146.84 Y56.062 E2.7164
G1 X147.1 Y56.23 E2.72669
G1 X147.803 Y56.699 E2.7548
G1 X148.332 Y57.064 E2.77618
G1 X149.107 Y57.651 E2.80851
G1 X149.822 Y58.244 E2.83941
G1 X150.095 Y58.478 E2.85137
G1 X150.569 Y58.898 E2.87243
G1 X151.253 Y59.559 E2.90407
G1 X151.53 Y59.853 E2.9175
G1 X151.819 Y60.169 E2.93175
G1 X161.713 Y71.259 E3.42606
G1 X162.211 Y71.833 E3.45133
G1 X162.608 Y72.319 E3.47221
G1 X162.747 Y72.499 E3.47977
G1 X162.927 Y72.739 E3.48975
G1 X163.159 Y73.057 E3.50284
G1 X163.291 Y73.242 E3.5104
G1 X163.717 Y73.852 E3.53515
G1 X164.234 Y74.665 E3.56719
G1 X164.668 Y75.421 E3.59618
G1 X164.837 Y75.727 E3.60781
G1 X165.09 Y76.196 E3.62553
G1 X165.397 Y76.809 E3.64834
G1 X165.828 Y77.743 E3.68255
G1 X165.964 Y78.049 E3.69369
G1 X166.27 Y78.769 E3.71971
G1 X166.338 Y78.935 E3.72567
G1 X166.526 Y79.423 E3.74307
G1 X166.761 Y80.083 E3.76637
G1 X166.953 Y80.645 E3.78612
G1 X167.167 Y81.297 E3.80895
G1 X167.266 Y81.614 E3.81999
G1 X167.362 Y81.949 E3.83158
G1 X167.545 Y82.635 E3.8552
G1 X167.677 Y83.155 E3.87304
G1 X167.832 Y83.8 E3.8951
G1 X167.963 Y84.429 E3.91647
G1 X168.138 Y85.408 E3.94955
G1 X168.183 Y85.693 E3.95915
G1 X168.285 Y86.375 E3.98208
G1 X168.349 Y86.883 E3.99911
G1 X168.393 Y87.39 E4.01604
G1 X168.436 Y88.064 E4.0385
G1 X168.45 Y88.342 E4.04776
G1 X168.482 Y89.176 E4.07552
G1 X168.489 Y89.473 E4.0854
G1 X168.496 Y90.125 E4.10709
G1 X168.495 Y100.204 E4.44232
G1 X168.484 Y100.933 E4.46657
G1 X168.445 Y101.703 E4.49221
G1 X168.212 Y104.437 E4.58347
G1 X168.07 Y106.944 E4.66699
G1 X167.998 Y109.439 E4.75001
G1 X167.998 Y111.964 E4.83399
G1 X168.069 Y114.513 E4.9188
G1 X168.209 Y116.98 E5.00099
G1 X168.334 Y118.455 E5.05022
G1 X168.341 Y118.628 E5.05598
G1 X168.445 Y119.833 E5.09621
G1 X168.481 Y120.444 E5.11656
G1 X168.491 Y120.774 E5.12755
G1 X168.496 Y121.107 E5.13862
G1 X168.495 Y125.47 E5.28374
G1 X168.484 Y126.261 E5.31005
G1 X168.476 Y126.543 E5.31943
G1 X168.455 Y127.074 E5.33711
G1 X168.441 Y127.345 E5.34613
G1 X168.387 Y128.185 E5.37413
G1 X168.332 Y128.787 E5.39423
G1 X168.315 Y128.929 E5.39899
G1 X168.271 Y129.256 E5.40996
G1 X168.177 Y129.873 E5.43072
G1 X168.103 Y130.314 E5.4456
G1 X167.987 Y130.975 E5.46792
G1 X167.848 Y131.647 E5.49074
G1 X167.622 Y132.581 E5.5227
G1 X167.508 Y133.026 E5.53798
G1 X167.338 Y133.653 E5.55959
G1 X167.249 Y133.963 E5.57031
G1 X167.145 Y134.295 E5.58189
G1 X166.927 Y134.955 E5.605
G1 X166.722 Y135.549 E5.6259
G1 X166.513 Y136.131 E5.64647
G1 X166.365 Y136.519 E5.66028
G1 X166.248 Y136.805 E5.67056
G1 X165.965 Y137.469 E5.69457
G1 X165.761 Y137.93 E5.71134
G1 X165.521 Y138.457 E5.7306
G1 X165.217 Y139.072 E5.75341
G1 X164.757 Y139.935 E5.78594
G1 X164.576 Y140.261 E5.79834
G1 X164.24 Y140.843 E5.82069
G1 X163.747 Y141.62 E5.8513
G1 X163.328 Y142.223 E5.87572
G1 X163.138 Y142.488 E5.88657
G1 X162.74 Y143.026 E5.90883
G1 X162.359 Y143.513 E5.92939
G1 X162.256 Y143.637 E5.93475
G1 X162.067 Y143.857 E5.9444
G1 X161.739 Y144.231 E5.96094
G1 X151.85 Y155.311 E6.4549
G1 X151.364 Y155.84 E6.47879
G1 X150.725 Y156.481 E6.50889
G1 X150.53 Y156.661 E6.51772
G1 X150.265 Y156.897 E6.52952
G1 X149.768 Y157.326 E6.55136
G1 X149.27 Y157.743 E6.57296
G1 X148.48 Y158.346 E6.60602
G1 X147.676 Y158.904 E6.63857
G1 X147.395 Y159.093 E6.64983
G1 X146.779 Y159.493 E6.67426
G1 X146.225 Y159.83 E6.69583
G1 X145.977 Y159.971 E6.70532
G1 X145.719 Y160.112 E6.7151
G1 X144.889 Y160.554 E6.74637
G1 X144.364 Y160.823 E6.76599
G1 X143.748 Y161.115 E6.78867
G1 X142.765 Y161.544 E6.82434
G1 X142.29 Y161.741 E6.84144
G1 X141.762 Y161.951 E6.86034
G1 X141.109 Y162.188 E6.88345
G1 X139.981 Y162.556 E6.92291
G1 X139.638 Y162.661 E6.93484
G1 X138.96 Y162.858 E6.95832
G1 X138.404 Y163.004 E6.97744
G1 X138.144 Y163.065 E6.98633
G1 X137.785 Y163.143 E6.99855
G1 X136.992 Y163.3 E7.02543
G1 X136.344 Y163.419 E7.04735
G1 X135.361 Y163.554 E7.08035
G1 X134.412 Y163.641 E7.11204
G1 X134.076 Y163.667 E7.12325
G1 X133.468 Y163.704 E7.14351
G1 X133.14 Y163.719 E7.15443
G1 X132.881 Y163.727 E7.16305
G1 X132.541 Y163.732 E7.17436
G1 X102.734 Y163.732 E8.16575
G1 X102.029 Y163.722 E8.1892
G1 X101.715 Y163.713 E8.19964
G1 X101.235 Y163.69 E8.21563
G1 X100.869 Y163.666 E8.22783
G1 X100.498 Y163.636 E8.24021
G1 X99.818 Y163.576 E8.26291
G1 X98.841 Y163.446 E8.29569
G1 X97.844 Y163.267 E8.32938
G1 X97.514 Y163.202 E8.34057
G1 X96.823 Y163.056 E8.36406
G1 X96.094 Y162.876 E8.38903
G1 X95.495 Y162.704 E8.40976
G1 X94.802 Y162.491 E8.43388
G1 X94.156 Y162.282 E8.45646
G1 X93.528 Y162.057 E8.47865
G1 X92.525 Y161.663 E8.51449
G1 X92.201 Y161.53 E8.52614
G1 X91.529 Y161.241 E8.55047
G1 X90.899 Y160.946 E8.5736
G1 X89.856 Y160.417 E8.6125
G1 X89.528 Y160.244 E8.62484
G1 X88.912 Y159.905 E8.64822
G1 X88.407 Y159.609 E8.66769
G1 X88.124 Y159.433 E8.67877
G1 X87.824 Y159.239 E8.69066
G1 X87.134 Y158.777 E8.71828
G1 X86.658 Y158.448 E8.73752
G1 X85.892 Y157.868 E8.76948
G1 X85.185 Y157.282 E8.80002
G1 X84.895 Y157.033 E8.81273
G1 X84.416 Y156.607 E8.83405
G1 X83.768 Y155.981 E8.86402
G1 X83.601 Y155.806 E8.87207
G1 X83.412 Y155.603 E8.88129
G1 X83.215 Y155.385 E8.89106
G1 X73.29 Y144.262 E9.38688
G1 X72.79 Y143.686 E9.41225
G1 X72.404 Y143.215 E9.43251
G1 X72.266 Y143.037 E9.44
G1 X72.073 Y142.78 E9.45069
G1 X71.708 Y142.276 E9.47138
G1 X71.28 Y141.663 E9.49625
G1 X70.762 Y140.848 E9.52837
G1 X70.332 Y140.098 E9.55712
G1 X70.163 Y139.794 E9.56869
G1 X69.911 Y139.327 E9.58634
G1 X69.597 Y138.697 E9.60975
G1 X69.135 Y137.692 E9.64654
G1 X69.002 Y137.389 E9.65755
G1 X68.716 Y136.714 E9.68193
G1 X68.488 Y136.133 E9.70269
G1 X68.21 Y135.352 E9.73026
G1 X68.054 Y134.894 E9.74636
G1 X67.826 Y134.196 E9.77078
G1 X67.735 Y133.905 E9.78092
G1 X67.613 Y133.478 E9.79569
G1 X67.461 Y132.905 E9.81541
G1 X67.327 Y132.373 E9.83365
G1 X67.166 Y131.701 E9.85664
G1 X67.036 Y131.084 E9.87761
G1 X66.889 Y130.266 E9.90525
G1 X66.813 Y129.801 E9.92092
G1 X66.709 Y129.098 E9.94456
G1 X66.631 Y128.427 E9.96703
G1 X66.605 Y128.1 E9.97794
G1 X66.573 Y127.61 E9.99427
G1 X66.55 Y127.144 E10.00979
G1 X66.518 Y126.288 E10.03828
G1 X66.511 Y126.015 E10.04736
G1 X66.504 Y125.398 E10.06788
G1 X66.505 Y121.314 E10.20372
G1 X66.516 Y120.604 E10.22734
G1 X66.555 Y119.838 E10.25285
G1 X66.788 Y117.104 E10.34411
G1 X66.93 Y114.597 E10.42763
G1 X67.002 Y112.102 E10.51064
G1 X67.002 Y109.577 E10.59463
G1 X66.931 Y107.028 E10.67944
G1 X66.791 Y104.564 E10.76152
G1 X66.666 Y103.087 E10.81082
G1 X66.659 Y102.914 E10.81658
G1 X66.554 Y101.698 E10.85718
G1 X66.517 Y101.063 E10.87833
G1 X66.508 Y100.744 E10.88895
G1 X66.504 Y100.434 E10.89926
G1 X66.505 Y90.053 E11.24453
G1 X66.516 Y89.243 E11.27148
G1 X66.524 Y88.941 E11.28152
G1 X66.545 Y88.429 E11.29857
G1 X66.559 Y88.174 E11.30706
G1 X66.613 Y87.334 E11.33506
G1 X66.668 Y86.732 E11.35516
G1 X66.685 Y86.59 E11.35992
G1 X66.729 Y86.263 E11.3709
G1 X66.821 Y85.656 E11.39131
G1 X66.899 Y85.187 E11.40713
G1 X67.014 Y84.535 E11.42915
G1 X67.151 Y83.876 E11.45154
G1 X67.378 Y82.938 E11.48363
G1 X67.492 Y82.495 E11.49885
G1 X67.666 Y81.853 E11.52097
G1 X67.771 Y81.491 E11.53351
G1 X67.855 Y81.224 E11.54282
G1 X68.073 Y80.564 E11.56594
G1 X68.278 Y79.97 E11.58684
G1 X68.487 Y79.388 E11.6074
G1 X68.635 Y79 E11.62122
G1 X68.748 Y78.723 E11.63117
G1 X69.04 Y78.037 E11.65596
G1 X69.239 Y77.589 E11.67227
G1 X69.479 Y77.062 E11.69153
G1 X69.783 Y76.447 E11.71435
G1 X70.243 Y75.584 E11.74687
G1 X70.421 Y75.262 E11.75911
G1 X70.759 Y74.676 E11.78161
G1 X71.26 Y73.887 E11.81269
G1 X71.677 Y73.288 E11.83697
G1 X71.862 Y73.031 E11.8475
G1 X72.263 Y72.489 E11.86993
G1 X72.672 Y71.97 E11.8919
G1 X72.939 Y71.654 E11.90566
G1 X73.261 Y71.288 E11.92188
G0 F6000 X73.559 Y71.554
G1 F1200 X83.341 Y60.592 E12.41053
G1 X83.942 Y59.938 E12.44008
G1 X84.553 Y59.327 E12.46882
G1 X84.746 Y59.149 E12.47755
G1 X84.997 Y58.924 E12.48876
G1 X85.472 Y58.515 E12.50961
G1 X85.969 Y58.097 E12.53121
G1 X86.758 Y57.494 E12.56424
G1 X87.574 Y56.929 E12.59725
G1 X87.837 Y56.752 E12.60779
G1 X88.441 Y56.36 E12.63174
G1 X88.984 Y56.031 E12.65286
G1 X89.238 Y55.887 E12.66257
G1 X89.473 Y55.758 E12.67148
G1 X90.293 Y55.321 E12.70239
G1 X90.818 Y55.052 E12.72201
G1 X91.412 Y54.771 E12.74386
G1 X92.395 Y54.342 E12.77954
G1 X92.718 Y54.206 E12.79119
G1 X93.386 Y53.939 E12.81512
G1 X94.015 Y53.712 E12.83736
G1 X95.143 Y53.344 E12.87683
G1 X95.473 Y53.242 E12.88831
G1 X96.151 Y53.045 E12.9118
G1 X96.688 Y52.904 E12.93026
G1 X96.948 Y52.843 E12.93914
G1 X97.293 Y52.768 E12.95089
G1 X98.08 Y52.612 E12.97757
G1 X98.728 Y52.493 E12.99949
G1 X99.675 Y52.363 E13.03128
G1 X100.624 Y52.276 E13.06297
G1 X100.948 Y52.252 E13.07378
G1 X101.556 Y52.215 E13.09404
G1 X101.873 Y52.2 E13.1046
G1 X102.132 Y52.192 E13.11321
G1 X102.459 Y52.187 E13.12409
G1 X132.102 Y52.186 E14.11002
G1 X132.958 Y52.197 E14.13849
G1 X133.257 Y52.206 E14.14844
G1 X133.54 Y52.218 E14.15786
G1 X133.84 Y52.234 E14.16786
G1 X134.48 Y52.281 E14.1892
G1 X135.145 Y52.34 E14.21141
G1 X136.082 Y52.466 E14.24285
G1 X137.095 Y52.648 E14.27708
G1 X137.408 Y52.709 E14.28769
G1 X138.072 Y52.849 E14.31026
G1 X138.706 Y53.003 E14.33196
G1 X139.003 Y53.085 E14.34221
G1 X139.293 Y53.17 E14.35226
G1 X140.196 Y53.448 E14.38368
G1 X140.695 Y53.609 E14.40112
G1 X141.308 Y53.828 E14.42277
G1 X142.467 Y54.283 E14.46419
G1 X142.762 Y54.406 E14.47482
G1 X143.302 Y54.639 E14.49438
G1 X143.881 Y54.91 E14.51564
G1 X144.889 Y55.419 E14.5532
G1 X145.208 Y55.587 E14.56519
G1 X145.899 Y55.966 E14.5914
G1 X146.42 Y56.271 E14.61148
G1 X146.628 Y56.401 E14.61964
G1 X146.879 Y56.563 E14.62958
G1 X147.576 Y57.028 E14.65744
G1 X148.105 Y57.393 E14.67882
G1 X148.852 Y57.959 E14.70999
G1 X149.567 Y58.552 E14.74089
G1 X149.83 Y58.777 E14.7524
G1 X150.304 Y59.197 E14.77346
G1 X150.963 Y59.834 E14.80395
G1 X151.235 Y60.124 E14.81717
G1 X151.52 Y60.436 E14.83123
G1 X161.411 Y71.521 E15.32535
G1 X161.909 Y72.095 E15.35062
G1 X162.292 Y72.563 E15.37074
G1 X162.431 Y72.743 E15.3783
G1 X162.604 Y72.975 E15.38793
G1 X162.964 Y73.471 E15.40831
G1 X163.39 Y74.081 E15.43306
G1 X163.887 Y74.865 E15.46393
G1 X164.318 Y75.616 E15.49273
G1 X164.485 Y75.916 E15.50415
G1 X164.738 Y76.385 E15.52188
G1 X165.034 Y76.977 E15.54389
G1 X165.465 Y77.911 E15.5781
G1 X165.596 Y78.206 E15.58884
G1 X165.969 Y79.087 E15.62066
G1 X166.149 Y79.558 E15.63743
G1 X166.383 Y80.213 E15.66056
G1 X166.573 Y80.769 E15.68011
G1 X166.787 Y81.421 E15.70293
G1 X166.884 Y81.729 E15.71367
G1 X166.975 Y82.052 E15.72483
G1 X167.157 Y82.735 E15.74834
G1 X167.288 Y83.248 E15.76595
G1 X167.443 Y83.893 E15.78801
G1 X167.57 Y84.5 E15.80864
G1 X167.743 Y85.472 E15.84148
G1 X167.787 Y85.752 E15.8509
G1 X167.889 Y86.434 E15.87384
G1 X167.951 Y86.924 E15.89027
G1 X167.96 Y87.012 E15.89321
G1 X167.993 Y87.415 E15.90666
G1 X168.036 Y88.089 E15.92912
G1 X168.05 Y88.358 E15.93808
G1 X168.082 Y89.192 E15.96584
G1 X168.089 Y89.477 E15.97532
G1 X168.096 Y90.125 E15.99687
G1 X168.095 Y100.198 E16.3319
G1 X168.084 Y100.927 E16.35615
G1 X168.047 Y101.669 E16.38086
G1 X167.813 Y104.415 E16.47253
G1 X167.671 Y106.911 E16.55568
G1 X167.598 Y109.463 E16.64059
G1 X167.598 Y111.975 E16.72414
G1 X167.669 Y114.511 E16.80852
G1 X167.812 Y117.038 E16.89271
G1 X167.935 Y118.489 E16.94114
G1 X167.941 Y118.639 E16.94613
G1 X168.047 Y119.867 E16.98713
G1 X168.081 Y120.456 E17.00675
G1 X168.091 Y120.786 E17.01773
G1 X168.096 Y121.107 E17.02841
G1 X168.095 Y125.464 E17.17332
G1 X168.084 Y126.255 E17.19963
G1 X168.077 Y126.527 E17.20868
G1 X168.056 Y127.058 E17.22636
G1 X168.042 Y127.319 E17.23505
G1 X167.988 Y128.159 E17.26305
G1 X167.935 Y128.739 E17.28242
G1 X167.918 Y128.881 E17.28718
G1 X167.875 Y129.197 E17.29778
G1 X167.782 Y129.807 E17.31831
G1 X167.709 Y130.245 E17.33308
G1 X167.593 Y130.906 E17.3554
G1 X167.459 Y131.553 E17.37737
G1 X167.235 Y132.482 E17.40916
G1 X167.122 Y132.921 E17.42423
G1 X166.952 Y133.548 E17.44584
G1 X166.865 Y133.85 E17.45629
G1 X166.765 Y134.17 E17.46744
G1 X166.548 Y134.825 E17.49039
G1 X166.345 Y135.414 E17.51112
G1 X166.136 Y135.996 E17.53168
G1 X165.993 Y136.373 E17.54509
G1 X165.88 Y136.648 E17.55498
G1 X165.599 Y137.308 E17.57884
G1 X165.397 Y137.764 E17.59543
G1 X165.157 Y138.291 E17.61469
G1 X164.864 Y138.884 E17.63669
G1 X164.404 Y139.747 E17.66922
G1 X164.23 Y140.061 E17.68116
G1 X163.894 Y140.643 E17.70351
G1 X163.419 Y141.392 E17.73301
G1 X163 Y141.995 E17.75743
G1 X162.817 Y142.25 E17.76787
G1 X162.419 Y142.788 E17.79013
G1 X162.051 Y143.257 E17.80995
G1 X161.948 Y143.381 E17.81532
G1 X161.766 Y143.594 E17.82463
G1 X161.441 Y143.965 E17.84104
G1 X151.659 Y154.927 E18.32969
G1 X151.07 Y155.569 E18.35867
G1 X150.454 Y156.187 E18.38769
G1 X150.259 Y156.367 E18.39652
G1 X150.004 Y156.595 E18.4079
G1 X149.511 Y157.019 E18.42952
G1 X149.013 Y157.436 E18.45113
G1 X148.252 Y158.017 E18.48297
G1 X147.448 Y158.575 E18.51552
G1 X147.177 Y158.757 E18.52638
G1 X146.561 Y159.157 E18.55081
G1 X146.027 Y159.482 E18.5716
G1 X145.779 Y159.623 E18.58109
G1 X145.531 Y159.759 E18.5905
G1 X144.707 Y160.198 E18.62155
G1 X144.182 Y160.467 E18.64117
G1 X143.588 Y160.748 E18.66303
G1 X142.605 Y161.177 E18.6987
G1 X142.282 Y161.313 E18.71036
G1 X141.614 Y161.58 E18.73428
G1 X140.985 Y161.807 E18.75652
G1 X139.857 Y162.175 E18.79599
G1 X139.527 Y162.277 E18.80748
G1 X138.849 Y162.474 E18.83096
G1 X138.312 Y162.615 E18.84942
G1 X138.052 Y162.676 E18.85831
G1 X137.707 Y162.751 E18.87005
G1 X136.92 Y162.907 E18.89673
G1 X136.272 Y163.026 E18.91865
G1 X135.325 Y163.156 E18.95044
G1 X134.376 Y163.243 E18.98214
