;FLAVOR:Marlin
;TIME:17672
;Filament used: 12.5981m
;Layer height: 0.2
;MINX:47.887
;MINY:49.715
;MINZ:0.2
;MAXX:185.284
;MAXY:187.113
;MAXZ:24.4
;Generated with Cura_SteamEngine 4.13.1
M140 S60
M105
M190 S60
M104 S200
M105
M109 S200
M82 ;absolute extrusion mode
; Ender 3 Custom Start G-code
G92 E0 ; Reset Extruder
G28 ; Home all axes
G1 Z2.0 F3000 ; Move Z Axis up little to prevent scratching of Heat Bed
G1 X0.1 Y20 Z0.3 F5000.0 ; Move to start position
G1 X0.1 Y200.0 Z0.3 F1500.0 E15 ; Draw the first line
G1 X0.4 Y200.0 Z0.3 F5000.0 ; Move to side a little
G1 X0.4 Y20 Z0.3 F1500.0 E30 ; Draw the second line
G92 E0 ; Reset Extruder
G1 Z2.0 F3000 ; Move Z Axis up little to prevent scratching of Heat Bed
G1 X5 Y20 Z0.3 F5000.0 ; Move over to prevent blob squish
G92 E0
G92 E0
G1 F2700 E-5
;LAYER_COUNT:122
;LAYER:0
M107
G0 F6000 X51.785 Y57.432 Z0.2
;TYPE:SKIRT
G1 F2700 E0
G1 F1200 X52.526 Y56.857 E0.0312
G1 X53.313 Y56.347 E0.06239
G1 X54.14 Y55.906 E0.09356
G1 X55.248 Y55.447 E0.13345
G1 X56.087 Y55.152 E0.16303
G1 X56.286 Y55.084 E0.17002
G1 X58.717 Y54.281 E0.25518
G1 X60.784 Y53.638 E0.32717
G1 X60.982 Y53.578 E0.33405
G1 X61.559 Y53.412 E0.35402
G1 X62.95 Y53.028 E0.40202
G1 X63.853 Y52.79 E0.43308
G1 X65.131 Y52.469 E0.47691
G1 X66.162 Y52.226 E0.51214
G1 X67.676 Y51.887 E0.56374
G1 X68.566 Y51.7 E0.59399
G1 X69.909 Y51.433 E0.63953
G1 X70.833 Y51.263 E0.67078
G1 X72.365 Y50.999 E0.72248
G1 X73.047 Y50.889 E0.74546
G1 X74.667 Y50.649 E0.79993
G1 X75.527 Y50.532 E0.8288
G1 X77.005 Y50.35 E0.87833
G1 X78.004 Y50.241 E0.91175
G1 X79.32 Y50.112 E0.95573
G1 X80.309 Y50.027 E0.98875
G1 X81.735 Y49.922 E1.0363
G1 X82.684 Y49.866 E1.06792
G1 X84.214 Y49.793 E1.11887
G1 X85.091 Y49.761 E1.14806
G1 X86.503 Y49.726 E1.19503
G1 X87.461 Y49.715 E1.2269
G1 X88.764 Y49.715 E1.27024
G1 X89.651 Y49.725 E1.29974
G1 X91.306 Y49.767 E1.35481
G1 X92.293 Y49.803 E1.38765
G1 X93.642 Y49.87 E1.43258
G1 X94.636 Y49.932 E1.4657
G1 X96.004 Y50.034 E1.51133
G1 X97.045 Y50.125 E1.54608
G1 X98.384 Y50.257 E1.59084
G1 X99.386 Y50.369 E1.62437
G1 X100.596 Y50.518 E1.66492
G1 X101.792 Y50.681 E1.70507
G1 X103.103 Y50.876 E1.74915
G1 X104.142 Y51.044 E1.78416
G1 X105.435 Y51.269 E1.82781
G1 X106.42 Y51.453 E1.86114
G1 X107.86 Y51.74 E1.90997
G1 X108.763 Y51.932 E1.94068
G1 X110.151 Y52.244 E1.98799
G1 X111.175 Y52.489 E2.02301
G1 X112.417 Y52.8 E2.0656
G1 X113.478 Y53.081 E2.1021
G1 X114.695 Y53.419 E2.14411
G1 X115.769 Y53.731 E2.18131
G1 X117.018 Y54.111 E2.22473
G1 X117.982 Y54.417 E2.25837
G1 X119.3 Y54.853 E2.30455
G1 X120.272 Y55.188 E2.33874
G1 X121.585 Y55.659 E2.38514
G1 X122.512 Y56.004 E2.41803
G1 X123.779 Y56.494 E2.46322
G1 X124.709 Y56.866 E2.49653
G1 X125.974 Y57.391 E2.54209
G1 X126.893 Y57.785 E2.57534
G1 X128.071 Y58.308 E2.61821
G1 X129.124 Y58.791 E2.65674
G1 X130.328 Y59.361 E2.70105
G1 X131.299 Y59.837 E2.73702
G1 X132.442 Y60.412 E2.77957
G1 X133.339 Y60.879 E2.81321
G1 X134.61 Y61.559 E2.86115
G1 X135.476 Y62.037 E2.89405
G1 X136.663 Y62.71 E2.93943
G1 X137.533 Y63.218 E2.97294
G1 X138.735 Y63.94 E3.01958
G1 X139.53 Y64.43 E3.05064
G1 X140.755 Y65.206 E3.09887
G1 X141.606 Y65.761 E3.13266
G1 X142.709 Y66.5 E3.17682
G1 X143.501 Y67.043 E3.20876
G1 X144.711 Y67.897 E3.25802
G1 X145.486 Y68.457 E3.28982
G1 X146.589 Y69.277 E3.33553
G1 X147.402 Y69.895 E3.3695
G1 X148.495 Y70.75 E3.41565
G1 X149.276 Y71.376 E3.44894
G1 X150.353 Y72.262 E3.49533
G1 X151.107 Y72.897 E3.52812
G1 X152.136 Y73.786 E3.57334
G1 X152.936 Y74.494 E3.60888
G1 X153.922 Y75.388 E3.65314
G1 X154.65 Y76.065 E3.68621
G1 X155.658 Y77.025 E3.73251
G1 X156.421 Y77.771 E3.768
G1 X157.352 Y78.704 E3.81184
G1 X157.954 Y79.322 E3.84053
G1 X159.034 Y80.459 E3.89269
G1 X159.699 Y81.176 E3.92522
G1 X160.595 Y82.165 E3.9696
G1 X161.301 Y82.965 E4.00509
G1 X162.188 Y83.995 E4.0503
G1 X162.785 Y84.705 E4.08115
G1 X163.712 Y85.835 E4.12976
G1 X164.328 Y86.605 E4.16256
G1 X165.201 Y87.724 E4.20977
G1 X165.796 Y88.51 E4.24256
G1 X166.61 Y89.609 E4.28804
G1 X167.161 Y90.372 E4.31935
G1 X168.037 Y91.618 E4.37
G1 X168.564 Y92.388 E4.40104
G1 X169.317 Y93.514 E4.44609
G1 X169.865 Y94.359 E4.47959
G1 X170.641 Y95.586 E4.52788
G1 X171.127 Y96.378 E4.55878
G1 X171.85 Y97.585 E4.60558
G1 X172.36 Y98.461 E4.63929
G1 X173.021 Y99.631 E4.68399
G1 X173.508 Y100.517 E4.71761
G1 X174.181 Y101.777 E4.76513
G1 X174.651 Y102.684 E4.7991
G1 X175.217 Y103.812 E4.84108
G1 X175.702 Y104.806 E4.87786
G1 X176.259 Y105.986 E4.92126
G1 X176.693 Y106.935 E4.95597
G1 X177.275 Y108.248 E5.00374
G1 X177.654 Y109.137 E5.03588
G1 X178.192 Y110.436 E5.08265
G1 X178.546 Y111.327 E5.11454
G1 X179.044 Y112.62 E5.16062
G1 X179.386 Y113.542 E5.19333
G1 X179.859 Y114.865 E5.24006
G1 X180.187 Y115.823 E5.27374
G1 X180.624 Y117.149 E5.32017
G1 X180.926 Y118.106 E5.35355
G1 X181.309 Y119.37 E5.39748
G1 X181.615 Y120.429 E5.43414
G1 X181.954 Y121.657 E5.47651
G1 X182.222 Y122.677 E5.51159
G1 X182.541 Y123.953 E5.55534
G1 X182.789 Y125.003 E5.59122
G1 X183.093 Y126.357 E5.63738
G1 X183.296 Y127.321 E5.67014
G1 X183.559 Y128.648 E5.71514
G1 X183.755 Y129.711 E5.75109
G1 X183.978 Y130.998 E5.79453
G1 X184.142 Y132.025 E5.82912
G1 X184.338 Y133.348 E5.87361
G1 X184.481 Y134.405 E5.90908
G1 X184.645 Y135.744 E5.95395
G1 X184.754 Y136.733 E5.98704
G1 X184.889 Y138.108 E6.033
G1 X184.982 Y139.197 E6.06935
G1 X185.071 Y140.427 E6.11037
G1 X185.138 Y141.522 E6.14685
G1 X185.202 Y142.851 E6.19111
G1 X185.24 Y143.872 E6.22509
G1 X185.273 Y145.281 E6.27197
G1 X185.284 Y146.213 E6.30297
G1 X185.283 Y147.68 E6.35176
G1 X185.27 Y148.661 E6.38439
G1 X185.238 Y149.986 E6.42847
G1 X185.202 Y150.964 E6.46102
G1 X185.133 Y152.338 E6.50678
G1 X185.064 Y153.458 E6.5441
G1 X184.966 Y154.778 E6.58813
G1 X184.881 Y155.766 E6.62111
G1 X184.754 Y157.041 E6.66373
G1 X184.628 Y158.185 E6.70201
G1 X184.459 Y159.534 E6.74722
G1 X184.321 Y160.547 E6.78123
G1 X184.123 Y161.878 E6.82598
G1 X183.959 Y162.89 E6.86008
G1 X183.723 Y164.247 E6.90589
G1 X183.544 Y165.202 E6.93821
G1 X183.262 Y166.616 E6.98617
G1 X183.063 Y167.556 E7.01812
G1 X182.756 Y168.916 E7.0645
G1 X182.569 Y169.71 E7.09163
G1 X182.188 Y171.225 E7.14359
G1 X181.937 Y172.174 E7.17623
G1 X181.551 Y173.569 E7.22438
G1 X181.414 Y174.042 E7.24075
G1 X181.355 Y174.238 E7.24756
G1 X180.79 Y176.061 E7.31104
G1 X179.844 Y178.928 E7.41145
G1 X179.588 Y179.673 E7.43766
G1 X179.246 Y180.546 E7.46884
G1 X178.83 Y181.387 E7.50005
G1 X178.345 Y182.189 E7.53122
G1 X177.792 Y182.947 E7.56243
G1 X177.178 Y183.656 E7.59362
G1 X176.505 Y184.309 E7.62481
G1 X175.779 Y184.903 E7.65601
G1 X175.005 Y185.432 E7.68719
G1 X174.189 Y185.894 E7.71838
G1 X173.336 Y186.285 E7.74959
G1 X172.453 Y186.601 E7.78078
G1 X171.547 Y186.842 E7.81196
G1 X170.623 Y187.004 E7.84317
G1 X169.374 Y187.096 E7.88482
G1 X168.313 Y187.113 E7.92011
G1 X110.144 Y187.109 E9.85482
G1 X108.466 Y187.082 E9.91064
G1 X106.518 Y187.019 E9.97546
G1 X105.809 Y186.988 E9.99907
G1 X105.446 Y186.965 E10.01117
G1 X104.266 Y186.871 E10.05054
G1 X102.308 Y186.684 E10.11596
G1 X101.63 Y186.61 E10.13864
G1 X101.322 Y186.572 E10.14896
G1 X101.01 Y186.529 E10.15944
G1 X100.69 Y186.48 E10.17021
G1 X98.363 Y186.088 E10.24869
G1 X97.706 Y185.968 E10.27091
G1 X97.422 Y185.912 E10.28053
G1 X96.462 Y185.709 E10.31317
G1 X94.392 Y185.233 E10.38381
G1 X93.723 Y185.07 E10.40672
G1 X93.401 Y184.987 E10.41778
G1 X93.093 Y184.902 E10.4284
G1 X92.792 Y184.814 E10.43883
G1 X90.562 Y184.129 E10.51642
G1 X89.926 Y183.924 E10.53865
G1 X89.624 Y183.821 E10.54926
G1 X88.788 Y183.524 E10.57877
G1 X86.957 Y182.845 E10.64372
G1 X86.081 Y182.507 E10.67495
G1 X85.773 Y182.383 E10.68599
G1 X85.399 Y182.224 E10.69951
G1 X85.089 Y182.086 E10.7108
G1 X83.238 Y181.241 E10.77847
G1 X82.481 Y180.882 E10.80634
G1 X82.212 Y180.75 E10.81631
G1 X81.345 Y180.307 E10.84869
G1 X79.484 Y179.322 E10.91872
G1 X78.881 Y178.993 E10.94157
G1 X78.584 Y178.825 E10.95292
G1 X78.182 Y178.587 E10.96846
G1 X77.927 Y178.43 E10.97842
G1 X76.251 Y177.378 E11.04423
G1 X75.489 Y176.886 E11.0744
G1 X75.225 Y176.71 E11.08495
G1 X74.616 Y176.29 E11.10956
G1 X72.751 Y174.972 E11.18551
G1 X72.186 Y174.561 E11.20875
G1 X71.938 Y174.376 E11.21904
G1 X71.798 Y174.268 E11.22492
G1 X71.576 Y174.091 E11.23437
G1 X71.231 Y173.811 E11.24914
G1 X69.669 Y172.515 E11.31665
G1 X69.09 Y172.021 E11.34197
G1 X68.878 Y171.835 E11.35135
G1 X68.385 Y171.391 E11.37341
G1 X66.583 Y169.73 E11.45492
G1 X66.135 Y169.306 E11.47544
G1 X65.71 Y168.882 E11.49541
G1 X65.158 Y168.298 E11.52214
G1 X63.535 Y166.535 E11.60184
G1 X63.012 Y165.949 E11.62796
G1 X62.836 Y165.746 E11.6369
G1 X62.444 Y165.284 E11.65705
G1 X61.222 Y163.808 E11.72078
G1 X60.77 Y163.248 E11.74472
G1 X60.509 Y162.911 E11.7589
G1 X60.307 Y162.637 E11.77022
G1 X60.029 Y162.252 E11.78601
G1 X58.643 Y160.288 E11.86596
G1 X58.208 Y159.653 E11.89156
G1 X58.041 Y159.402 E11.90159
G1 X57.746 Y158.945 E11.91968
G1 X56.614 Y157.141 E11.99052
G1 X56.255 Y156.549 E12.01355
G1 X55.988 Y156.089 E12.03124
G1 X55.803 Y155.755 E12.04394
G1 X54.668 Y153.61 E12.12465
G1 X54.296 Y152.882 E12.15184
G1 X54.158 Y152.601 E12.16225
G1 X53.733 Y151.703 E12.1953
G1 X53.032 Y150.169 E12.25139
G1 X52.658 Y149.317 E12.28234
G1 X52.555 Y149.075 E12.29109
G1 X52.462 Y148.848 E12.29925
G1 X52.355 Y148.578 E12.30891
G1 X51.484 Y146.233 E12.39211
G1 X51.18 Y145.382 E12.42217
G1 X51.071 Y145.059 E12.4335
G1 X50.824 Y144.288 E12.46043
G1 X50.237 Y142.372 E12.52708
G1 X50.064 Y141.779 E12.54763
G1 X49.979 Y141.471 E12.55825
G1 X49.892 Y141.137 E12.56973
G1 X49.814 Y140.818 E12.58066
G1 X49.239 Y138.299 E12.66659
G1 X49.113 Y137.706 E12.68676
G1 X49.053 Y137.404 E12.697
G1 X48.875 Y136.426 E12.73006
G1 X48.564 Y134.57 E12.79265
G1 X48.454 Y133.856 E12.81668
G1 X48.405 Y133.495 E12.8288
G1 X48.357 Y133.096 E12.84216
G1 X48.327 Y132.824 E12.85126
G1 X48.118 Y130.627 E12.92467
G1 X48.055 Y129.854 E12.95046
G1 X48.032 Y129.507 E12.96203
G1 X47.983 Y128.51 E12.99523
G1 X47.923 Y126.718 E13.05486
G1 X47.918 Y126.534 E13.06099
G1 X47.891 Y124.856 E13.1168
G1 X47.887 Y66.496 E15.05787
G1 X47.898 Y65.66 E15.08567
G1 X47.952 Y64.724 E15.11686
G1 X48.086 Y63.795 E15.14808
G1 X48.298 Y62.882 E15.17925
G1 X48.587 Y61.99 E15.21044
G1 X48.951 Y61.125 E15.24165
G1 X49.387 Y60.295 E15.27283
G1 X49.893 Y59.505 E15.30404
G1 X50.464 Y58.761 E15.33523
G1 X51.096 Y58.069 E15.3664
G1 X51.785 Y57.432 E15.39761
G0 F6000 X52.174 Y57.629
G1 F1200 X52.91 Y57.077 E15.42821
G1 X53.692 Y56.59 E15.45885
G1 X54.513 Y56.173 E15.48948
G1 X55.381 Y55.824 E15.52059
G1 X56.22 Y55.529 E15.55017
G1 X56.411 Y55.464 E15.55688
G1 X58.842 Y54.661 E15.64204
G1 X60.902 Y54.02 E15.71379
G1 X61.094 Y53.962 E15.72046
G1 X61.665 Y53.797 E15.74023
G1 X63.052 Y53.415 E15.78808
G1 X63.951 Y53.178 E15.819
G1 X65.378 Y52.821 E15.86793
G1 X66.25 Y52.616 E15.89772
G1 X67.759 Y52.278 E15.94915
G1 X68.644 Y52.092 E15.97923
G1 X69.982 Y51.826 E16.02461
G1 X70.901 Y51.657 E16.05568
G1 X72.429 Y51.394 E16.10725
G1 X73.246 Y51.263 E16.13477
G1 X74.722 Y51.045 E16.1844
G1 X75.576 Y50.929 E16.21306
G1 X77.048 Y50.748 E16.26239
G1 X78.043 Y50.639 E16.29568
G1 X79.355 Y50.511 E16.33953
G1 X80.338 Y50.426 E16.37234
G1 X81.76 Y50.321 E16.41977
G1 X82.703 Y50.265 E16.45119
G1 X84.23 Y50.193 E16.50203
G1 X85.101 Y50.16 E16.53102
G1 X86.508 Y50.126 E16.57783
G1 X87.461 Y50.115 E16.60953
G1 X88.764 Y50.115 E16.65287
G1 X89.646 Y50.125 E16.68221
G1 X91.291 Y50.167 E16.73694
G1 X92.273 Y50.203 E16.76962
G1 X93.618 Y50.269 E16.81441
G1 X94.606 Y50.331 E16.84734
G1 X95.97 Y50.433 E16.89283
G1 X97.006 Y50.523 E16.92742
G1 X98.34 Y50.655 E16.972
G1 X99.338 Y50.766 E17.0054
G1 X100.675 Y50.932 E17.05021
G1 X101.734 Y51.076 E17.08576
G1 X103.04 Y51.271 E17.12968
G1 X104.073 Y51.438 E17.16448
G1 X105.362 Y51.662 E17.208
G1 X106.342 Y51.845 E17.24115
G1 X107.777 Y52.131 E17.28982
G1 X108.675 Y52.322 E17.32036
G1 X110.058 Y52.633 E17.3675
G1 X111.078 Y52.877 E17.40239
G1 X112.315 Y53.187 E17.4448
G1 X113.371 Y53.467 E17.48114
G1 X114.584 Y53.803 E17.523
G1 X115.653 Y54.114 E17.56003
G1 X116.897 Y54.492 E17.60328
G1 X117.856 Y54.797 E17.63675
G1 X119.17 Y55.231 E17.68277
G1 X120.137 Y55.564 E17.71679
G1 X121.446 Y56.034 E17.76305
G1 X122.368 Y56.377 E17.79577
G1 X123.631 Y56.866 E17.84081
G1 X124.556 Y57.236 E17.87395
G1 X125.816 Y57.759 E17.91932
G1 X126.73 Y58.151 E17.9524
G1 X128.024 Y58.726 E17.9995
G1 X128.953 Y59.153 E18.0335
G1 X130.152 Y59.72 E18.07762
G1 X131.12 Y60.194 E18.11346
G1 X132.257 Y60.767 E18.15581
G1 X133.151 Y61.232 E18.18933
G1 X134.417 Y61.909 E18.23708
G1 X135.279 Y62.385 E18.26983
G1 X136.462 Y63.056 E18.31506
G1 X137.327 Y63.561 E18.34838
G1 X138.525 Y64.28 E18.39485
G1 X139.316 Y64.768 E18.42576
G1 X140.537 Y65.542 E18.47384
G1 X141.384 Y66.094 E18.50747
G1 X142.483 Y66.83 E18.55146
G1 X143.271 Y67.37 E18.58324
G1 X144.477 Y68.221 E18.63233
G1 X145.247 Y68.779 E18.66396
G1 X146.348 Y69.596 E18.70956
G1 X147.156 Y70.21 E18.74331
G1 X148.245 Y71.062 E18.7893
G1 X149.022 Y71.685 E18.82242
G1 X150.096 Y72.568 E18.86867
G1 X150.846 Y73.199 E18.90127
G1 X151.871 Y74.085 E18.94633
G1 X152.668 Y74.79 E18.98172
G1 X153.65 Y75.681 E19.02582
G1 X154.374 Y76.355 E19.05872
G1 X155.378 Y77.312 E19.10485
G1 X156.138 Y78.054 E19.14018
G1 X157.065 Y78.984 E19.18386
G1 X157.754 Y79.692 E19.21671
G1 X158.741 Y80.731 E19.26438
G1 X159.403 Y81.444 E19.29674
G1 X160.296 Y82.43 E19.34098
G1 X160.998 Y83.226 E19.37628
G1 X161.882 Y84.252 E19.42133
G1 X162.476 Y84.959 E19.45204
G1 X163.4 Y86.085 E19.50049
G1 X164.013 Y86.851 E19.53312
G1 X164.882 Y87.965 E19.58011
G1 X165.475 Y88.749 E19.6128
G1 X166.286 Y89.844 E19.65813
G1 X166.834 Y90.602 E19.68924
G1 X167.707 Y91.844 E19.73973
G1 X168.232 Y92.611 E19.77064
G1 X168.981 Y93.732 E19.81548
G1 X169.527 Y94.573 E19.84883
G1 X170.3 Y95.796 E19.89695
G1 X170.784 Y96.583 E19.92768
G1 X171.504 Y97.786 E19.97432
G1 X172.012 Y98.658 E20.00788
G1 X172.671 Y99.824 E20.05243
G1 X173.155 Y100.705 E20.08586
G1 X173.826 Y101.962 E20.13325
G1 X174.294 Y102.864 E20.16705
G1 X174.858 Y103.988 E20.20888
G1 X175.34 Y104.977 E20.24547
G1 X175.895 Y106.153 E20.28872
G1 X176.328 Y107.098 E20.32329
G1 X176.907 Y108.406 E20.37087
G1 X177.284 Y109.29 E20.40283
G1 X177.82 Y110.584 E20.44942
G1 X178.173 Y111.471 E20.48117
G1 X178.622 Y112.633 E20.5226
G1 X179.01 Y113.677 E20.55965
G1 X179.481 Y114.995 E20.6062
G1 X179.807 Y115.949 E20.63973
G1 X180.243 Y117.27 E20.686
G1 X180.543 Y118.222 E20.7192
G1 X180.925 Y119.481 E20.76296
G1 X181.229 Y120.536 E20.79948
G1 X181.567 Y121.759 E20.84168
G1 X181.834 Y122.774 E20.87658
G1 X182.152 Y124.045 E20.92016
G1 X182.399 Y125.09 E20.95588
G1 X182.702 Y126.44 E21.00189
G1 X182.878 Y127.272 E21.03018
G1 X183.166 Y128.721 E21.07932
G1 X183.361 Y129.779 E21.1151
G1 X183.583 Y131.062 E21.1584
G1 X183.747 Y132.083 E21.1928
G1 X183.942 Y133.402 E21.23715
G1 X184.084 Y134.454 E21.27245
G1 X184.247 Y135.788 E21.31715
G1 X184.356 Y136.773 E21.35011
G1 X184.49 Y138.142 E21.39586
G1 X184.583 Y139.226 E21.43205
G1 X184.672 Y140.452 E21.47293
G1 X184.731 Y141.4 E21.50453
G1 X184.802 Y142.866 E21.55334
G1 X184.84 Y143.882 E21.58716
G1 X184.873 Y145.286 E21.63387
G1 X184.884 Y146.213 E21.6647
G1 X184.883 Y147.674 E21.7133
G1 X184.87 Y148.651 E21.74579
G1 X184.838 Y149.971 E21.78971
G1 X184.796 Y151.085 E21.82679
G1 X184.734 Y152.314 E21.86772
G1 X184.665 Y153.428 E21.90484
G1 X184.567 Y154.744 E21.94873
G1 X184.469 Y155.87 E21.98632
G1 X184.357 Y156.997 E22.02399
G1 X184.231 Y158.136 E22.06211
G1 X184.062 Y159.481 E22.10719
G1 X183.925 Y160.488 E22.14099
G1 X183.728 Y161.815 E22.18561
G1 X183.565 Y162.822 E22.21954
G1 X183.329 Y164.173 E22.26516
G1 X183.152 Y165.124 E22.29733
G1 X182.871 Y166.533 E22.34512
G1 X182.672 Y167.468 E22.37691
G1 X182.367 Y168.824 E22.42314
G1 X182.142 Y169.775 E22.45564
G1 X181.802 Y171.123 E22.50188
G1 X181.552 Y172.068 E22.5344
G1 X181.167 Y173.458 E22.58237
G1 X181.03 Y173.931 E22.59875
G1 X180.408 Y175.943 E22.66879
G1 X180.348 Y176.131 E22.67535
G1 X179.466 Y178.798 E22.76878
G1 X179.21 Y179.543 E22.79498
G1 X178.873 Y180.4 E22.82561
G1 X178.463 Y181.224 E22.85622
