;FLAVOR:Marlin
;TIME:14250
;Filament used: 8.9261m
;Layer height: 0.2
;MINX:31.5
;MINY:28.969
;MINZ:0.2
;MAXX:203.5
;MAXY:206.016
;MAXZ:32.2
;Generated with Cura_SteamEngine 4.13.1
M140 S60
M105
M190 S60
M104 S200
M105
M109 S200
M82 ;absolute extrusion mode
; Ender 3 Custom Start G-code
G92 E0 ; Reset Extruder
G28 ; Home all axes
G1 Z2.0 F3000 ; Move Z Axis up little to prevent scratching of Heat Bed
G1 X0.1 Y20 Z0.3 F5000.0 ; Move to start position
G1 X0.1 Y200.0 Z0.3 F1500.0 E15 ; Draw the first line
G1 X0.4 Y200.0 Z0.3 F5000.0 ; Move to side a little
G1 X0.4 Y20 Z0.3 F1500.0 E30 ; Draw the second line
G92 E0 ; Reset Extruder
G1 Z2.0 F3000 ; Move Z Axis up little to prevent scratching of Heat Bed
G1 X5 Y20 Z0.3 F5000.0 ; Move over to prevent blob squish
G92 E0
G92 E0
G1 F2700 E-5
;LAYER_COUNT:162
;LAYER:0
M107
G0 F6000 X34.698 Y32.233 Z0.2
;TYPE:SKIRT
G1 F2700 E0
G1 F1200 X35.386 Y31.596 E0.03119
G1 X36.126 Y31.019 E0.0624
G1 X36.912 Y30.508 E0.09358
G1 X37.739 Y30.066 E0.12476
G1 X38.601 Y29.696 E0.15596
G1 X39.491 Y29.4 E0.18716
G1 X40.403 Y29.181 E0.21836
G1 X41.33 Y29.041 E0.24954
G1 X42.201 Y28.982 E0.27857
G1 X42.522 Y28.973 E0.28925
G1 X42.83 Y28.969 E0.2995
G1 X61.964 Y28.97 E0.9359
G1 X62.671 Y28.981 E0.95942
G1 X63.607 Y29.036 E0.9906
G1 X64.536 Y29.17 E1.02182
G1 X65.864 Y29.507 E1.06739
G1 X68.436 Y30.333 E1.15724
G1 X70.851 Y31.036 E1.2409
G1 X73.282 Y31.668 E1.32444
G1 X75.733 Y32.233 E1.4081
G1 X78.227 Y32.732 E1.49269
G1 X80.679 Y33.153 E1.57544
G1 X83.187 Y33.509 E1.65969
G1 X85.702 Y33.795 E1.74388
G1 X88.191 Y34.007 E1.82696
G1 X90.639 Y34.146 E1.90852
G1 X94.616 Y34.23 E2.04082
G1 X115.409 Y34.23 E2.7324
G1 X118.017 Y34.193 E2.81915
G1 X120.539 Y34.086 E2.90311
G1 X123.034 Y33.909 E2.9863
G1 X125.532 Y33.661 E3.06979
G1 X128.021 Y33.343 E3.15325
G1 X130.53 Y32.949 E3.23772
G1 X132.996 Y32.49 E3.32115
G1 X135.447 Y31.963 E3.40453
G1 X137.907 Y31.36 E3.48878
G1 X140.342 Y30.69 E3.57277
G1 X142.897 Y29.906 E3.66167
G1 X144.122 Y29.511 E3.70447
G1 X145.026 Y29.261 E3.73567
G1 X145.948 Y29.089 E3.76687
G1 X147.167 Y28.984 E3.80756
G1 X147.496 Y28.974 E3.81851
G1 X147.83 Y28.969 E3.82962
G1 X166.551 Y28.97 E4.45228
G1 X167.248 Y28.98 E4.47546
G1 X168.155 Y29.031 E4.50568
G1 X169.005 Y29.115 E4.53409
G1 X170.233 Y29.255 E4.5752
G1 X172.748 Y29.47 E4.65915
G1 X175.267 Y29.614 E4.74307
G1 X177.756 Y29.685 E4.82589
G1 X180.28 Y29.687 E4.90984
G1 X182.812 Y29.616 E4.99408
G1 X185.384 Y29.472 E5.07976
G1 X186.652 Y29.373 E5.12207
G1 X187.201 Y29.343 E5.14035
G1 X187.521 Y29.334 E5.151
G1 X187.83 Y29.33 E5.16128
G1 X191.951 Y29.331 E5.29834
G1 X192.649 Y29.341 E5.32156
G1 X193.585 Y29.395 E5.35274
G1 X194.513 Y29.527 E5.38392
G1 X195.427 Y29.739 E5.41513
G1 X196.319 Y30.028 E5.44631
G1 X197.184 Y30.391 E5.47751
G1 X198.014 Y30.827 E5.5087
G1 X198.805 Y31.332 E5.53991
G1 X199.549 Y31.903 E5.5711
G1 X200.242 Y32.535 E5.6023
G1 X200.879 Y33.223 E5.63348
G1 X201.454 Y33.964 E5.66468
G1 X201.965 Y34.75 E5.69586
G1 X202.407 Y35.578 E5.72708
G1 X202.776 Y36.44 E5.75827
G1 X203.071 Y37.33 E5.78945
G1 X203.289 Y38.242 E5.82064
G1 X203.429 Y39.17 E5.85185
G1 X203.487 Y40.031 E5.88055
G1 X203.496 Y40.351 E5.8912
G1 X203.5 Y40.66 E5.90148
G1 X203.499 Y126.86 E8.7685
G1 X203.49 Y127.587 E8.79269
G1 X203.439 Y128.524 E8.8239
G1 X203.307 Y129.452 E8.85507
G1 X203.098 Y130.366 E8.88626
G1 X202.811 Y131.259 E8.91746
G1 X202.449 Y132.125 E8.94867
G1 X202.015 Y132.956 E8.97986
G1 X201.511 Y133.747 E9.01105
G1 X200.942 Y134.492 E9.04223
G1 X200.311 Y135.187 E9.07345
G1 X199.624 Y135.825 E9.10463
G1 X198.885 Y136.402 E9.13582
G1 X198.099 Y136.914 E9.16702
G1 X197.273 Y137.357 E9.19819
G1 X196.411 Y137.729 E9.22942
G1 X195.522 Y138.025 E9.26058
G1 X194.61 Y138.245 E9.29179
G1 X193.744 Y138.379 E9.32093
G1 X192.715 Y138.497 E9.35538
G1 X192.314 Y138.551 E9.36884
G1 X191.397 Y138.653 E9.39953
G1 X188.88 Y139.005 E9.48406
G1 X186.404 Y139.423 E9.56757
G1 X183.909 Y139.917 E9.65217
G1 X181.852 Y140.38 E9.7223
G1 X180.171 Y140.78 E9.77977
G1 X179.374 Y140.973 E9.80704
G1 X174.643 Y142.144 E9.96915
G1 X173.783 Y142.362 E9.99865
G1 X169.289 Y143.522 E10.15302
G1 X168.365 Y143.766 E10.18481
G1 X163.981 Y144.948 E10.33583
G1 X162.97 Y145.226 E10.3707
G1 X158.911 Y146.372 E10.51098
G1 X157.736 Y146.712 E10.55167
G1 X153.87 Y147.859 E10.68579
G1 X152.73 Y148.206 E10.72543
G1 X149.036 Y149.356 E10.8541
G1 X147.659 Y149.795 E10.90217
G1 X144.304 Y150.894 E11.0196
G1 X142.835 Y151.388 E11.07114
G1 X139.61 Y152.502 E11.18463
G1 X138.072 Y153.048 E11.23891
G1 X134.991 Y154.169 E11.34796
G1 X133.414 Y154.758 E11.40395
G1 X130.581 Y155.846 E11.50488
G1 X128.981 Y156.478 E11.5621
G1 X126.079 Y157.653 E11.66623
G1 X124.462 Y158.326 E11.72449
G1 X121.766 Y159.479 E11.82201
G1 X120.026 Y160.243 E11.88522
G1 X117.505 Y161.38 E11.9772
G1 X115.684 Y162.224 E12.04396
G1 X113.311 Y163.351 E12.13133
G1 X111.498 Y164.237 E12.19845
G1 X109.056 Y165.46 E12.28928
G1 X107.351 Y166.335 E12.35302
G1 X104.98 Y167.586 E12.44219
G1 X103.233 Y168.531 E12.50825
G1 X100.738 Y169.916 E12.60316
G1 X99.137 Y170.826 E12.66441
G1 X96.682 Y172.255 E12.75889
G1 X94.901 Y173.319 E12.82789
G1 X92.731 Y174.647 E12.91251
G1 X91.02 Y175.718 E12.97965
G1 X88.489 Y177.34 E13.07963
G1 X86.969 Y178.336 E13.14007
G1 X84.578 Y179.937 E13.23578
G1 X82.914 Y181.078 E13.30289
G1 X80.477 Y182.785 E13.40185
G1 X78.936 Y183.887 E13.46486
G1 X76.364 Y185.765 E13.57078
G1 X74.828 Y186.91 E13.6345
G1 X72.271 Y188.855 E13.74136
G1 X70.914 Y189.907 E13.79846
G1 X68.136 Y192.103 E13.91624
G1 X66.754 Y193.216 E13.97526
G1 X64.054 Y195.43 E14.0914
G1 X62.731 Y196.534 E14.14871
G1 X59.82 Y199.006 E14.27573
G1 X59.092 Y199.634 E14.3077
G1 X58.432 Y200.195 E14.33651
G1 X58.174 Y200.408 E14.34764
G1 X57.448 Y200.988 E14.37855
G1 X57.116 Y201.243 E14.39247
G1 X56.902 Y201.401 E14.40132
G1 X56.385 Y201.76 E14.42225
G1 X55.476 Y202.354 E14.45837
G1 X55.11 Y202.583 E14.47273
G1 X54.938 Y202.686 E14.4794
G1 X54.37 Y203.004 E14.50105
G1 X53.516 Y203.449 E14.53308
G1 X53.154 Y203.63 E14.54654
G1 X52.933 Y203.735 E14.55468
G1 X52.317 Y204.004 E14.57703
G1 X51.345 Y204.395 E14.61188
G1 X50.992 Y204.53 E14.62445
G1 X50.642 Y204.657 E14.63683
G1 X50.198 Y204.808 E14.65243
G1 X49.927 Y204.893 E14.66188
G1 X49.439 Y205.039 E14.67882
G1 X49.163 Y205.118 E14.68837
G1 X48.698 Y205.244 E14.70439
G1 X48.04 Y205.401 E14.72689
G1 X47.035 Y205.608 E14.76102
G1 X46.636 Y205.682 E14.77452
G1 X46.338 Y205.732 E14.78457
G1 X45.664 Y205.824 E14.80719
G1 X44.671 Y205.928 E14.8404
G1 X44.302 Y205.961 E14.85272
G1 X43.977 Y205.984 E14.86356
G1 X43.28 Y206.011 E14.88676
G1 X42.593 Y206.016 E14.90961
G1 X41.656 Y205.983 E14.94079
G1 X40.725 Y205.87 E14.97199
G1 X39.807 Y205.678 E15.00318
G1 X38.908 Y205.409 E15.03439
G1 X38.036 Y205.064 E15.06558
G1 X37.196 Y204.646 E15.09679
G1 X36.396 Y204.158 E15.12795
G1 X35.639 Y203.604 E15.15916
G1 X34.932 Y202.987 E15.19037
G1 X34.281 Y202.312 E15.22156
G1 X33.689 Y201.584 E15.25276
G1 X33.162 Y200.809 E15.28394
G1 X32.702 Y199.991 E15.31515
G1 X32.314 Y199.138 E15.34632
G1 X32 Y198.254 E15.37752
G1 X31.763 Y197.347 E15.4087
G1 X31.603 Y196.422 E15.43992
G1 X31.514 Y195.189 E15.48104
G1 X31.501 Y194.363 E15.50851
G1 X31.5 Y173.802 E16.19238
G1 X31.511 Y172.942 E16.22098
G1 X31.564 Y172.005 E16.2522
G1 X31.697 Y171.077 E16.28338
G1 X31.909 Y170.163 E16.31458
G1 X32.197 Y169.271 E16.34576
G1 X32.561 Y168.406 E16.37697
G1 X33.142 Y167.332 E16.41759
G1 X33.452 Y166.828 E16.43727
G1 X34.765 Y164.625 E16.52257
G1 X35.997 Y162.415 E16.60672
G1 X37.153 Y160.198 E16.68988
G1 X38.269 Y157.905 E16.7747
G1 X39.292 Y155.638 E16.85742
G1 X40.273 Y153.294 E16.94194
G1 X41.178 Y150.937 E17.02591
G1 X42.006 Y148.592 E17.10862
G1 X42.781 Y146.182 E17.19282
G1 X43.478 Y143.784 E17.27588
G1 X44.116 Y141.329 E17.36025
G1 X44.687 Y138.853 E17.44476
G1 X45.176 Y136.402 E17.52789
G1 X45.6 Y133.919 E17.61167
G1 X45.953 Y131.441 E17.69492
G1 X46.236 Y128.948 E17.77837
G1 X46.452 Y126.403 E17.86332
G1 X46.592 Y123.941 E17.94534
G1 X46.663 Y121.392 E18.03015
G1 X46.663 Y118.896 E18.11317
G1 X46.591 Y116.349 E18.19792
G1 X46.448 Y113.849 E18.2812
G1 X46.237 Y111.366 E18.36409
G1 X45.95 Y108.838 E18.44871
G1 X45.597 Y106.36 E18.53196
G1 X45.171 Y103.878 E18.61572
G1 X44.675 Y101.405 E18.69961
G1 X43.997 Y98.493 E18.79905
G1 X36.652 Y69.104 E19.8066
G1 X36.012 Y66.69 E19.88966
G1 X35.287 Y64.236 E19.97477
G1 X34.519 Y61.882 E20.05713
G1 X33.67 Y59.513 E20.14083
G1 X32.283 Y56.012 E20.26608
G1 X31.975 Y55.126 E20.29728
G1 X31.743 Y54.217 E20.32848
G1 X31.59 Y53.292 E20.35966
G1 X31.513 Y52.268 E20.39382
G1 X31.504 Y51.948 E20.40446
G1 X31.5 Y51.639 E20.41474
G1 X31.501 Y40.492 E20.78549
G1 X31.51 Y39.829 E20.80755
G1 X31.563 Y38.892 E20.83876
G1 X31.695 Y37.964 E20.86994
G1 X31.906 Y37.05 E20.90114
G1 X32.194 Y36.157 E20.93234
G1 X32.557 Y35.293 E20.96351
G1 X32.992 Y34.462 E20.99471
G1 X33.497 Y33.671 E21.02592
G1 X34.067 Y32.926 E21.05712
G1 X34.698 Y32.233 E21.0883
G0 F6000 X35.09 Y32.407
G1 F1200 X35.775 Y31.792 E21.11891
G1 X36.51 Y31.239 E21.14951
G1 X37.291 Y30.751 E21.18014
G1 X38.112 Y30.333 E21.21078
G1 X38.965 Y29.988 E21.24138
G1 X39.845 Y29.718 E21.272
G1 X40.746 Y29.526 E21.30264
G1 X41.659 Y29.412 E21.33324
G1 X42.212 Y29.382 E21.35166
G1 X42.533 Y29.373 E21.36234
G1 X42.83 Y29.369 E21.37222
G1 X61.958 Y29.37 E22.00842
G1 X62.665 Y29.381 E22.03194
G1 X63.584 Y29.436 E22.06256
G1 X64.495 Y29.569 E22.09318
G1 X65.741 Y29.888 E22.13596
G1 X68.296 Y30.709 E22.22522
G1 X70.745 Y31.421 E22.31004
G1 X73.206 Y32.061 E22.39462
G1 X75.635 Y32.621 E22.47753
G1 X78.158 Y33.126 E22.56311
G1 X80.621 Y33.549 E22.64623
G1 X83.157 Y33.909 E22.73142
G1 X85.621 Y34.189 E22.8139
G1 X88.172 Y34.406 E22.89905
G1 X90.637 Y34.546 E22.98117
G1 X94.608 Y34.63 E23.11328
G1 X115.415 Y34.63 E23.80532
G1 X118.04 Y34.593 E23.89264
G1 X120.548 Y34.486 E23.97613
G1 X123.065 Y34.308 E24.06006
G1 X125.589 Y34.058 E24.14441
G1 X128.097 Y33.737 E24.22851
G1 X130.559 Y33.35 E24.3114
G1 X133.081 Y32.881 E24.39672
G1 X135.555 Y32.349 E24.48089
G1 X138.003 Y31.749 E24.56472
G1 X140.438 Y31.079 E24.64872
G1 X142.991 Y30.296 E24.73754
G1 X144.245 Y29.891 E24.78137
G1 X145.133 Y29.647 E24.812
G1 X146.038 Y29.48 E24.8426
G1 X147.179 Y29.384 E24.88069
G1 X147.508 Y29.374 E24.89164
G1 X147.83 Y29.369 E24.90235
G1 X166.545 Y29.37 E25.52481
G1 X167.242 Y29.38 E25.54799
G1 X168.117 Y29.429 E25.57714
G1 X168.959 Y29.512 E25.60528
G1 X170.221 Y29.656 E25.64753
G1 X172.692 Y29.867 E25.73002
G1 X175.232 Y30.012 E25.81463
G1 X177.78 Y30.085 E25.89942
G1 X180.291 Y30.087 E25.98293
G1 X182.845 Y30.016 E26.06791
G1 X185.348 Y29.876 E26.15129
G1 X186.683 Y29.771 E26.19583
G1 X187.212 Y29.743 E26.21345
G1 X187.532 Y29.734 E26.2241
G1 X187.83 Y29.73 E26.23401
G1 X191.945 Y29.731 E26.37087
G1 X192.643 Y29.741 E26.39409
G1 X193.562 Y29.794 E26.42471
G1 X194.473 Y29.927 E26.45533
G1 X195.369 Y30.138 E26.48595
G1 X196.243 Y30.426 E26.51655
G1 X197.09 Y30.789 E26.5472
G1 X197.901 Y31.224 E26.57781
G1 X198.671 Y31.728 E26.60842
G1 X199.395 Y32.297 E26.63905
G1 X200.067 Y32.927 E26.66969
G1 X200.682 Y33.612 E26.7003
G1 X201.235 Y34.348 E26.73092
G1 X201.722 Y35.129 E26.76154
G1 X202.139 Y35.95 E26.79216
G1 X202.484 Y36.804 E26.8228
G1 X202.753 Y37.684 E26.8534
G1 X202.945 Y38.585 E26.88404
G1 X203.058 Y39.498 E26.91464
G1 X203.087 Y40.042 E26.93276
G1 X203.096 Y40.362 E26.94341
G1 X203.1 Y40.66 E26.95332
G1 X203.099 Y126.855 E29.82018
G1 X203.09 Y127.582 E29.84436
G1 X203.039 Y128.501 E29.87497
G1 X202.908 Y129.413 E29.90562
G1 X202.698 Y130.309 E29.93623
G1 X202.412 Y131.184 E29.96684
G1 X202.051 Y132.031 E29.99747
G1 X201.617 Y132.843 E30.02809
G1 X201.115 Y133.615 E30.05872
G1 X200.547 Y134.34 E30.08935
G1 X199.919 Y135.013 E30.11997
G1 X199.235 Y135.629 E30.15058
G1 X198.5 Y136.183 E30.18119
G1 X197.72 Y136.672 E30.21181
G1 X196.9 Y137.091 E30.24244
G1 X196.047 Y137.437 E30.27306
G1 X195.167 Y137.708 E30.30368
G1 X194.267 Y137.901 E30.3343
G1 X193.698 Y137.982 E30.35341
G1 X192.432 Y138.127 E30.3958
G1 X192.27 Y138.154 E30.40126
G1 X191.334 Y138.258 E30.43258
G1 X188.824 Y138.609 E30.51688
G1 X186.337 Y139.028 E30.60076
G1 X183.814 Y139.529 E30.68631
G1 X181.774 Y139.988 E30.75586
G1 X180.079 Y140.39 E30.8138
G1 X179.226 Y140.597 E30.843
G1 X174.606 Y141.74 E31.00129
G1 X173.64 Y141.986 E31.03445
G1 X169.243 Y143.121 E31.18548
G1 X168.204 Y143.395 E31.22122
G1 X163.928 Y144.548 E31.36852
G1 X162.819 Y144.853 E31.40678
G1 X158.833 Y145.978 E31.54453
G1 X157.555 Y146.348 E31.58878
G1 X153.756 Y147.475 E31.72058
G1 X152.611 Y147.824 E31.76039
G1 X148.843 Y148.997 E31.89165
G1 X147.539 Y149.413 E31.93718
G1 X144.231 Y150.496 E32.05295
G1 X142.791 Y150.98 E32.10347
G1 X139.476 Y152.125 E32.22012
G1 X137.915 Y152.679 E32.27521
G1 X134.854 Y153.793 E32.38356
G1 X133.342 Y154.358 E32.43724
G1 X130.373 Y155.498 E32.54302
G1 X128.831 Y156.107 E32.59816
G1 X125.959 Y157.27 E32.70122
G1 X124.283 Y157.968 E32.76161
G1 X121.629 Y159.102 E32.8576
G1 X119.937 Y159.845 E32.91906
G1 X117.237 Y161.063 E33.01758
G1 X115.606 Y161.819 E33.07737
G1 X113.09 Y163.014 E33.17001
G1 X111.274 Y163.901 E33.23723
G1 X108.914 Y165.084 E33.32504
G1 X107.161 Y165.984 E33.39058
G1 X104.782 Y167.238 E33.48002
G1 X103.014 Y168.195 E33.54689
G1 X100.544 Y169.566 E33.64085
G1 X98.957 Y170.468 E33.70156
G1 X96.522 Y171.886 E33.79528
G1 X94.719 Y172.962 E33.86512
G1 X92.426 Y174.365 E33.95452
G1 X90.848 Y175.353 E34.01645
G1 X88.317 Y176.975 E34.11643
G1 X86.723 Y178.019 E34.17981
G1 X84.351 Y179.608 E34.27477
G1 X82.688 Y180.748 E34.34183
G1 X80.269 Y182.442 E34.44005
G1 X78.69 Y183.571 E34.50461
G1 X76.1 Y185.463 E34.61129
G1 X74.562 Y186.609 E34.67508
G1 X72.105 Y188.478 E34.77776
G1 X70.629 Y189.622 E34.83987
G1 X67.885 Y191.792 E34.95623
G1 X66.503 Y192.905 E35.01525
G1 X63.727 Y195.181 E35.13464
G1 X62.504 Y196.202 E35.18763
G1 X59.623 Y198.648 E35.31333
G1 X58.773 Y199.381 E35.35066
G1 X58.173 Y199.891 E35.37685
G1 X57.924 Y200.096 E35.38758
G1 X57.198 Y200.676 E35.41849
G1 X56.878 Y200.922 E35.43191
G1 X56.664 Y201.08 E35.44076
G1 X56.166 Y201.425 E35.46091
G1 X55.257 Y202.019 E35.49703
G1 X54.905 Y202.24 E35.51085
G1 X54.733 Y202.343 E35.51752
G1 X54.185 Y202.649 E35.53839
G1 X53.331 Y203.094 E35.57042
G1 X52.982 Y203.268 E35.58339
G1 X52.761 Y203.373 E35.59153
G1 X52.168 Y203.633 E35.61307
G1 X51.196 Y204.024 E35.64791
G1 X50.856 Y204.154 E35.66002
G1 X50.506 Y204.281 E35.6724
G1 X50.074 Y204.428 E35.68758
G1 X49.812 Y204.51 E35.69671
G1 X49.324 Y204.656 E35.71365
G1 X49.058 Y204.732 E35.72285
G1 X48.593 Y204.858 E35.73888
G1 X47.959 Y205.009 E35.76056
G1 X46.954 Y205.216 E35.79468
G1 X46.57 Y205.288 E35.80768
G1 X46.272 Y205.338 E35.81773
G1 X45.622 Y205.426 E35.83954
G1 X44.629 Y205.53 E35.87275
G1 X44.273 Y205.562 E35.88464
G1 X43.948 Y205.585 E35.89548
G1 X43.277 Y205.611 E35.91781
G1 X42.59 Y205.616 E35.94066
G1 X41.67 Y205.582 E35.97128
G1 X40.756 Y205.469 E36.00191
G1 X39.856 Y205.278 E36.03251
G1 X38.976 Y205.008 E36.06313
G1 X38.122 Y204.664 E36.09375
G1 X37.301 Y204.246 E36.12439
G1 X36.52 Y203.759 E36.15501
G1 X35.784 Y203.206 E36.18563
G1 X35.099 Y202.591 E36.21624
G1 X34.469 Y201.919 E36.24688
G1 X33.901 Y201.195 E36.27749
G1 X33.397 Y200.425 E36.3081
G1 X32.962 Y199.613 E36.33873
G1 X32.599 Y198.767 E36.36935
G1 X32.311 Y197.893 E36.39996
G1 X32.1 Y196.997 E36.43058
G1 X31.967 Y196.086 E36.4612
G1 X31.914 Y195.183 E36.49128
G1 X31.9 Y194.19 E36.52431
G1 X31.901 Y173.651 E37.20744
G1 X31.911 Y172.947 E37.23086
G1 X31.964 Y172.028 E37.26148
G1 X32.097 Y171.117 E37.2921
G1 X32.308 Y170.221 E37.32272
G1 X32.596 Y169.347 E37.35332
G1 X32.959 Y168.501 E37.38394
G1 X33.483 Y167.542 E37.42029
G1 X33.763 Y167.087 E37.43806
G1 X35.114 Y164.819 E37.52586
G1 X36.343 Y162.616 E37.60976
G1 X37.524 Y160.351 E37.69472
G1 X38.622 Y158.094 E37.7782
G1 X39.667 Y155.78 E37.86265
G1 X40.651 Y153.426 E37.94751
G1 X41.542 Y151.109 E38.03008
G1 X42.388 Y148.71 E38.11468
G1 X43.169 Y146.282 E38.19951
G1 X43.86 Y143.9 E38.28201
G1 X44.509 Y141.406 E38.36772
G1 X45.074 Y138.956 E38.45135
