;FLAVOR:Marlin
;TIME:16245
;Filament used: 12.8232m
;Layer height: 0.2
;MINX:38.402
;MINY:86.5
;MINZ:0.2
;MAXX:196.573
;MAXY:146.68
;MAXZ:28
;Generated with Cura_SteamEngine 4.10.0
M140 S50
M105
M190 S50
M104 S200
M105
M109 S200
M82 ;absolute extrusion mode
; Ender 3 Custom Start G-code
G92 E0 ; Reset Extruder
G28 ; Home all axes
G1 Z2.0 F3000 ; Move Z Axis up little to prevent scratching of Heat Bed
G1 X0.1 Y20 Z0.3 F5000.0 ; Move to start position
G1 X0.1 Y200.0 Z0.3 F1500.0 E15 ; Draw the first line
G1 X0.4 Y200.0 Z0.3 F5000.0 ; Move to side a little
G1 X0.4 Y20 Z0.3 F1500.0 E30 ; Draw the second line
G92 E0 ; Reset Extruder
G1 Z2.0 F3000 ; Move Z Axis up little to prevent scratching of Heat Bed
G1 X5 Y20 Z0.3 F5000.0 ; Move over to prevent blob squish
G92 E0
G92 E0
G1 F2700 E-5
;LAYER_COUNT:140
;LAYER:0
M107
G0 F6000 X44.605 Y87.611 Z0.2
;TYPE:SKIRT
G1 F2700 E0
G1 F1200 X45.465 Y87.238 E0.03118
G1 X46.355 Y86.94 E0.0624
G1 X47.266 Y86.719 E0.09357
G1 X48.193 Y86.577 E0.12477
G1 X49.008 Y86.517 E0.15195
G1 X49.341 Y86.508 E0.16303
G1 X50.019 Y86.5 E0.18558
G1 X67.405 Y86.5 E0.76384
G1 X68.266 Y86.511 E0.79248
G1 X69.202 Y86.564 E0.82366
G1 X70.131 Y86.697 E0.85487
G1 X71.045 Y86.909 E0.88608
G1 X71.937 Y87.197 E0.91726
G1 X72.801 Y87.561 E0.94844
G1 X73.324 Y87.824 E0.96791
G1 X73.973 Y88.175 E0.99245
G1 X75.177 Y88.848 E1.03833
G1 X77.374 Y89.996 E1.12077
G1 X79.656 Y91.108 E1.2052
G1 X81.96 Y92.15 E1.28931
G1 X84.279 Y93.122 E1.37294
G1 X86.629 Y94.028 E1.45671
G1 X88.984 Y94.862 E1.5398
G1 X91.394 Y95.639 E1.62402
G1 X93.817 Y96.345 E1.70796
G1 X96.252 Y96.98 E1.79166
G1 X98.676 Y97.54 E1.87441
G1 X101.188 Y98.047 E1.95964
G1 X103.646 Y98.468 E2.04259
G1 X106.135 Y98.825 E2.12622
G1 X108.625 Y99.109 E2.20957
G1 X111.153 Y99.326 E2.29396
G1 X113.671 Y99.471 E2.37785
G1 X116.158 Y99.543 E2.4606
G1 X118.683 Y99.545 E2.54458
G1 X121.206 Y99.475 E2.62853
G1 X123.735 Y99.334 E2.71278
G1 X126.224 Y99.124 E2.79586
G1 X128.709 Y98.843 E2.87903
G1 X131.237 Y98.486 E2.96395
G1 X133.701 Y98.065 E3.04709
G1 X136.163 Y97.575 E3.13058
G1 X138.617 Y97.011 E3.21433
G1 X141.052 Y96.379 E3.298
G1 X143.464 Y95.68 E3.38153
G1 X145.897 Y94.899 E3.46652
G1 X148.229 Y94.078 E3.54875
G1 X150.564 Y93.18 E3.63195
G1 X152.957 Y92.183 E3.71818
G1 X155.219 Y91.163 E3.80071
G1 X157.475 Y90.068 E3.88411
G1 X159.691 Y88.915 E3.9672
G1 X160.455 Y88.488 E3.99631
G1 X161.628 Y87.85 E4.04072
G1 X162.47 Y87.437 E4.07191
G1 X163.345 Y87.098 E4.10312
G1 X164.245 Y86.834 E4.13432
G1 X165.164 Y86.648 E4.1655
G1 X166.096 Y86.541 E4.1967
G1 X166.709 Y86.514 E4.21711
G1 X167.524 Y86.501 E4.24422
G1 X184.891 Y86.5 E4.82185
G1 X185.736 Y86.511 E4.84996
G1 X186.672 Y86.565 E4.88114
G1 X187.6 Y86.698 E4.91232
G1 X188.514 Y86.91 E4.94353
G1 X189.406 Y87.199 E4.97472
G1 X190.271 Y87.563 E5.00593
G1 X191.101 Y87.999 E5.03711
G1 X191.891 Y88.504 E5.0683
G1 X192.635 Y89.075 E5.09949
G1 X193.328 Y89.707 E5.13069
G1 X193.965 Y90.396 E5.1619
G1 X194.54 Y91.136 E5.19307
G1 X195.051 Y91.923 E5.22428
G1 X195.492 Y92.751 E5.25548
G1 X195.861 Y93.613 E5.28666
G1 X196.156 Y94.503 E5.31785
G1 X196.374 Y95.415 E5.34904
G1 X196.513 Y96.343 E5.38025
G1 X196.573 Y97.279 E5.41144
G1 X196.552 Y98.216 E5.44261
G1 X196.452 Y99.149 E5.47382
G1 X196.209 Y100.323 E5.5137
G1 X196.013 Y101.064 E5.53919
G1 X195.884 Y101.514 E5.55476
G1 X195.707 Y102.081 E5.57452
G1 X194.911 Y104.546 E5.66067
G1 X194.436 Y105.952 E5.71003
G1 X194.056 Y107.025 E5.74789
G1 X193.542 Y108.416 E5.79722
G1 X192.875 Y110.149 E5.85898
G1 X192.158 Y111.924 E5.92265
G1 X192.087 Y112.096 E5.92884
G1 X191.433 Y113.636 E5.98449
G1 X190.688 Y115.314 E6.04555
G1 X190.607 Y115.493 E6.05208
G1 X189.869 Y117.076 E6.11018
G1 X189.055 Y118.755 E6.17224
G1 X188.507 Y119.84 E6.21267
G1 X187.803 Y121.185 E6.26316
G1 X186.936 Y122.783 E6.32363
G1 X186.844 Y122.95 E6.32997
G1 X185.993 Y124.454 E6.38744
G1 X185.142 Y125.901 E6.44328
G1 X185.043 Y126.066 E6.44968
G1 X184.084 Y127.631 E6.51072
G1 X183.15 Y129.1 E6.56862
G1 X182.181 Y130.573 E6.62727
G1 X182.091 Y130.709 E6.63269
G1 X181.527 Y131.538 E6.66604
G1 X180.525 Y132.961 E6.72392
G1 X180.428 Y133.097 E6.72948
G1 X179.463 Y134.423 E6.78403
G1 X178.331 Y135.925 E6.84658
G1 X178.215 Y136.076 E6.85291
G1 X177.146 Y137.441 E6.91058
G1 X176.052 Y138.794 E6.96845
G1 X175.924 Y138.949 E6.97514
G1 X174.74 Y140.358 E7.03635
G1 X174.256 Y140.918 E7.06097
G1 X173.843 Y141.37 E7.08133
G1 X173.698 Y141.52 E7.08827
G1 X173.389 Y141.828 E7.10278
G1 X173.242 Y141.97 E7.10958
G1 X172.782 Y142.403 E7.13059
G1 X172.072 Y143.016 E7.16179
G1 X171.586 Y143.379 E7.18197
G1 X171.188 Y143.66 E7.19817
G1 X170.918 Y143.845 E7.20906
G1 X170.533 Y144.1 E7.22442
G1 X169.73 Y144.584 E7.2556
G1 X169.195 Y144.857 E7.27558
G1 X168.715 Y145.086 E7.29327
G1 X168.401 Y145.23 E7.30475
G1 X167.991 Y145.41 E7.31965
G1 X167.117 Y145.75 E7.35084
G1 X166.522 Y145.934 E7.37155
G1 X166.034 Y146.07 E7.3884
G1 X165.721 Y146.152 E7.39916
G1 X165.264 Y146.265 E7.41482
G1 X164.345 Y146.452 E7.44601
G1 X163.727 Y146.532 E7.46674
G1 X163.241 Y146.581 E7.48299
G1 X162.918 Y146.608 E7.49377
G1 X162.454 Y146.641 E7.50924
G1 X161.832 Y146.668 E7.52995
G1 X160.906 Y146.68 E7.56075
G1 X73.888 Y146.68 E10.45498
G1 X73.197 Y146.67 E10.47796
G1 X72.572 Y146.643 E10.49877
G1 X72.054 Y146.606 E10.51604
G1 X71.746 Y146.58 E10.52632
G1 X71.285 Y146.534 E10.54173
G1 X70.356 Y146.401 E10.57295
G1 X69.72 Y146.262 E10.5946
G1 X69.258 Y146.147 E10.61043
G1 X68.994 Y146.078 E10.61951
G1 X68.522 Y145.948 E10.63579
G1 X67.629 Y145.661 E10.66699
G1 X67.014 Y145.412 E10.68906
G1 X66.548 Y145.207 E10.70599
G1 X66.269 Y145.08 E10.71619
G1 X65.853 Y144.883 E10.7315
G1 X65.023 Y144.445 E10.76271
G1 X64.489 Y144.113 E10.78362
G1 X64.06 Y143.829 E10.80074
G1 X63.762 Y143.625 E10.81275
G1 X63.372 Y143.348 E10.82866
G1 X62.632 Y142.773 E10.85983
G1 X62.206 Y142.393 E10.87881
G1 X61.887 Y142.093 E10.89338
G1 X61.645 Y141.858 E10.9046
G1 X61.274 Y141.487 E10.92205
G1 X60.858 Y141.048 E10.94217
G1 X60.525 Y140.672 E10.95887
G1 X60.331 Y140.443 E10.96885
G1 X58.953 Y138.798 E11.04023
G1 X57.858 Y137.445 E11.09812
G1 X56.786 Y136.076 E11.15595
G1 X56.669 Y135.924 E11.16233
G1 X55.54 Y134.426 E11.22472
G1 X54.473 Y132.959 E11.28505
G1 X53.478 Y131.545 E11.34256
G1 X52.913 Y130.716 E11.37593
G1 X51.845 Y129.095 E11.44049
G1 X51.014 Y127.789 E11.49198
G1 X49.957 Y126.066 E11.55921
G1 X49.854 Y125.896 E11.56582
G1 X49.1 Y124.614 E11.61529
G1 X48.159 Y122.955 E11.67872
G1 X47.277 Y121.334 E11.7401
G1 X47.2 Y121.191 E11.7455
G1 X46.495 Y119.846 E11.79601
G1 X45.941 Y118.746 E11.83698
G1 X45.203 Y117.226 E11.89318
G1 X45.131 Y117.076 E11.89871
G1 X44.393 Y115.493 E11.9568
G1 X44.312 Y115.315 E11.96331
G1 X43.64 Y113.804 E12.01831
G1 X42.913 Y112.095 E12.08008
G1 X42.842 Y111.924 E12.08624
G1 X42.125 Y110.149 E12.14991
G1 X41.402 Y108.268 E12.21693
G1 X40.896 Y106.891 E12.26573
G1 X40.538 Y105.875 E12.30156
G1 X40.028 Y104.36 E12.35472
G1 X39.285 Y102.055 E12.43527
G1 X39.031 Y101.258 E12.46309
G1 X38.928 Y100.914 E12.47504
G1 X38.851 Y100.642 E12.48444
G1 X38.763 Y100.314 E12.49573
G1 X38.729 Y100.178 E12.5004
G1 X38.541 Y99.259 E12.5316
G1 X38.431 Y98.328 E12.56278
G1 X38.402 Y97.39 E12.59399
G1 X38.452 Y96.454 E12.62517
G1 X38.582 Y95.525 E12.65637
G1 X38.79 Y94.611 E12.68754
G1 X39.076 Y93.717 E12.71876
G1 X39.436 Y92.851 E12.74995
G1 X39.869 Y92.019 E12.78115
G1 X40.372 Y91.228 E12.81233
G1 X40.94 Y90.481 E12.84354
G1 X41.569 Y89.786 E12.87472
G1 X42.255 Y89.147 E12.9059
G1 X42.994 Y88.569 E12.9371
G1 X43.779 Y88.055 E12.96831
G1 X44.605 Y87.611 E12.9995
G0 F6000 X45.024 Y87.856
G1 F1200 X45.878 Y87.513 E13.03011
G1 X46.759 Y87.245 E13.06074
G1 X47.66 Y87.054 E13.09137
G1 X49.023 Y86.917 E13.13693
G1 X49.346 Y86.908 E13.14768
G1 X50.019 Y86.9 E13.17007
G1 X67.405 Y86.9 E13.74833
G1 X68.26 Y86.911 E13.77677
G1 X69.179 Y86.964 E13.80738
G1 X70.091 Y87.097 E13.83804
G1 X70.987 Y87.308 E13.86865
G1 X71.861 Y87.596 E13.89926
G1 X72.707 Y87.959 E13.92988
G1 X73.134 Y88.176 E13.94581
G1 X73.778 Y88.524 E13.97016
G1 X74.976 Y89.194 E14.01581
G1 X77.221 Y90.367 E14.10006
G1 X79.494 Y91.474 E14.18415
G1 X81.79 Y92.513 E14.26797
G1 X84.116 Y93.488 E14.35185
G1 X86.488 Y94.403 E14.43641
G1 X88.876 Y95.248 E14.52066
G1 X91.265 Y96.017 E14.60414
G1 X93.709 Y96.73 E14.68881
G1 X96.133 Y97.362 E14.77213
G1 X98.613 Y97.935 E14.85679
G1 X101.112 Y98.44 E14.94159
G1 X103.588 Y98.864 E15.02514
G1 X106.07 Y99.22 E15.10853
G1 X108.617 Y99.511 E15.1938
G1 X111.097 Y99.724 E15.27659
G1 X113.637 Y99.869 E15.36121
G1 X116.181 Y99.943 E15.44586
G1 X118.694 Y99.945 E15.52944
G1 X121.239 Y99.875 E15.61412
G1 X123.722 Y99.736 E15.69683
G1 X126.267 Y99.522 E15.78178
G1 X128.773 Y99.238 E15.86566
G1 X131.289 Y98.882 E15.95018
G1 X133.775 Y98.458 E16.03406
G1 X136.229 Y97.969 E16.11728
G1 X138.735 Y97.393 E16.2028
G1 X141.159 Y96.764 E16.2861
G1 X143.602 Y96.057 E16.37069
G1 X146.005 Y95.285 E16.45463
G1 X148.4 Y94.442 E16.53908
G1 X150.71 Y93.553 E16.62141
G1 X153.067 Y92.571 E16.70633
G1 X155.407 Y91.516 E16.7917
G1 X157.67 Y90.418 E16.87536
G1 X159.887 Y89.264 E16.95849
G1 X160.646 Y88.839 E16.98743
G1 X161.819 Y88.201 E17.03184
G1 X162.646 Y87.797 E17.06245
G1 X163.505 Y87.466 E17.09307
G1 X164.39 Y87.211 E17.1237
G1 X165.293 Y87.033 E17.15431
G1 X166.209 Y86.935 E17.18495
G1 X166.715 Y86.914 E17.2018
G1 X167.699 Y86.9 E17.23453
G1 X185.046 Y86.901 E17.81149
G1 X185.73 Y86.911 E17.83424
G1 X186.649 Y86.965 E17.86486
G1 X187.56 Y87.098 E17.89548
G1 X188.456 Y87.309 E17.9261
G1 X189.33 Y87.598 E17.95672
G1 X190.176 Y87.961 E17.98734
G1 X190.988 Y88.396 E18.01798
G1 X191.758 Y88.9 E18.04858
G1 X192.482 Y89.469 E18.07921
G1 X193.153 Y90.099 E18.10982
G1 X193.768 Y90.784 E18.14044
G1 X194.321 Y91.521 E18.17109
G1 X194.807 Y92.302 E18.20168
G1 X195.224 Y93.123 E18.23231
G1 X195.569 Y93.977 E18.26294
G1 X195.838 Y94.857 E18.29355
G1 X196.029 Y95.758 E18.32418
G1 X196.142 Y96.671 E18.35478
G1 X196.175 Y97.591 E18.3854
G1 X196.128 Y98.511 E18.41604
G1 X196.001 Y99.423 E18.44667
G1 X195.823 Y100.221 E18.47386
G1 X195.627 Y100.962 E18.49935
G1 X195.502 Y101.395 E18.51434
G1 X195.327 Y101.958 E18.53395
G1 X194.578 Y104.281 E18.61513
G1 X194.106 Y105.68 E18.66424
G1 X193.68 Y106.887 E18.70681
G1 X193.169 Y108.272 E18.75591
G1 X192.502 Y110.005 E18.81767
G1 X191.787 Y111.774 E18.88114
G1 X191.719 Y111.939 E18.88707
G1 X190.994 Y113.643 E18.94866
G1 X190.323 Y115.152 E19.00359
G1 X189.506 Y116.907 E19.06798
G1 X188.769 Y118.43 E19.12425
G1 X188.698 Y118.575 E19.12962
G1 X188.228 Y119.508 E19.16437
G1 X187.448 Y121 E19.22036
G1 X186.585 Y122.592 E19.28059
G1 X186.496 Y122.753 E19.28671
G1 X185.645 Y124.257 E19.34419
G1 X184.798 Y125.698 E19.39978
G1 X183.743 Y127.422 E19.46701
G1 X183.645 Y127.579 E19.47316
G1 X182.724 Y129.022 E19.5301
G1 X181.76 Y130.484 E19.58835
G1 X181.196 Y131.313 E19.62169
G1 X180.198 Y132.731 E19.67937
G1 X179.14 Y134.187 E19.73923
G1 X178.012 Y135.684 E19.80157
G1 X177.9 Y135.83 E19.80769
G1 X176.835 Y137.19 E19.86515
G1 X175.741 Y138.543 E19.92302
G1 X174.538 Y139.979 E19.98532
G1 X173.954 Y140.656 E20.01506
G1 X173.555 Y141.092 E20.03472
G1 X173.41 Y141.242 E20.04166
G1 X173.197 Y141.457 E20.05172
G1 X172.967 Y141.678 E20.06233
G1 X172.507 Y142.111 E20.08334
G1 X171.81 Y142.713 E20.11397
G1 X171.356 Y143.052 E20.13282
G1 X170.958 Y143.333 E20.14902
G1 X170.697 Y143.511 E20.15953
G1 X170.312 Y143.766 E20.17489
G1 X169.523 Y144.241 E20.20552
G1 X169.023 Y144.496 E20.22419
G1 X168.543 Y144.725 E20.24188
G1 X168.24 Y144.864 E20.25297
G1 X167.83 Y145.044 E20.26786
G1 X166.972 Y145.377 E20.29847
G1 X166.415 Y145.549 E20.31786
G1 X165.927 Y145.685 E20.33471
G1 X165.625 Y145.764 E20.34509
G1 X165.168 Y145.877 E20.36075
G1 X164.266 Y146.059 E20.39135
G1 X163.687 Y146.134 E20.41077
G1 X163.201 Y146.183 E20.42702
G1 X162.89 Y146.209 E20.4374
G1 X162.426 Y146.242 E20.45287
G1 X161.826 Y146.268 E20.47285
G1 X160.906 Y146.28 E20.50345
G1 X73.894 Y146.28 E23.39748
G1 X73.203 Y146.27 E23.42046
G1 X72.601 Y146.244 E23.44051
G1 X72.083 Y146.207 E23.45778
G1 X71.786 Y146.182 E23.46769
G1 X71.325 Y146.136 E23.4831
G1 X70.413 Y146.005 E23.51374
G1 X69.817 Y145.874 E23.53404
G1 X69.355 Y145.759 E23.54988
G1 X69.1 Y145.692 E23.55865
G1 X68.628 Y145.562 E23.57493
G1 X67.752 Y145.28 E23.60554
G1 X67.175 Y145.046 E23.62625
G1 X66.709 Y144.841 E23.64318
G1 X66.44 Y144.718 E23.65302
G1 X66.024 Y144.521 E23.66833
G1 X65.21 Y144.091 E23.69894
G1 X64.71 Y143.78 E23.71853
G1 X64.281 Y143.496 E23.73564
G1 X63.994 Y143.299 E23.74722
G1 X63.604 Y143.022 E23.76313
G1 X62.877 Y142.457 E23.79375
G1 X62.48 Y142.102 E23.81147
G1 X62.161 Y141.802 E23.82603
G1 X61.928 Y141.575 E23.83685
G1 X61.557 Y141.204 E23.8543
G1 X61.156 Y140.781 E23.87369
G1 X60.83 Y140.412 E23.89006
G1 X60.637 Y140.186 E23.89995
G1 X59.381 Y138.688 E23.96497
G1 X59.264 Y138.546 E23.97109
G1 X58.169 Y137.193 E24.02898
G1 X57.101 Y135.83 E24.08657
G1 X56.988 Y135.683 E24.09274
G1 X55.863 Y134.191 E24.15489
G1 X54.897 Y132.865 E24.20946
G1 X53.903 Y131.456 E24.26681
G1 X53.244 Y130.491 E24.30567
G1 X52.275 Y129.022 E24.3642
G1 X51.352 Y127.574 E24.42132
G1 X51.257 Y127.422 E24.42728
G1 X50.199 Y125.693 E24.4947
G1 X49.359 Y124.262 E24.54989
G1 X48.507 Y122.758 E24.60738
G1 X48.415 Y122.592 E24.61369
G1 X47.628 Y121.143 E24.66854
G1 X46.767 Y119.5 E24.73023
G1 X46.298 Y118.567 E24.76496
G1 X45.563 Y117.052 E24.82097
G1 X44.756 Y115.324 E24.8844
G1 X44.006 Y113.641 E24.94568
G1 X43.934 Y113.477 E24.95164
G1 X43.281 Y111.939 E25.00722
G1 X42.566 Y110.176 E25.07049
G1 X42.498 Y110.005 E25.07661
G1 X41.831 Y108.272 E25.13837
G1 X41.273 Y106.758 E25.19204
G1 X40.917 Y105.747 E25.22769
G1 X40.409 Y104.238 E25.28065
G1 X39.666 Y101.934 E25.36117
G1 X39.412 Y101.137 E25.38899
G1 X39.313 Y100.805 E25.40051
G1 X39.236 Y100.533 E25.40991
G1 X39.151 Y100.217 E25.4208
G1 X39.117 Y100.081 E25.42546
G1 X38.933 Y99.179 E25.45608
G1 X38.828 Y98.264 E25.48671
G1 X38.802 Y97.344 E25.51732
G1 X38.857 Y96.425 E25.54794
G1 X38.991 Y95.514 E25.57857
G1 X39.203 Y94.618 E25.60919
G1 X39.492 Y93.744 E25.63981
G1 X39.857 Y92.899 E25.67042
G1 X40.293 Y92.088 E25.70105
G1 X40.798 Y91.318 E25.73168
G1 X41.367 Y90.595 E25.76228
G1 X41.998 Y89.924 E25.79291
G1 X42.684 Y89.31 E25.82353
G1 X43.421 Y88.758 E25.85416
G1 X44.203 Y88.272 E25.88478
G1 X45.024 Y87.856 E25.91539
G0 F6000 X44.625 Y88.497
G1 F1200 X45.441 Y88.11 E25.94543
G1 X46.288 Y87.797 E25.97547
G1 X47.16 Y87.559 E26.00553
G1 X48.049 Y87.4 E26.03557
G1 X49.037 Y87.316 E26.06855
G1 X49.351 Y87.308 E26.07899
G1 X50.019 Y87.3 E26.10121
G1 X67.405 Y87.3 E26.67947
G1 X68.255 Y87.311 E26.70775
G1 X69.156 Y87.364 E26.73777
G1 X70.05 Y87.496 E26.76782
G1 X70.928 Y87.707 E26.79786
G1 X71.784 Y87.995 E26.8279
G1 X72.945 Y88.529 E26.8704
G1 X73.582 Y88.873 E26.89448
G1 X74.787 Y89.547 E26.9404
G1 X77.012 Y90.709 E27.02389
G1 X79.333 Y91.84 E27.10976
G1 X81.636 Y92.882 E27.19384
G1 X83.967 Y93.859 E27.2779
G1 X86.359 Y94.781 E27.36316
G1 X88.756 Y95.63 E27.44774
G1 X91.135 Y96.396 E27.53087
G1 X93.601 Y97.115 E27.6163
G1 X96.047 Y97.753 E27.70038
G1 X98.547 Y98.331 E27.78572
G1 X101.037 Y98.834 E27.87021
G1 X103.5 Y99.256 E27.95333
G1 X106.035 Y99.619 E28.0385
G1 X108.538 Y99.905 E28.12229
G1 X111.111 Y100.126 E28.20819
G1 X113.601 Y100.269 E28.29114
G1 X116.17 Y100.343 E28.37662
G1 X118.705 Y100.345 E28.46094
G1 X121.236 Y100.275 E28.54515
G1 X123.777 Y100.133 E28.6298
G1 X126.312 Y99.92 E28.71441
G1 X128.838 Y99.634 E28.79896
G1 X131.307 Y99.285 E28.88189
G1 X133.883 Y98.845 E28.96881
G1 X136.296 Y98.364 E29.05065
G1 X138.82 Y97.784 E29.13679
G1 X141.256 Y97.152 E29.22049
G1 X143.73 Y96.436 E29.30615
G1 X146.123 Y95.668 E29.38974
G1 X148.528 Y94.821 E29.47455
G1 X150.872 Y93.919 E29.55808
G1 X153.249 Y92.928 E29.64374
G1 X155.539 Y91.896 E29.72728
G1 X157.836 Y90.782 E29.81219
G1 X160.092 Y89.607 E29.89679
G1 X160.837 Y89.191 E29.92517
G1 X162.01 Y88.553 E29.96958
G1 X162.822 Y88.157 E29.99963
G1 X163.666 Y87.834 E30.02969
G1 X164.534 Y87.587 E30.0597
G1 X165.422 Y87.418 E30.08977
