;FLAVOR:Marlin
;TIME:5799
;Filament used: 4.11992m
;Layer height: 0.2
;MINX:77.586
;MINY:65.542
;MINZ:0.24
;MAXX:157.239
;MAXY:169.326
;MAXZ:15.89
;Generated with Cura_SteamEngine 4.8.0
M140 S60
M105
M190 S60
M104 S200
M105
M109 S200
M82 ;absolute extrusion mode
; Ender 3 Custom Start G-code
G92 E0 ; Reset Extruder
G28 ; Home all axes
G1 Z2.0 F3000 ; Move Z Axis up little to prevent scratching of Heat Bed
G1 X0.1 Y20 Z0.3 F5000.0 ; Move to start position
G1 X0.1 Y200.0 Z0.3 F1500.0 E15 ; Draw the first line
G1 X0.4 Y200.0 Z0.3 F5000.0 ; Move to side a little
G1 X0.4 Y20 Z0.3 F1500.0 E30 ; Draw the second line
G92 E0 ; Reset Extruder
G1 Z2.0 F3000 ; Move Z Axis up little to prevent scratching of Heat Bed
G1 X5 Y20 Z0.3 F5000.0 ; Move over to prevent blob squish
G92 E0
G92 E0
G1 F2700 E-5
;LAYER_COUNT:74
;LAYER:-6
M107
G0 F9000 X82.65 Y71.776 Z0.24
;TYPE:SUPPORT-INTERFACE
G1 F2700 E0
G1 F1125 X82.738 Y71.68 E0.0104
G1 X83.397 Y71.008 E0.08553
G1 X83.488 Y70.921 E0.09558
G1 X84.091 Y70.382 E0.16014
G1 X84.35 Y70.165 E0.18711
G1 X85.116 Y69.567 E0.26468
G1 X85.249 Y69.471 E0.27777
G1 X85.996 Y68.97 E0.34957
G1 X86.151 Y68.875 E0.36408
G1 X86.92 Y68.438 E0.43469
G1 X87.071 Y68.359 E0.44829
G1 X87.897 Y67.965 E0.52134
G1 X88.019 Y67.912 E0.53196
G1 X88.719 Y67.632 E0.59214
G1 X89.045 Y67.514 E0.61982
G1 X89.952 Y67.216 E0.69603
G1 X90.105 Y67.171 E0.70876
G1 X90.973 Y66.955 E0.78016
G1 X91.162 Y66.916 E0.79556
G1 X92.038 Y66.765 E0.86652
G1 X92.193 Y66.741 E0.87904
G1 X92.765 Y66.677 E0.92498
G1 X92.986 Y66.66 E0.94268
G1 X94.2 Y66.606 E1.03968
G1 X94.326 Y66.603 E1.04974
G1 X97.267 Y66.604 E1.2845
G1 X98.316 Y66.642 E1.36829
G1 X98.59 Y66.663 E1.39023
G1 X99.5 Y66.76 E1.46328
G1 X99.665 Y66.782 E1.47657
G1 X100.402 Y66.909 E1.53627
G1 X100.678 Y66.967 E1.55878
G1 X101.571 Y67.177 E1.63201
G1 X101.739 Y67.224 E1.64593
G1 X102.556 Y67.477 E1.7142
G1 X102.722 Y67.534 E1.72821
G1 X103.712 Y67.915 E1.81289
G1 X103.818 Y67.96 E1.82208
G1 X104.544 Y68.297 E1.88597
G1 X104.766 Y68.408 E1.90579
G1 X105.635 Y68.88 E1.98473
G1 X105.715 Y68.926 E1.99209
G1 X106.387 Y69.348 E2.05543
G1 X106.631 Y69.514 E2.07899
G1 X107.405 Y70.075 E2.1553
G1 X107.511 Y70.156 E2.16595
G1 X108.102 Y70.646 E2.22723
G1 X108.301 Y70.822 E2.24844
G1 X109.029 Y71.51 E2.32839
G1 X109.113 Y71.594 E2.33788
G1 X109.699 Y72.229 E2.40685
G1 X109.851 Y72.405 E2.42541
G1 X110.062 Y72.665 E2.45214
G1 X110.517 Y73.158 E2.50569
G1 X111.04 Y73.597 E2.5602
G1 X111.613 Y73.968 E2.61469
G1 X112.229 Y74.263 E2.66921
G1 X112.877 Y74.477 E2.72368
G1 X113.547 Y74.608 E2.77818
G1 X114.235 Y74.653 E2.83321
G1 X123.207 Y74.653 E3.5494
G1 X123.875 Y74.611 E3.60283
G1 X124.546 Y74.482 E3.65737
G1 X125.195 Y74.269 E3.71189
G1 X125.812 Y73.977 E3.76638
G1 X126.382 Y73.612 E3.82041
G1 X126.665 Y73.39 E3.84912
G1 X126.851 Y73.235 E3.86845
G1 X127.616 Y72.637 E3.94596
G1 X127.749 Y72.541 E3.95905
G1 X128.493 Y72.042 E4.03056
G1 X128.649 Y71.946 E4.04518
G1 X129.42 Y71.508 E4.11597
G1 X129.571 Y71.429 E4.12957
G1 X130.397 Y71.035 E4.20262
G1 X130.519 Y70.982 E4.21324
G1 X131.219 Y70.702 E4.27342
G1 X131.545 Y70.584 E4.3011
G1 X132.452 Y70.286 E4.3773
G1 X132.605 Y70.241 E4.39003
G1 X133.473 Y70.025 E4.46144
G1 X133.662 Y69.986 E4.47684
G1 X134.538 Y69.835 E4.5478
G1 X134.693 Y69.811 E4.56032
G1 X135.265 Y69.747 E4.60626
G1 X135.486 Y69.73 E4.62395
G1 X136.7 Y69.676 E4.72096
G1 X136.826 Y69.673 E4.73102
G1 X140.755 Y69.674 E5.04465
G1 X141.736 Y69.71 E5.12301
G1 X141.904 Y69.722 E5.13645
G1 X143.206 Y69.883 E5.24118
G1 X143.304 Y69.897 E5.24908
G1 X143.535 Y69.937 E5.26779
G1 X144.508 Y70.141 E5.34715
G1 X144.732 Y70.197 E5.36558
G1 X145.553 Y70.435 E5.43381
G1 X145.732 Y70.493 E5.44883
G1 X146.545 Y70.793 E5.51801
G1 X146.751 Y70.878 E5.5358
G1 X147.524 Y71.23 E5.6036
G1 X147.69 Y71.312 E5.61838
G1 X148.355 Y71.668 E5.67859
G1 X148.635 Y71.828 E5.70433
G1 X149.501 Y72.367 E5.78576
G1 X149.603 Y72.436 E5.79559
G1 X150.334 Y72.969 E5.8678
G1 X150.491 Y73.092 E5.88372
G1 X151.166 Y73.663 E5.9543
G1 X151.273 Y73.761 E5.96588
G1 X151.945 Y74.42 E6.04101
G1 X152.041 Y74.52 E6.05207
G1 X152.558 Y75.1 E6.1141
G1 X152.782 Y75.366 E6.14185
G1 X153.386 Y76.139 E6.22016
G1 X153.482 Y76.272 E6.23326
G1 X153.973 Y77.004 E6.30361
G1 X154.071 Y77.162 E6.31846
G1 X154.515 Y77.943 E6.39017
G1 X154.594 Y78.094 E6.40377
G1 X154.988 Y78.92 E6.47682
G1 X155.037 Y79.032 E6.48658
G1 X155.31 Y79.713 E6.54515
G1 X155.399 Y79.953 E6.56558
G1 X155.439 Y80.068 E6.5753
G1 X155.737 Y80.975 E6.65151
G1 X155.782 Y81.128 E6.66424
G1 X155.998 Y81.996 E6.73564
G1 X156.037 Y82.185 E6.75104
G1 X156.186 Y83.047 E6.82087
G1 X156.208 Y83.206 E6.83369
G1 X156.295 Y84.064 E6.90253
G1 X156.313 Y84.294 E6.92094
G1 X156.321 Y84.452 E6.93357
G1 X156.35 Y85.377 E7.00744
G1 X156.35 Y89.239 E7.31573
G1 X156.314 Y90.245 E7.39608
G1 X156.304 Y90.38 E7.40689
G1 X156.202 Y91.297 E7.48054
G1 X156.177 Y91.472 E7.49465
G1 X156.015 Y92.35 E7.56592
G1 X155.985 Y92.484 E7.57688
G1 X155.752 Y93.38 E7.65078
G1 X155.706 Y93.532 E7.66346
G1 X155.481 Y94.21 E7.72048
G1 X144.33 Y124.853 E10.32346
G1 X144.14 Y125.495 E10.3769
G1 X144.032 Y126.171 E10.43155
G1 X144.009 Y126.852 E10.48594
G1 X144.073 Y127.533 E10.54054
G1 X144.223 Y128.198 E10.59496
G1 X144.424 Y128.765 E10.64298
G1 X144.507 Y128.964 E10.66019
G1 X144.987 Y130.266 E10.77096
G1 X145.04 Y130.422 E10.78411
G1 X146.495 Y135.137 E11.17799
G1 X146.745 Y136.065 E11.25471
G1 X146.775 Y136.196 E11.26544
G1 X146.949 Y137.094 E11.33846
G1 X147.117 Y137.743 E11.39197
G1 X147.183 Y137.91 E11.4063
G1 X147.172 Y137.916 E11.4073
G1 X147.417 Y138.483 E11.45661
G1 X147.758 Y139.363 E11.53194
G1 X147.806 Y139.496 E11.54323
G1 X147.948 Y139.933 E11.57991
G1 X149.382 Y144.621 E11.97124
G1 X149.432 Y144.792 E11.98546
G1 X149.658 Y145.639 E12.05544
G1 X149.704 Y145.842 E12.07205
G1 X149.863 Y146.678 E12.13998
G1 X149.896 Y146.899 E12.15782
G1 X149.996 Y147.764 E12.22733
G1 X150.008 Y147.915 E12.23942
G1 X150.046 Y148.839 E12.31324
G1 X150.047 Y149.001 E12.32617
G1 X150.018 Y149.893 E12.39741
G1 X150.007 Y150.059 E12.41069
G1 X149.911 Y150.976 E12.48429
G1 X149.893 Y151.106 E12.49477
G1 X149.731 Y152.006 E12.56776
G1 X149.693 Y152.18 E12.58198
G1 X149.474 Y153.035 E12.65243
G1 X149.424 Y153.206 E12.66666
G1 X149.14 Y154.053 E12.73797
G1 X149.082 Y154.206 E12.75103
G1 X148.736 Y155.029 E12.82229
G1 X148.656 Y155.203 E12.83758
G1 X148.265 Y155.974 E12.90659
G1 X148.167 Y156.151 E12.92274
G1 X147.717 Y156.897 E12.99228
G1 X147.618 Y157.047 E13.00663
G1 X147.097 Y157.785 E13.07874
G1 X146.998 Y157.914 E13.09172
G1 X146.449 Y158.581 E13.16068
G1 X146.298 Y158.751 E13.17883
G1 X145.697 Y159.382 E13.24839
G1 X145.588 Y159.488 E13.26052
G1 X144.926 Y160.088 E13.33184
G1 X144.782 Y160.21 E13.34691
G1 X144.057 Y160.775 E13.42028
G1 X143.952 Y160.852 E13.43067
G1 X143.175 Y161.371 E13.50526
G1 X143.054 Y161.445 E13.51658
G1 X142.257 Y161.898 E13.58976
G1 X142.122 Y161.969 E13.60194
G1 X141.308 Y162.356 E13.67388
G1 X141.163 Y162.419 E13.6865
G1 X140.293 Y162.757 E13.76101
G1 X140.173 Y162.801 E13.77121
G1 X139.677 Y162.96 E13.81279
G1 X125.425 Y167.317 E15.00242
G1 X124.978 Y167.447 E15.03958
G1 X124.422 Y167.599 E15.08559
G1 X123.571 Y167.805 E15.15548
G1 X123.017 Y167.922 E15.20068
G1 X122.09 Y168.088 E15.27585
G1 X121.551 Y168.169 E15.31936
G1 X120.713 Y168.267 E15.38671
G1 X120.124 Y168.32 E15.43392
G1 X119.278 Y168.371 E15.50157
G1 X118.694 Y168.389 E15.54821
G1 X118.569 Y168.391 E15.55819
G1 X117.828 Y168.39 E15.61734
G1 X117.168 Y168.372 E15.67004
G1 X116.269 Y168.317 E15.74194
G1 X115.717 Y168.267 E15.78618
G1 X114.797 Y168.155 E15.86016
G1 X114.24 Y168.071 E15.90513
G1 X113.353 Y167.909 E15.9771
G1 X112.873 Y167.807 E16.01628
G1 X111.951 Y167.583 E16.09201
G1 X111.387 Y167.427 E16.13873
G1 X110.532 Y167.164 E16.21013
G1 X109.998 Y166.98 E16.25522
G1 X109.161 Y166.667 E16.32655
G1 X108.713 Y166.484 E16.36518
G1 X107.852 Y166.104 E16.4403
G1 X107.32 Y165.849 E16.4874
G1 X106.508 Y165.428 E16.56041
G1 X106.023 Y165.158 E16.60472
G1 X105.252 Y164.7 E16.6763
G1 X104.78 Y164.4 E16.72095
G1 X104.035 Y163.894 E16.79283
G1 X103.539 Y163.534 E16.84176
G1 X102.938 Y163.072 E16.90227
G1 X102.485 Y162.705 E16.94881
G1 X101.742 Y162.062 E17.02724
G1 X101.367 Y161.715 E17.06802
G1 X101.309 Y161.661 E17.07435
G1 X100.874 Y161.236 E17.1229
G1 X100.657 Y161.019 E17.14739
G1 X100.272 Y160.618 E17.19177
G1 X99.719 Y160.01 E17.25737
G1 X99.346 Y159.574 E17.30317
G1 X98.773 Y158.861 E17.37619
G1 X98.428 Y158.405 E17.42183
G1 X97.896 Y157.656 E17.49517
G1 X97.58 Y157.181 E17.54071
G1 X97.15 Y156.491 E17.60561
G1 X96.845 Y155.971 E17.65373
G1 X96.413 Y155.179 E17.72574
G1 X96.193 Y154.75 E17.76423
G1 X95.796 Y153.91 E17.83839
G1 X95.539 Y153.322 E17.88962
G1 X95.236 Y152.562 E17.95493
G1 X95.015 Y151.96 E18.00612
G1 X94.767 Y151.212 E18.06902
G1 X94.6 Y150.663 E18.11483
G1 X94.434 Y150.085 E18.16283
G1 X79.161 Y93.083 E22.87348
G1 X78.927 Y92.071 E22.95639
G1 X78.894 Y91.898 E22.97045
G1 X78.761 Y91.027 E23.04078
G1 X78.742 Y90.861 E23.05412
G1 X78.668 Y89.922 E23.12931
G1 X78.663 Y89.81 E23.13826
G1 X78.65 Y89.253 E23.18273
G1 X78.65 Y82.215 E23.74453
G1 X78.686 Y81.229 E23.82329
G1 X78.7 Y81.042 E23.83826
G1 X78.872 Y79.66 E23.94943
G1 X78.912 Y79.428 E23.96822
G1 X79.12 Y78.436 E24.04913
G1 X79.174 Y78.222 E24.06675
G1 X79.412 Y77.4 E24.13506
G1 X79.47 Y77.221 E24.15008
G1 X79.77 Y76.408 E24.21925
G1 X79.855 Y76.202 E24.23704
G1 X80.207 Y75.429 E24.30484
G1 X80.289 Y75.263 E24.31962
G1 X80.645 Y74.598 E24.37983
G1 X80.805 Y74.318 E24.40558
G1 X81.344 Y73.452 E24.487
G1 X81.413 Y73.35 E24.49683
G1 X81.954 Y72.608 E24.57013
G1 X82.069 Y72.462 E24.58497
G1 X82.65 Y71.776 E24.65673
G0 F9000 X83.2 Y71.208
G1 F1125 X83.2 Y108.157 E27.60616
G1 F2700 E22.60616
G0 F9000 X82.173 Y108.433
G0 X80.573 Y102.461
G0 X81.6 Y102.185
G1 F2700 E27.60616
G1 F1125 X81.6 Y73.093 E29.9284
G0 F9000 X80 Y75.883
G1 F1125 X80 Y96.214 E31.55131
G1 F2700 E26.55131
G0 F9000 X78.973 Y96.49
G0 X83.773 Y114.404
G0 X84.8 Y114.128
G1 F2700 E31.55131
G1 F1125 X84.8 Y69.813 E35.08873
G0 F9000 X86.4 Y68.733
G1 F1125 X86.4 Y120.1 E39.18906
G1 F2700 E34.18906
G0 F9000 X85.373 Y120.376
G0 X86.973 Y126.347
G0 X88 Y126.071
G1 F2700 E39.18906
G1 F1125 X88 Y67.92 E43.83093
G0 F9000 X89.6 Y67.331
G1 F1125 X89.6 Y132.043 E48.99652
G1 F2700 E43.99652
G0 F9000 X88.573 Y132.319
G0 X90.173 Y138.291
G0 X91.2 Y138.015
G1 F2700 E48.99652
G1 F1125 X91.2 Y66.909 E54.67251
G0 F9000 X92.8 Y66.674
G1 F1125 X92.8 Y143.986 E60.84389
G1 F2700 E55.84389
G0 F9000 X91.773 Y144.262
G0 X93.348 Y150.082
G0 X94.4 Y149.958
G1 F2700 E60.84389
G1 F1125 X94.4 Y66.604 E67.49756
G0 F9000 X96 Y66.604
G1 F1125 X96 Y154.341 E74.50111
G0 F9000 X97.6 Y157.211
G1 F1125 X97.6 Y66.617 E81.73272
G0 F9000 X99.2 Y66.729
G1 F1125 X99.2 Y159.392 E89.12948
G0 F9000 X100.8 Y161.162
G1 F1125 X100.8 Y66.996 E96.64621
G0 F9000 X102.4 Y67.429
G1 F1125 X102.4 Y162.631 E104.24565
G0 F9000 X104 Y163.868
G1 F1125 X104 Y68.045 E111.89466
G0 F9000 X105.6 Y68.861
G1 F1125 X105.6 Y164.906 E119.56138
G0 F9000 X107.2 Y165.786
G1 F1125 X107.2 Y69.927 E127.21326
G0 F9000 X108.8 Y71.294
G1 F1125 X108.8 Y166.519 E134.81453
G0 F9000 X110.4 Y167.118
G1 F1125 X110.4 Y73.032 E142.32488
G0 F9000 X112 Y74.154
G1 F1125 X112 Y167.594 E149.78367
G0 F9000 X113.6 Y167.954
G1 F1125 X113.6 Y74.612 E157.23463
G0 F9000 X115.2 Y74.653
G1 F1125 X115.2 Y168.204 E164.70228
G0 F9000 X116.8 Y168.349
G1 F1125 X116.8 Y74.653 E172.1815
G0 F9000 X118.4 Y74.653
G1 F1125 X118.4 Y168.39 E179.66399
G0 F9000 X120 Y168.328
G1 F1125 X120 Y74.653 E187.14153
G0 F9000 X121.6 Y74.653
G1 F1125 X121.6 Y168.162 E194.60583
G0 F9000 X123.2 Y167.884
G1 F1125 X123.2 Y74.653 E202.04793
G0 F9000 X124.8 Y74.398
G1 F1125 X124.8 Y167.496 E209.47941
G0 F9000 X126.4 Y167.019
G1 F1125 X126.4 Y73.597 E216.93676
G0 F9000 X128 Y72.372
G1 F1125 X128 Y166.53 E224.45286
G0 F9000 X129.6 Y166.041
G1 F1125 X129.6 Y71.415 E232.00632
G0 F9000 X131.2 Y70.709
G1 F1125 X131.2 Y165.552 E239.57709
G0 F9000 X132.8 Y165.063
G1 F1125 X132.8 Y70.192 E247.15011
G0 F9000 X134.4 Y69.858
G1 F1125 X134.4 Y164.574 E254.71075
G0 F9000 X136 Y164.085
G1 F1125 X136 Y69.707 E262.24441
G0 F9000 X137.6 Y69.674
G1 F1125 X137.6 Y163.595 E269.74159
G0 F9000 X139.2 Y163.106
G1 F1125 X139.2 Y69.674 E277.19973
G0 F9000 X140.8 Y69.676
G1 F1125 X140.8 Y162.561 E284.61422
G0 F9000 X142.4 Y161.817
G1 F1125 X142.4 Y69.784 E291.96069
G0 F9000 X144 Y70.035
G1 F1125 X144 Y160.817 E299.2073
G0 F9000 X145.6 Y159.477
G1 F1125 X145.6 Y132.237 E301.38172
G1 F2700 E296.38172
G0 F9000 X146.617 Y131.923
G0 X147.698 Y135.577
G0 X148.131 Y137.41
G0 X147.2 Y137.981
G1 F2700 E301.38172
G1 F1125 X147.2 Y157.64 E302.95098
G0 F9000 X148.8 Y154.877
G1 F1125 X148.8 Y142.719 E303.92149
G1 F2700 E298.92149
G0 F9000 X149.818 Y142.408
G0 X146.6 Y121.727
G0 X145.6 Y121.364
G1 F2700 E303.92149
G1 F1125 X145.6 Y70.451 E307.98558
G0 F9000 X147.2 Y71.083
G1 F1125 X147.2 Y116.967 E311.64824
G1 F2700 E306.64824
G0 F9000 X148.201 Y117.33
G0 X149.801 Y112.933
G0 X148.8 Y112.57
G1 F2700 E311.64824
G1 F1125 X148.8 Y71.931 E314.89222
G0 F9000 X150.4 Y73.021
G1 F1125 X150.4 Y108.173 E317.69821
G1 F2700 E312.69821
G0 F9000 X151.401 Y108.536
G0 X153.001 Y104.139
G0 X152 Y103.776
G1 F2700 E317.69821
G1 F1125 X152 Y74.478 E320.0369
G0 F9000 X153.6 Y76.448
G1 F1125 X153.6 Y99.379 E321.86735
G1 F2700 E316.86735
G0 F9000 X154.601 Y99.742
G0 X156.201 Y95.346
G0 X155.2 Y94.983
G1 F2700 E321.86735
G1 F1125 X155.2 Y79.439 E323.10814
G0 F300 X155.2 Y79.439 Z0.54
G0 F9000 X154.593 Y78.094
;TIME_ELAPSED:232.973372
;LAYER:-5
;TYPE:SUPPORT
G1 F1125 X154.514 Y77.942 E323.12523
G1 X154.07 Y77.162 E323.21479
G1 X153.972 Y77.003 E323.23342
G1 X153.481 Y76.272 E323.32129
G1 X153.384 Y76.139 E323.33772
G1 X152.781 Y75.365 E323.43562
G1 X152.557 Y75.099 E323.47032
G1 X152.039 Y74.519 E323.54791
G1 X151.944 Y74.42 E323.5616
G1 X151.272 Y73.761 E323.65551
G1 X151.165 Y73.663 E323.66999
G1 X150.49 Y73.092 E323.75821
G1 X150.333 Y72.969 E323.77811
G1 X149.602 Y72.436 E323.86838
G1 X149.5 Y72.367 E323.88067
G1 X148.633 Y71.827 E323.98258
G1 X148.353 Y71.668 E324.01471
G1 X147.689 Y71.311 E324.08994
G1 X147.67 Y71.302 E324.09203
G1 X154.713 Y78.346 E325.08595
G1 X154.987 Y78.919 E325.14932
G1 X155.035 Y79.031 E325.16148
G1 X155.309 Y79.712 E325.23472
G1 X155.398 Y79.952 E325.26027
G1 X155.438 Y80.067 E325.27241
G1 X155.642 Y80.689 E325.33773
G1 X145.321 Y70.368 E326.79414
G1 X144.731 Y70.196 E326.85546
G1 X144.507 Y70.14 E326.8785
G1 X143.534 Y69.937 E326.97767
G1 X143.464 Y69.925 E326.98476
G1 X156.102 Y82.563 E328.76812
G1 X156.185 Y83.046 E328.81702
G1 X156.207 Y83.205 E328.83303
G1 X156.294 Y84.063 E328.91908
G1 X156.303 Y84.178 E328.93059
G1 X141.842 Y69.717 E330.9712
G1 X141.735 Y69.709 E330.9819
G1 X140.753 Y69.674 E331.07995
G1 X140.384 Y69.674 E331.11677
G1 X156.349 Y85.638 E333.36953
G1 X156.349 Y87.052 E333.51062
G1 X138.97 Y69.674 E335.96292
G1 X137.555 Y69.673 E336.10411
G1 X156.349 Y88.466 E338.75607
G1 X156.349 Y89.238 E338.8331
G1 X156.327 Y89.859 E338.8951
G1 X136.167 Y69.699 E341.7399
G1 X135.485 Y69.729 E341.80801
G1 X135.264 Y69.746 E341.83013
G1 X134.848 Y69.794 E341.87191
G1 X156.216 Y91.163 E344.88724
G1 X156.201 Y91.297 E344.90069
G1 X156.176 Y91.472 E344.91833
G1 X156.013 Y92.35 E345.00744
G1 X156.009 Y92.37 E345.00947
G1 X133.631 Y69.992 E348.16725
G1 X133.472 Y70.024 E348.18343
G1 X132.604 Y70.24 E348.27268
G1 X132.497 Y70.272 E348.28383
G1 X155.717 Y93.492 E351.56042
G1 X155.704 Y93.531 E351.56452
G1 X155.48 Y94.209 E351.63577
G1 X155.358 Y94.547 E351.67163
G1 X131.434 Y70.623 E355.04756
G1 X131.217 Y70.702 E355.0706
G1 X130.518 Y70.981 E355.1457
G1 X130.42 Y71.023 E355.15634
G1 X154.98 Y95.583 E358.62202
G1 X154.603 Y96.621 E358.73221
G1 X129.466 Y71.483 E362.27938
G1 X129.418 Y71.508 E362.28479
G1 X128.648 Y71.945 E362.37313
G1 X128.566 Y71.997 E362.38282
G1 X154.226 Y97.657 E366.00372
G1 X153.849 Y98.695 E366.11391
G1 X127.718 Y72.564 E369.80128
G1 X127.615 Y72.636 E369.81382
G1 X126.92 Y73.18 E369.90188
G1 X153.471 Y99.731 E373.64851
