;FLAVOR:Marlin
;TIME:3950
;Filament used: 2.07589m
;Layer height: 0.2
;MINX:93.2
;MINY:85.441
;MINZ:0.2
;MAXX:141.8
;MAXY:138.424
;MAXZ:27
;Generated with Cura_SteamEngine 4.8.0
M140 S60
M105
M190 S60
M104 S200
M105
M109 S200
M82 ;absolute extrusion mode
; Ender 3 Custom Start G-code
G92 E0 ; Reset Extruder
G28 ; Home all axes
G1 Z2.0 F3000 ; Move Z Axis up little to prevent scratching of Heat Bed
G1 X0.1 Y20 Z0.3 F5000.0 ; Move to start position
G1 X0.1 Y200.0 Z0.3 F1500.0 E15 ; Draw the first line
G1 X0.4 Y200.0 Z0.3 F5000.0 ; Move to side a little
G1 X0.4 Y20 Z0.3 F1500.0 E30 ; Draw the second line
G92 E0 ; Reset Extruder
G1 Z2.0 F3000 ; Move Z Axis up little to prevent scratching of Heat Bed
G1 X5 Y20 Z0.3 F5000.0 ; Move over to prevent blob squish
G92 E0
G92 E0
G1 F2700 E-5
;LAYER_COUNT:135
;LAYER:0
M107
G0 F6000 X95.623 Y91.349 Z0.2
;TYPE:SKIRT
G1 F2700 E0
G1 F1200 X96.222 Y90.834 E0.02627
G1 X96.87 Y90.383 E0.05253
G1 X97.561 Y89.999 E0.07883
G1 X98.286 Y89.687 E0.10508
G1 X99.039 Y89.45 E0.13133
G1 X99.813 Y89.291 E0.15761
G1 X100.598 Y89.21 E0.18386
G1 X101 Y89.2 E0.19724
G1 X108.34 Y89.2 E0.44137
G1 X108.597 Y88.787 E0.45755
G1 X109.08 Y88.163 E0.48379
G1 X109.623 Y87.59 E0.51005
G1 X110.222 Y87.075 E0.53632
G1 X110.87 Y86.624 E0.56258
G1 X111.561 Y86.24 E0.58887
G1 X112.286 Y85.928 E0.61512
G1 X113.039 Y85.691 E0.64138
G1 X113.813 Y85.532 E0.66766
G1 X114.598 Y85.451 E0.69391
G1 X115 Y85.441 E0.70728
G1 X120 Y85.441 E0.87358
G1 X120.789 Y85.481 E0.89986
G1 X121.569 Y85.6 E0.9261
G1 X122.334 Y85.798 E0.95239
G1 X123.074 Y86.072 E0.97863
G1 X123.783 Y86.42 E1.0049
G1 X124.454 Y86.838 E1.03119
G1 X125.078 Y87.321 E1.05744
G1 X125.651 Y87.864 E1.0837
G1 X126.166 Y88.463 E1.10997
G1 X126.617 Y89.111 E1.13623
G1 X126.666 Y89.2 E1.13961
G1 X134 Y89.2 E1.38354
G1 X134.789 Y89.24 E1.40981
G1 X135.569 Y89.359 E1.43606
G1 X136.334 Y89.557 E1.46234
G1 X137.074 Y89.831 E1.48858
G1 X137.783 Y90.179 E1.51485
G1 X138.454 Y90.597 E1.54115
G1 X139.078 Y91.08 E1.56739
G1 X139.651 Y91.623 E1.59365
G1 X140.166 Y92.222 E1.61992
G1 X140.617 Y92.87 E1.64618
G1 X141.001 Y93.561 E1.67247
G1 X141.313 Y94.286 E1.69873
G1 X141.55 Y95.039 E1.72498
G1 X141.709 Y95.813 E1.75126
G1 X141.79 Y96.598 E1.77751
G1 X141.8 Y97 E1.79089
G1 X141.8 Y102 E1.95719
G1 X141.76 Y102.789 E1.98346
G1 X141.703 Y103.166 E1.99614
G1 X141.71 Y103.202 E1.99736
G1 X141.8 Y104.381 E2.03669
G1 X141.8 Y130.618 E2.90934
G1 X141.76 Y131.407 E2.93561
G1 X141.641 Y132.187 E2.96186
G1 X141.443 Y132.952 E2.98814
G1 X141.169 Y133.692 E3.01438
G1 X140.821 Y134.401 E3.04065
G1 X140.403 Y135.072 E3.06695
G1 X139.92 Y135.696 E3.09319
G1 X139.377 Y136.269 E3.11945
G1 X138.778 Y136.784 E3.14572
G1 X138.13 Y137.235 E3.17198
G1 X137.439 Y137.619 E3.19827
G1 X136.714 Y137.931 E3.22453
G1 X135.961 Y138.168 E3.25078
G1 X135.187 Y138.327 E3.27706
G1 X134.013 Y138.418 E3.31623
G1 X130.361 Y138.424 E3.43769
G1 X129.845 Y138.422 E3.45486
G1 X104.601 Y138.423 E4.29447
G1 X100.991 Y138.419 E4.41454
G1 X100.203 Y138.378 E4.44079
G1 X99.422 Y138.258 E4.46707
G1 X98.658 Y138.059 E4.49333
G1 X97.918 Y137.784 E4.51958
G1 X97.209 Y137.436 E4.54585
G1 X96.539 Y137.018 E4.57212
G1 X95.915 Y136.534 E4.59838
G1 X95.343 Y135.989 E4.62466
G1 X94.829 Y135.39 E4.65091
G1 X94.378 Y134.741 E4.6772
G1 X93.995 Y134.051 E4.70345
G1 X93.684 Y133.325 E4.72972
G1 X93.448 Y132.571 E4.756
G1 X93.29 Y131.798 E4.78224
G1 X93.2 Y130.619 E4.82157
G1 X93.2 Y104.382 E5.69421
G1 X93.24 Y103.593 E5.72049
G1 X93.297 Y103.218 E5.7331
G1 X93.291 Y103.187 E5.73415
G1 X93.21 Y102.402 E5.7604
G1 X93.2 Y102 E5.77378
G1 X93.2 Y97 E5.94008
G1 X93.24 Y96.211 E5.96635
G1 X93.359 Y95.431 E5.9926
G1 X93.557 Y94.666 E6.01888
G1 X93.831 Y93.926 E6.04512
G1 X94.179 Y93.217 E6.07139
G1 X94.597 Y92.546 E6.09769
G1 X95.08 Y91.922 E6.12393
G1 X95.623 Y91.349 E6.15019
G0 F6000 X96.016 Y91.53
G1 F1200 X96.611 Y91.042 E6.17578
G1 X97.253 Y90.619 E6.20135
G1 X97.936 Y90.264 E6.22696
G1 X98.651 Y89.983 E6.25251
G1 X99.393 Y89.777 E6.27812
G1 X100.151 Y89.649 E6.30369
G1 X101 Y89.6 E6.33197
G1 X108.56 Y89.6 E6.58342
G1 X108.578 Y89.565 E6.58473
G1 X108.994 Y88.918 E6.61031
G1 X109.475 Y88.318 E6.63589
G1 X110.016 Y87.771 E6.66148
G1 X110.611 Y87.283 E6.68707
G1 X111.253 Y86.86 E6.71264
G1 X111.936 Y86.505 E6.73824
G1 X112.651 Y86.224 E6.7638
G1 X113.393 Y86.018 E6.78941
G1 X114.151 Y85.89 E6.81498
G1 X115 Y85.841 E6.84326
G1 X120 Y85.841 E7.00956
G1 X120.768 Y85.881 E7.03514
G1 X121.528 Y86 E7.06073
G1 X122.271 Y86.198 E7.0863
G1 X122.99 Y86.472 E7.11189
G1 X123.676 Y86.819 E7.13746
G1 X124.323 Y87.235 E7.16305
G1 X124.923 Y87.716 E7.18862
G1 X125.47 Y88.257 E7.21421
G1 X125.958 Y88.852 E7.23981
G1 X126.381 Y89.494 E7.26538
G1 X126.436 Y89.6 E7.26935
G1 X134 Y89.6 E7.52093
G1 X134.768 Y89.64 E7.54651
G1 X135.528 Y89.759 E7.57209
G1 X136.271 Y89.957 E7.59767
G1 X136.99 Y90.231 E7.62326
G1 X137.676 Y90.578 E7.64883
G1 X138.323 Y90.994 E7.67441
G1 X138.923 Y91.475 E7.69999
G1 X139.47 Y92.016 E7.72558
G1 X139.958 Y92.611 E7.75117
G1 X140.381 Y93.253 E7.77674
G1 X140.736 Y93.936 E7.80235
G1 X141.017 Y94.651 E7.8279
G1 X141.223 Y95.393 E7.85351
G1 X141.351 Y96.151 E7.87908
G1 X141.4 Y97 E7.90736
G1 X141.4 Y102 E8.07366
G1 X141.36 Y102.768 E8.09924
G1 X141.294 Y103.192 E8.11351
G1 X141.352 Y103.54 E8.12525
G1 X141.4 Y104.381 E8.15327
G1 X141.4 Y130.618 E9.02591
G1 X141.36 Y131.386 E9.05149
G1 X141.241 Y132.146 E9.07708
G1 X141.043 Y132.889 E9.10265
G1 X140.769 Y133.608 E9.12824
G1 X140.422 Y134.294 E9.15381
G1 X140.006 Y134.941 E9.17939
G1 X139.525 Y135.541 E9.20497
G1 X138.984 Y136.088 E9.23056
G1 X138.389 Y136.576 E9.25615
G1 X137.747 Y136.999 E9.28173
G1 X137.064 Y137.354 E9.30733
G1 X136.349 Y137.635 E9.33288
G1 X135.607 Y137.841 E9.35849
G1 X134.849 Y137.969 E9.38406
G1 X134.012 Y138.018 E9.41195
G1 X130.362 Y138.024 E9.53335
G1 X129.846 Y138.022 E9.55051
G1 X104.602 Y138.023 E10.39013
G1 X100.992 Y138.019 E10.5102
G1 X100.224 Y137.978 E10.53578
G1 X99.464 Y137.858 E10.56137
G1 X98.721 Y137.659 E10.58695
G1 X98.002 Y137.385 E10.61254
G1 X97.316 Y137.037 E10.63813
G1 X96.67 Y136.62 E10.6637
G1 X96.071 Y136.138 E10.68927
G1 X95.524 Y135.597 E10.71486
G1 X95.037 Y135.001 E10.74046
G1 X94.615 Y134.359 E10.76601
G1 X94.261 Y133.676 E10.7916
G1 X93.98 Y132.96 E10.81718
G1 X93.775 Y132.218 E10.84279
G1 X93.648 Y131.46 E10.86835
G1 X93.6 Y130.619 E10.89637
G1 X93.6 Y104.382 E11.76901
G1 X93.64 Y103.614 E11.79459
G1 X93.706 Y103.189 E11.8089
G1 X93.649 Y102.849 E11.82036
G1 X93.6 Y102 E11.84865
G1 X93.6 Y97 E12.01495
G1 X93.64 Y96.232 E12.04053
G1 X93.759 Y95.472 E12.06611
G1 X93.957 Y94.729 E12.09169
G1 X94.231 Y94.01 E12.11728
G1 X94.578 Y93.324 E12.14285
G1 X94.994 Y92.677 E12.16843
G1 X95.475 Y92.077 E12.19401
G1 X96.016 Y91.53 E12.2196
G0 F6000 X96.408 Y91.716
G1 F1200 X96.998 Y91.257 E12.24446
G1 X97.634 Y90.862 E12.26936
G1 X98.308 Y90.538 E12.29423
G1 X99.013 Y90.288 E12.31911
G1 X99.741 Y90.114 E12.34401
G1 X100.483 Y90.019 E12.36889
G1 X101 Y90 E12.38609
G1 X108.807 Y90 E12.64576
G1 X108.977 Y89.675 E12.65796
G1 X109.392 Y89.052 E12.68285
G1 X109.871 Y88.478 E12.70772
G1 X110.408 Y87.957 E12.7326
G1 X110.998 Y87.498 E12.75747
G1 X111.634 Y87.103 E12.78237
G1 X112.308 Y86.779 E12.80724
G1 X113.013 Y86.529 E12.83212
G1 X113.741 Y86.355 E12.85702
G1 X114.483 Y86.26 E12.8819
G1 X115 Y86.241 E12.8991
G1 X120 Y86.241 E13.0654
G1 X120.747 Y86.281 E13.09028
G1 X121.485 Y86.4 E13.11515
G1 X122.207 Y86.598 E13.14005
G1 X122.903 Y86.871 E13.16491
G1 X123.566 Y87.218 E13.1898
G1 X124.189 Y87.633 E13.2147
G1 X124.763 Y88.112 E13.23957
G1 X125.284 Y88.649 E13.26445
G1 X125.743 Y89.239 E13.28931
G1 X126.138 Y89.875 E13.31422
G1 X126.198 Y90 E13.31883
G1 X134 Y90 E13.57832
G1 X134.747 Y90.04 E13.6032
G1 X135.485 Y90.159 E13.62807
G1 X136.207 Y90.357 E13.65297
G1 X136.903 Y90.63 E13.67783
G1 X137.566 Y90.977 E13.70272
G1 X138.189 Y91.392 E13.72762
G1 X138.763 Y91.871 E13.75249
G1 X139.284 Y92.408 E13.77737
G1 X139.743 Y92.998 E13.80223
G1 X140.138 Y93.634 E13.82713
G1 X140.462 Y94.308 E13.85201
G1 X140.712 Y95.013 E13.87689
G1 X140.886 Y95.741 E13.90178
G1 X140.981 Y96.483 E13.92666
G1 X141 Y97 E13.94387
G1 X141 Y102 E14.11017
G1 X140.96 Y102.747 E14.13505
G1 X140.892 Y103.169 E14.14927
G1 X140.981 Y103.872 E14.17284
G1 X141 Y104.381 E14.18978
G1 X141 Y130.618 E15.06242
G1 X140.96 Y131.365 E15.0873
G1 X140.841 Y132.103 E15.11217
G1 X140.643 Y132.825 E15.13707
G1 X140.37 Y133.521 E15.16193
G1 X140.023 Y134.184 E15.18682
G1 X139.608 Y134.807 E15.21172
G1 X139.129 Y135.381 E15.23659
G1 X138.592 Y135.902 E15.26147
G1 X138.002 Y136.361 E15.28633
G1 X137.366 Y136.756 E15.31124
G1 X136.692 Y137.08 E15.33611
G1 X135.987 Y137.33 E15.36099
G1 X135.259 Y137.504 E15.38588
G1 X134.517 Y137.599 E15.41076
G1 X134.012 Y137.618 E15.42757
G1 X130.364 Y137.624 E15.5489
G1 X129.848 Y137.622 E15.56607
G1 X104.602 Y137.623 E16.40575
G1 X100.992 Y137.619 E16.52582
G1 X100.245 Y137.578 E16.5507
G1 X99.507 Y137.458 E16.57557
G1 X98.786 Y137.26 E16.60044
G1 X98.09 Y136.985 E16.62533
G1 X97.427 Y136.638 E16.65022
G1 X96.805 Y136.223 E16.67509
G1 X96.231 Y135.743 E16.69998
G1 X95.711 Y135.205 E16.72486
G1 X95.252 Y134.614 E16.74975
G1 X94.859 Y133.978 E16.77462
G1 X94.535 Y133.304 E16.79949
G1 X94.286 Y132.598 E16.82439
G1 X94.113 Y131.871 E16.84925
G1 X94.019 Y131.128 E16.87415
G1 X94 Y130.619 E16.8911
G1 X94 Y104.382 E17.76374
G1 X94.04 Y103.635 E17.78862
G1 X94.108 Y103.213 E17.80284
G1 X94.019 Y102.517 E17.82618
G1 X94 Y102 E17.84338
G1 X94 Y97 E18.00969
G1 X94.04 Y96.253 E18.03457
G1 X94.159 Y95.515 E18.05943
G1 X94.357 Y94.793 E18.08433
G1 X94.63 Y94.097 E18.1092
G1 X94.977 Y93.434 E18.13409
G1 X95.392 Y92.811 E18.15898
G1 X95.871 Y92.237 E18.18385
G1 X96.408 Y91.716 E18.20873
G0 F6000 X96.265 Y92.402
G1 F1200 X96.799 Y91.909 E18.23291
G1 X97.384 Y91.479 E18.25705
G1 X98.013 Y91.115 E18.28123
G1 X98.678 Y90.822 E18.30539
G1 X99.371 Y90.604 E18.32956
G1 X100.083 Y90.464 E18.35369
G1 X101 Y90.4 E18.38427
G1 X109.045 Y90.4 E18.65184
G1 X109.375 Y89.788 E18.67497
G1 X109.789 Y89.191 E18.69913
G1 X110.265 Y88.643 E18.72328
G1 X110.799 Y88.15 E18.74745
G1 X111.384 Y87.72 E18.7716
G1 X112.013 Y87.356 E18.79577
G1 X112.678 Y87.063 E18.81994
G1 X113.371 Y86.845 E18.8441
G1 X114.083 Y86.705 E18.86823
G1 X115 Y86.641 E18.89881
G1 X120 Y86.641 E19.06511
G1 X120.725 Y86.681 E19.08926
G1 X121.442 Y86.8 E19.11343
G1 X122.141 Y86.998 E19.1376
G1 X122.814 Y87.271 E19.16175
G1 X123.453 Y87.616 E19.18591
G1 X124.05 Y88.03 E19.21007
G1 X124.598 Y88.506 E19.23421
G1 X125.091 Y89.04 E19.25838
G1 X125.521 Y89.625 E19.28253
G1 X125.885 Y90.254 E19.3067
G1 X125.949 Y90.4 E19.31201
G1 X134 Y90.4 E19.57978
G1 X134.725 Y90.44 E19.60393
G1 X135.442 Y90.559 E19.62811
G1 X136.141 Y90.757 E19.65227
G1 X136.814 Y91.03 E19.67643
G1 X137.453 Y91.375 E19.70058
G1 X138.05 Y91.789 E19.72474
G1 X138.598 Y92.265 E19.74888
G1 X139.091 Y92.799 E19.77306
G1 X139.521 Y93.384 E19.79721
G1 X139.885 Y94.013 E19.82138
G1 X140.178 Y94.678 E19.84555
G1 X140.396 Y95.371 E19.86971
G1 X140.536 Y96.083 E19.89384
G1 X140.6 Y97 E19.92442
G1 X140.6 Y102 E20.09072
G1 X140.56 Y102.725 E20.11487
G1 X140.482 Y103.193 E20.13065
G1 X140.537 Y103.471 E20.14007
G1 X140.6 Y104.381 E20.17041
G1 X140.6 Y130.618 E21.04306
G1 X140.56 Y131.343 E21.06721
G1 X140.441 Y132.06 E21.09138
G1 X140.243 Y132.759 E21.11555
G1 X139.97 Y133.432 E21.1397
G1 X139.625 Y134.071 E21.16386
G1 X139.211 Y134.668 E21.18802
G1 X138.735 Y135.216 E21.21216
G1 X138.201 Y135.709 E21.23633
G1 X137.616 Y136.139 E21.26048
G1 X136.987 Y136.503 E21.28465
G1 X136.322 Y136.796 E21.30882
G1 X135.629 Y137.014 E21.33299
G1 X134.917 Y137.154 E21.35712
G1 X134.011 Y137.218 E21.38733
G1 X130.365 Y137.224 E21.5086
G1 X129.849 Y137.222 E21.52576
G1 X104.603 Y137.223 E22.36544
G1 X100.993 Y137.219 E22.48551
G1 X100.267 Y137.178 E22.5097
G1 X99.551 Y137.058 E22.53384
G1 X98.852 Y136.86 E22.55801
G1 X98.18 Y136.586 E22.58215
G1 X97.541 Y136.24 E22.60631
G1 X96.944 Y135.826 E22.63048
G1 X96.397 Y135.349 E22.65462
G1 X95.905 Y134.814 E22.67879
G1 X95.475 Y134.229 E22.70294
G1 X95.111 Y133.6 E22.72711
G1 X94.82 Y132.935 E22.75125
G1 X94.603 Y132.241 E22.77544
G1 X94.463 Y131.529 E22.79957
G1 X94.4 Y130.619 E22.82991
G1 X94.4 Y104.382 E23.70256
G1 X94.44 Y103.657 E23.72671
G1 X94.518 Y103.19 E23.74246
G1 X94.464 Y102.917 E23.75171
G1 X94.4 Y102 E23.78229
G1 X94.4 Y97 E23.94859
G1 X94.44 Y96.275 E23.97274
G1 X94.559 Y95.558 E23.99691
G1 X94.757 Y94.859 E24.02107
G1 X95.03 Y94.186 E24.04523
G1 X95.375 Y93.547 E24.06938
G1 X95.789 Y92.95 E24.09355
G1 X96.265 Y92.402 E24.11769
G0 F6000 X96.659 Y92.573
G1 F1200 X97.189 Y92.109 E24.14112
G1 X97.768 Y91.709 E24.16452
G1 X98.389 Y91.377 E24.18795
G1 X99.043 Y91.117 E24.21135
G1 X99.723 Y90.933 E24.23478
G1 X100.419 Y90.827 E24.2582
G1 X101 Y90.8 E24.27754
G1 X109.312 Y90.8 E24.554
G1 X109.429 Y90.52 E24.5641
G1 X109.774 Y89.906 E24.58752
G1 X110.185 Y89.335 E24.61092
G1 X110.659 Y88.814 E24.63435
G1 X111.189 Y88.35 E24.65778
G1 X111.768 Y87.95 E24.68118
G1 X112.389 Y87.618 E24.7046
G1 X113.043 Y87.358 E24.72801
G1 X113.723 Y87.174 E24.75144
G1 X114.419 Y87.068 E24.77486
G1 X115 Y87.041 E24.7942
G1 X120 Y87.041 E24.9605
G1 X120.703 Y87.081 E24.98392
G1 X121.397 Y87.2 E25.00734
G1 X122.072 Y87.398 E25.03074
G1 X122.721 Y87.67 E25.05414
G1 X123.335 Y88.015 E25.07757
G1 X123.906 Y88.426 E25.10097
G1 X124.427 Y88.9 E25.1244
G1 X124.891 Y89.43 E25.14782
G1 X125.291 Y90.009 E25.17123
G1 X125.623 Y90.63 E25.19465
G1 X125.691 Y90.8 E25.20074
G1 X134 Y90.8 E25.4771
G1 X134.703 Y90.84 E25.50052
G1 X135.397 Y90.959 E25.52394
G1 X136.072 Y91.157 E25.54734
G1 X136.721 Y91.429 E25.57074
G1 X137.335 Y91.774 E25.59416
G1 X137.906 Y92.185 E25.61756
G1 X138.427 Y92.659 E25.64099
G1 X138.891 Y93.189 E25.66442
G1 X139.291 Y93.768 E25.68783
G1 X139.623 Y94.389 E25.71125
G1 X139.883 Y95.043 E25.73466
G1 X140.067 Y95.723 E25.75809
G1 X140.173 Y96.419 E25.7815
G1 X140.2 Y97 E25.80085
G1 X140.2 Y102 E25.96715
G1 X140.16 Y102.703 E25.99057
G1 X140.078 Y103.179 E26.00663
G1 X140.173 Y103.807 E26.02776
G1 X140.2 Y104.381 E26.04687
G1 X140.2 Y130.618 E26.91952
G1 X140.16 Y131.321 E26.94294
G1 X140.041 Y132.015 E26.96635
G1 X139.843 Y132.69 E26.98975
G1 X139.571 Y133.339 E27.01316
G1 X139.226 Y133.953 E27.03658
G1 X138.815 Y134.524 E27.05998
G1 X138.341 Y135.045 E27.08341
G1 X137.811 Y135.509 E27.10684
G1 X137.232 Y135.909 E27.13024
G1 X136.611 Y136.241 E27.15366
G1 X135.957 Y136.501 E27.17707
G1 X135.277 Y136.685 E27.2005
G1 X134.581 Y136.791 E27.22392
G1 X134.01 Y136.818 E27.24293
G1 X130.367 Y136.824 E27.3641
G1 X129.851 Y136.822 E27.38126
G1 X104.603 Y136.823 E28.22101
G1 X100.993 Y136.819 E28.34108
G1 X100.29 Y136.778 E28.3645
G1 X99.597 Y136.658 E28.3879
G1 X98.921 Y136.46 E28.41132
G1 X98.272 Y136.187 E28.43474
G1 X97.659 Y135.842 E28.45814
G1 X97.088 Y135.429 E28.48158
G1 X96.568 Y134.955 E28.50498
G1 X96.105 Y134.424 E28.52841
G1 X95.705 Y133.845 E28.55182
G1 X95.374 Y133.224 E28.57522
G1 X95.115 Y132.569 E28.59865
G1 X94.932 Y131.89 E28.62204
G1 X94.827 Y131.193 E28.64548
G1 X94.8 Y130.619 E28.66459
G1 X94.8 Y104.382 E29.53724
G1 X94.84 Y103.679 E29.56066
G1 X94.922 Y103.203 E29.57673
G1 X94.827 Y102.581 E29.59765
G1 X94.8 Y102 E29.617
G1 X94.8 Y97 E29.7833
G1 X94.84 Y96.297 E29.80672
G1 X94.959 Y95.603 E29.83014
G1 X95.157 Y94.928 E29.85353
G1 X95.429 Y94.279 E29.87694
G1 X95.774 Y93.665 E29.90036
G1 X96.185 Y93.094 E29.92376
G1 X96.659 Y92.573 E29.94719
G0 F6000 X97.053 Y92.751
G1 F1200 X97.578 Y92.317 E29.96985
G1 X98.15 Y91.948 E29.99249
G1 X98.762 Y91.649 E30.01514
G1 X99.404 Y91.424 E30.03777
G1 X100.069 Y91.275 E30.06043
G1 X101 Y91.2 E30.0915
G1 X109.573 Y91.2 E30.37664
G1 X109.828 Y90.615 E30.39786
G1 X110.172 Y90.027 E30.42052
G1 X110.582 Y89.483 E30.44318
G1 X111.053 Y88.992 E30.46581
G1 X111.578 Y88.558 E30.48846
G1 X112.15 Y88.189 E30.5111
G1 X112.762 Y87.89 E30.53376
G1 X113.404 Y87.665 E30.55638
G1 X114.069 Y87.516 E30.57905
G1 X115 Y87.441 E30.61012
G1 X120 Y87.441 E30.77642
G1 X120.68 Y87.481 E30.79907
G1 X121.35 Y87.6 E30.82171
