;FLAVOR:Marlin
;TIME:14170
;Filament used: 8.90709m
;Layer height: 0.2
;MINX:31.5
;MINY:28.969
;MINZ:0.2
;MAXX:203.5
;MAXY:206.018
;MAXZ:32.2
;Generated with Cura_SteamEngine 4.13.1
M140 S60
M105
M190 S60
M104 S200
M105
M109 S200
M82 ;absolute extrusion mode
; Ender 3 Custom Start G-code
G92 E0 ; Reset Extruder
G28 ; Home all axes
G1 Z2.0 F3000 ; Move Z Axis up little to prevent scratching of Heat Bed
G1 X0.1 Y20 Z0.3 F5000.0 ; Move to start position
G1 X0.1 Y200.0 Z0.3 F1500.0 E15 ; Draw the first line
G1 X0.4 Y200.0 Z0.3 F5000.0 ; Move to side a little
G1 X0.4 Y20 Z0.3 F1500.0 E30 ; Draw the second line
G92 E0 ; Reset Extruder
G1 Z2.0 F3000 ; Move Z Axis up little to prevent scratching of Heat Bed
G1 X5 Y20 Z0.3 F5000.0 ; Move over to prevent blob squish
G92 E0
G92 E0
G1 F2700 E-5
;LAYER_COUNT:162
;LAYER:0
M107
G0 F6000 X34.694 Y32.598 Z0.2
;TYPE:SKIRT
G1 F2700 E0
G1 F1200 X35.382 Y31.96 E0.03121
G1 X36.121 Y31.384 E0.06237
G1 X36.907 Y30.872 E0.09357
G1 X37.734 Y30.429 E0.12477
G1 X38.596 Y30.059 E0.15597
G1 X39.486 Y29.763 E0.18717
G1 X40.398 Y29.544 E0.21837
G1 X41.325 Y29.403 E0.24955
G1 X41.878 Y29.357 E0.26801
G1 X42.967 Y29.296 E0.30429
G1 X43.61 Y29.269 E0.32569
G1 X46.326 Y29.075 E0.41626
G1 X46.973 Y29.019 E0.43786
G1 X47.601 Y28.983 E0.45878
G1 X47.91 Y28.974 E0.46906
G1 X48.23 Y28.969 E0.4797
G1 X66.793 Y28.969 E1.09711
G1 X67.671 Y28.981 E1.12632
G1 X68.607 Y29.036 E1.1575
G1 X69.536 Y29.17 E1.18872
G1 X70.864 Y29.507 E1.23429
G1 X73.436 Y30.333 E1.32414
G1 X75.851 Y31.036 E1.4078
G1 X78.282 Y31.668 E1.49134
G1 X80.738 Y32.234 E1.57517
G1 X83.227 Y32.732 E1.65959
G1 X85.679 Y33.153 E1.74234
G1 X88.187 Y33.509 E1.82659
G1 X90.702 Y33.795 E1.91078
G1 X93.191 Y34.007 E1.99386
G1 X95.639 Y34.146 E2.07542
G1 X99.616 Y34.23 E2.20772
G1 X120.409 Y34.23 E2.8993
G1 X123.017 Y34.193 E2.98605
G1 X125.539 Y34.086 E3.07001
G1 X128.034 Y33.909 E3.1532
G1 X130.532 Y33.661 E3.23669
G1 X133.021 Y33.343 E3.32015
G1 X135.53 Y32.949 E3.40462
G1 X137.996 Y32.49 E3.48805
G1 X140.447 Y31.963 E3.57143
G1 X142.907 Y31.36 E3.65568
G1 X145.342 Y30.69 E3.73967
G1 X147.897 Y29.906 E3.82856
G1 X149.122 Y29.511 E3.87137
G1 X150.026 Y29.261 E3.90257
G1 X150.948 Y29.089 E3.93376
G1 X152.167 Y28.984 E3.97446
G1 X152.496 Y28.974 E3.98541
G1 X152.83 Y28.969 E3.99652
G1 X171.549 Y28.97 E4.61911
G1 X172.253 Y28.98 E4.64253
G1 X173.19 Y29.033 E4.67375
G1 X174.118 Y29.166 E4.70493
G1 X175.032 Y29.378 E4.73613
G1 X175.885 Y29.652 E4.76593
G1 X176.231 Y29.779 E4.77819
G1 X178.681 Y30.644 E4.86461
G1 X181.09 Y31.418 E4.94877
G1 X183.488 Y32.115 E5.03182
G1 X185.943 Y32.753 E5.11619
G1 X188.419 Y33.324 E5.2007
G1 X190.841 Y33.808 E5.28285
G1 X193.377 Y34.243 E5.36843
G1 X194.199 Y34.372 E5.39611
G1 X195.119 Y34.557 E5.42732
G1 X196.019 Y34.82 E5.4585
G1 X196.894 Y35.158 E5.4897
G1 X197.736 Y35.57 E5.52088
G1 X198.541 Y36.052 E5.55209
G1 X199.301 Y36.601 E5.58327
G1 X200.013 Y37.212 E5.61448
G1 X200.669 Y37.882 E5.64566
G1 X201.266 Y38.606 E5.67687
G1 X201.799 Y39.377 E5.70805
G1 X202.265 Y40.191 E5.73925
G1 X202.659 Y41.042 E5.77044
G1 X202.979 Y41.924 E5.80164
G1 X203.224 Y42.829 E5.83283
G1 X203.39 Y43.752 E5.86402
G1 X203.487 Y44.931 E5.90336
G1 X203.496 Y45.252 E5.91404
G1 X203.5 Y45.56 E5.92429
G1 X203.499 Y51.433 E6.11963
G1 X203.488 Y52.139 E6.14311
G1 X203.433 Y53.076 E6.17433
G1 X203.299 Y54.004 E6.20552
G1 X203.086 Y54.917 E6.2367
G1 X202.699 Y56.061 E6.27686
G1 X202.201 Y57.3 E6.32128
G1 X202.115 Y57.506 E6.3287
G1 X201.199 Y59.88 E6.41334
G1 X200.369 Y62.227 E6.49614
G1 X199.593 Y64.634 E6.58025
G1 X198.891 Y67.043 E6.66371
G1 X198.313 Y69.245 E6.73943
G1 X191.006 Y98.483 E7.74179
G1 X190.407 Y101.026 E7.82869
G1 X189.906 Y103.47 E7.91167
G1 X189.47 Y105.951 E7.99545
G1 X189.1 Y108.462 E8.07987
G1 X188.806 Y110.946 E8.16306
G1 X188.579 Y113.473 E8.24745
G1 X188.427 Y115.956 E8.33019
G1 X188.344 Y118.478 E8.41412
G1 X188.333 Y121.007 E8.49823
G1 X188.391 Y123.523 E8.58194
G1 X188.523 Y126.044 E8.6659
G1 X188.723 Y128.537 E8.74909
G1 X188.995 Y131.03 E8.8325
G1 X189.339 Y133.529 E8.9164
G1 X189.752 Y136.014 E9.00018
G1 X190.24 Y138.504 E9.08457
G1 X190.781 Y140.905 E9.16643
G1 X191.414 Y143.387 E9.25163
G1 X192.107 Y145.811 E9.33548
G1 X192.865 Y148.209 E9.41913
G1 X193.694 Y150.592 E9.50305
G1 X194.582 Y152.93 E9.58623
G1 X195.547 Y155.269 E9.67039
G1 X196.568 Y157.556 E9.75369
G1 X197.662 Y159.833 E9.83771
G1 X198.812 Y162.064 E9.92119
G1 X200.022 Y164.256 E10.00447
G1 X201.324 Y166.464 E10.08972
G1 X201.745 Y167.143 E10.11629
G1 X201.936 Y167.461 E10.12863
G1 X202.38 Y168.287 E10.15982
G1 X202.753 Y169.148 E10.19103
G1 X203.051 Y170.037 E10.22222
G1 X203.272 Y170.948 E10.25339
G1 X203.415 Y171.875 E10.28459
G1 X203.479 Y172.872 E10.31782
G1 X203.498 Y173.86 E10.35069
G1 X203.5 Y174.071 E10.35771
G1 X203.499 Y194.441 E11.03521
G1 X203.489 Y195.164 E11.05926
G1 X203.436 Y196.101 E11.09048
G1 X203.304 Y197.029 E11.12165
G1 X203.092 Y197.943 E11.15286
G1 X202.804 Y198.835 E11.18404
G1 X202.441 Y199.7 E11.21524
G1 X202.006 Y200.531 E11.24643
G1 X201.501 Y201.321 E11.27762
G1 X200.931 Y202.066 E11.30882
G1 X200.299 Y202.759 E11.34001
G1 X199.611 Y203.396 E11.3712
G1 X198.871 Y203.972 E11.40239
G1 X198.084 Y204.483 E11.4336
G1 X197.257 Y204.925 E11.46479
G1 X196.395 Y205.295 E11.49599
G1 X195.505 Y205.591 E11.52718
G1 X194.593 Y205.809 E11.55837
G1 X193.666 Y205.949 E11.58955
G1 X192.773 Y206.008 E11.61932
G1 X192.385 Y206.018 E11.63223
G1 X191.383 Y205.998 E11.66556
G1 X190.406 Y205.934 E11.69813
G1 X190.05 Y205.905 E11.71001
G1 X189.724 Y205.873 E11.7209
G1 X189.037 Y205.784 E11.74394
G1 X188.057 Y205.625 E11.77696
G1 X187.712 Y205.563 E11.78862
G1 X187.425 Y205.507 E11.79835
G1 X186.719 Y205.345 E11.82244
G1 X185.721 Y205.081 E11.85677
G1 X185.356 Y204.978 E11.86939
G1 X184.955 Y204.857 E11.88332
G1 X184.391 Y204.67 E11.90308
G1 X183.816 Y204.462 E11.92342
G1 X183.525 Y204.352 E11.93377
G1 X183.086 Y204.179 E11.94946
G1 X182.436 Y203.898 E11.97301
G1 X181.537 Y203.475 E12.00606
G1 X181.193 Y203.306 E12.01881
G1 X180.975 Y203.194 E12.02696
G1 X180.368 Y202.858 E12.05003
G1 X179.506 Y202.344 E12.08341
G1 X179.228 Y202.172 E12.09429
G1 X179.035 Y202.049 E12.1019
G1 X178.418 Y201.626 E12.12678
G1 X177.618 Y201.036 E12.15984
G1 X177.31 Y200.801 E12.17273
G1 X177.16 Y200.682 E12.1791
G1 X176.895 Y200.464 E12.19051
G1 X175.558 Y199.333 E12.24875
G1 X175.194 Y199.019 E12.26474
G1 X172.169 Y196.451 E12.39672
G1 X170.924 Y195.412 E12.45065
G1 X168.191 Y193.171 E12.56821
G1 X166.864 Y192.103 E12.62486
G1 X164.117 Y189.932 E12.74132
G1 X162.647 Y188.791 E12.80321
G1 X160.097 Y186.853 E12.90974
G1 X158.626 Y185.758 E12.97073
G1 X156.007 Y183.845 E13.0786
G1 X154.469 Y182.745 E13.14149
G1 X152.084 Y181.076 E13.23831
G1 X150.401 Y179.923 E13.30616
G1 X148.039 Y178.34 E13.40073
G1 X146.395 Y177.263 E13.4661
G1 X143.951 Y175.698 E13.56263
G1 X142.343 Y174.691 E13.62573
G1 X140.009 Y173.264 E13.71672
G1 X138.229 Y172.201 E13.78568
G1 X135.916 Y170.855 E13.87469
G1 X134.093 Y169.82 E13.94441
G1 X131.777 Y168.536 E14.03249
G1 X130.006 Y167.578 E14.09946
G1 X127.633 Y166.327 E14.18868
G1 X125.941 Y165.458 E14.25194
G1 X123.427 Y164.199 E14.34546
G1 X121.71 Y163.361 E14.409
G1 X119.234 Y162.185 E14.50017
G1 X117.446 Y161.357 E14.56571
G1 X114.802 Y160.166 E14.66216
G1 X113.162 Y159.447 E14.72172
G1 X110.465 Y158.295 E14.81926
G1 X108.897 Y157.643 E14.87574
G1 X105.942 Y156.445 E14.9818
G1 X104.45 Y155.859 E15.03511
G1 X101.451 Y154.708 E15.14195
G1 X99.972 Y154.155 E15.19447
G1 X96.796 Y153 E15.30687
G1 X95.363 Y152.493 E15.35743
G1 X92.085 Y151.361 E15.47277
G1 X90.672 Y150.886 E15.52235
G1 X87.197 Y149.748 E15.64397
G1 X85.98 Y149.36 E15.68646
G1 X82.187 Y148.179 E15.81859
G1 X80.975 Y147.81 E15.86073
G1 X77.218 Y146.698 E15.99104
G1 X75.992 Y146.344 E16.03349
G1 X71.989 Y145.214 E16.17183
G1 X70.965 Y144.932 E16.20715
G1 X66.671 Y143.775 E16.35507
G1 X65.634 Y143.501 E16.39074
G1 X61.198 Y142.357 E16.54311
G1 X60.234 Y142.113 E16.57619
G1 X55.594 Y140.965 E16.73517
G1 X54.844 Y140.784 E16.76083
G1 X53.173 Y140.386 E16.81796
G1 X50.615 Y139.813 E16.90515
G1 X48.17 Y139.341 E16.98797
G1 X45.703 Y138.935 E17.07113
G1 X43.195 Y138.595 E17.15531
G1 X41.295 Y138.384 E17.21889
G1 X40.368 Y138.24 E17.25009
G1 X39.457 Y138.019 E17.28127
G1 X38.567 Y137.72 E17.3125
G1 X37.707 Y137.347 E17.34367
G1 X36.881 Y136.902 E17.37488
G1 X36.097 Y136.388 E17.40606
G1 X35.359 Y135.809 E17.43726
G1 X34.673 Y135.17 E17.46844
G1 X34.044 Y134.474 E17.49964
G1 X33.476 Y133.727 E17.53085
G1 X32.975 Y132.935 E17.56202
G1 X32.542 Y132.103 E17.59322
G1 X32.182 Y131.237 E17.62441
G1 X31.897 Y130.343 E17.65562
G1 X31.689 Y129.429 E17.6868
G1 X31.56 Y128.5 E17.71799
G1 X31.515 Y127.781 E17.74196
G1 X31.505 Y127.448 E17.75304
G1 X31.5 Y127.118 E17.76401
G1 X31.501 Y40.884 E20.63217
G1 X31.51 Y40.195 E20.65509
G1 X31.562 Y39.259 E20.68627
G1 X31.694 Y38.33 E20.71747
G1 X31.904 Y37.416 E20.74867
G1 X32.192 Y36.524 E20.77984
G1 X32.554 Y35.659 E20.81103
G1 X32.989 Y34.828 E20.84223
G1 X33.493 Y34.037 E20.87342
G1 X34.063 Y33.292 E20.90462
G1 X34.694 Y32.598 E20.93582
G0 F6000 X35.086 Y32.772
G1 F1200 X35.771 Y32.157 E20.96644
G1 X36.506 Y31.603 E20.99705
G1 X37.287 Y31.115 E21.02768
G1 X38.107 Y30.696 E21.05831
G1 X38.96 Y30.351 E21.08891
G1 X39.84 Y30.08 E21.11954
G1 X40.74 Y29.888 E21.15014
G1 X41.901 Y29.756 E21.18901
G1 X42.984 Y29.695 E21.22509
G1 X43.654 Y29.667 E21.24739
G1 X46.322 Y29.476 E21.33635
G1 X47.007 Y29.417 E21.35922
G1 X47.612 Y29.382 E21.37938
G1 X47.921 Y29.373 E21.38966
G1 X48.23 Y29.369 E21.39994
G1 X66.793 Y29.369 E22.01735
G1 X67.665 Y29.381 E22.04635
G1 X68.584 Y29.436 E22.07697
G1 X69.495 Y29.569 E22.10759
G1 X70.741 Y29.888 E22.15037
G1 X73.296 Y30.709 E22.23963
G1 X75.745 Y31.421 E22.32446
G1 X78.206 Y32.061 E22.40903
G1 X80.635 Y32.621 E22.49194
G1 X83.158 Y33.126 E22.57752
G1 X85.621 Y33.549 E22.66064
G1 X88.157 Y33.909 E22.74583
G1 X90.621 Y34.189 E22.82831
G1 X93.172 Y34.406 E22.91347
G1 X95.637 Y34.546 E22.99559
G1 X99.608 Y34.63 E23.12769
G1 X120.415 Y34.63 E23.81974
G1 X123.04 Y34.593 E23.90705
G1 X125.548 Y34.486 E23.99054
G1 X128.065 Y34.308 E24.07447
G1 X130.589 Y34.058 E24.15883
G1 X133.097 Y33.737 E24.24293
G1 X135.559 Y33.35 E24.32582
G1 X138.081 Y32.881 E24.41114
G1 X140.555 Y32.349 E24.4953
G1 X143.003 Y31.749 E24.57913
G1 X145.438 Y31.079 E24.66313
G1 X147.991 Y30.296 E24.75195
G1 X149.245 Y29.891 E24.79578
G1 X150.133 Y29.647 E24.82641
G1 X151.038 Y29.48 E24.85702
G1 X152.179 Y29.384 E24.8951
G1 X152.508 Y29.374 E24.90605
G1 X152.83 Y29.369 E24.91676
G1 X171.544 Y29.37 E25.53919
G1 X172.248 Y29.38 E25.56261
G1 X173.167 Y29.433 E25.59322
G1 X174.078 Y29.566 E25.62385
G1 X174.974 Y29.777 E25.65446
G1 X175.747 Y30.027 E25.68148
G1 X176.111 Y30.16 E25.69437
G1 X178.563 Y31.026 E25.78086
G1 X180.971 Y31.8 E25.86499
G1 X183.372 Y32.497 E25.94814
G1 X185.866 Y33.146 E26.03386
G1 X188.316 Y33.711 E26.11748
G1 X190.803 Y34.208 E26.20184
G1 X193.325 Y34.64 E26.28694
G1 X194.137 Y34.768 E26.31428
G1 X195.039 Y34.95 E26.34489
G1 X195.923 Y35.21 E26.37553
G1 X196.78 Y35.545 E26.40614
G1 X197.605 Y35.954 E26.43677
G1 X198.391 Y36.433 E26.46738
G1 X199.133 Y36.978 E26.498
G1 X199.825 Y37.586 E26.52864
G1 X200.461 Y38.251 E26.55924
G1 X201.038 Y38.969 E26.58988
G1 X201.549 Y39.734 E26.62048
G1 X201.993 Y40.541 E26.65111
G1 X202.365 Y41.383 E26.68173
G1 X202.662 Y42.254 E26.71234
G1 X202.883 Y43.148 E26.74297
G1 X203.025 Y44.058 E26.7736
G1 X203.087 Y44.942 E26.80307
G1 X203.096 Y45.263 E26.81375
G1 X203.1 Y45.56 E26.82363
G1 X203.099 Y51.427 E27.01877
G1 X203.088 Y52.133 E27.04226
G1 X203.033 Y53.052 E27.07288
G1 X202.9 Y53.963 E27.1035
G1 X202.687 Y54.859 E27.13413
G1 X202.328 Y55.913 E27.17116
G1 X201.832 Y57.146 E27.21537
G1 X201.744 Y57.357 E27.22297
G1 X200.825 Y59.739 E27.30789
G1 X199.994 Y62.087 E27.39073
G1 X199.205 Y64.536 E27.47631
G1 X198.503 Y66.944 E27.55973
G1 X197.931 Y69.123 E27.63466
G1 X190.621 Y98.374 E28.63747
G1 X190.014 Y100.952 E28.72556
G1 X189.512 Y103.398 E28.80861
G1 X189.074 Y105.889 E28.89273
G1 X188.705 Y108.394 E28.97695
G1 X188.406 Y110.931 E29.06191
G1 X188.182 Y113.416 E29.1449
G1 X188.027 Y115.952 E29.22941
G1 X187.944 Y118.463 E29.31297
G1 X187.933 Y121.015 E29.39785
G1 X187.991 Y123.518 E29.48112
G1 X188.123 Y126.061 E29.56582
G1 X188.326 Y128.576 E29.64974
G1 X188.6 Y131.095 E29.73401
G1 X188.946 Y133.607 E29.81835
G1 X189.359 Y136.091 E29.9021
G1 X189.843 Y138.559 E29.98575
G1 X190.397 Y141.02 E30.06965
G1 X191.025 Y143.481 E30.15413
G1 X191.72 Y145.913 E30.23826
G1 X192.489 Y148.345 E30.32309
G1 X193.318 Y150.728 E30.40701
G1 X194.203 Y153.058 E30.48991
G1 X195.184 Y155.436 E30.57547
G1 X196.2 Y157.713 E30.6584
G1 X197.304 Y160.01 E30.74316
G1 X198.473 Y162.277 E30.828
G1 X199.676 Y164.458 E30.91084
G1 X200.978 Y166.665 E30.99607
G1 X201.405 Y167.354 E31.02303
G1 X201.592 Y167.666 E31.03513
G1 X202.028 Y168.477 E31.06575
G1 X202.391 Y169.322 E31.09634
G1 X202.68 Y170.197 E31.12699
G1 X202.892 Y171.092 E31.15758
G1 X203.026 Y172.003 E31.18821
G1 X203.079 Y172.879 E31.2174
G1 X203.098 Y173.867 E31.25026
G1 X203.1 Y174.071 E31.25705
G1 X203.099 Y194.436 E31.93439
G1 X203.089 Y195.159 E31.95844
G1 X203.036 Y196.078 E31.98906
G1 X202.904 Y196.989 E32.01967
G1 X202.693 Y197.885 E32.05029
G1 X202.405 Y198.76 E32.08093
G1 X202.043 Y199.606 E32.11153
G1 X201.608 Y200.417 E32.14214
G1 X201.105 Y201.188 E32.17276
G1 X200.536 Y201.912 E32.20339
G1 X199.907 Y202.585 E32.23403
G1 X199.222 Y203.2 E32.26465
G1 X198.486 Y203.753 E32.29527
G1 X197.705 Y204.24 E32.32588
G1 X196.885 Y204.658 E32.35649
G1 X196.031 Y205.003 E32.38712
G1 X195.151 Y205.273 E32.41774
G1 X194.251 Y205.465 E32.44835
G1 X193.337 Y205.578 E32.47898
G1 X192.763 Y205.608 E32.4981
G1 X192.375 Y205.618 E32.51101
G1 X191.409 Y205.599 E32.54314
G1 X190.432 Y205.535 E32.57571
G1 X190.089 Y205.507 E32.58715
G1 X189.763 Y205.475 E32.59805
G1 X189.101 Y205.389 E32.62025
G1 X188.121 Y205.23 E32.65327
G1 X187.789 Y205.171 E32.66449
G1 X187.502 Y205.115 E32.67421
G1 X186.821 Y204.959 E32.69745
G1 X185.823 Y204.695 E32.73178
G1 X185.472 Y204.595 E32.74392
G1 X185.071 Y204.474 E32.75785
G1 X184.527 Y204.294 E32.77691
G1 X183.952 Y204.086 E32.79725
G1 X183.672 Y203.98 E32.80721
G1 X183.233 Y203.807 E32.8229
G1 X182.606 Y203.536 E32.84562
G1 X181.707 Y203.113 E32.87867
G1 X181.376 Y202.95 E32.89094
G1 X181.158 Y202.838 E32.89909
G1 X180.573 Y202.514 E32.92133
G1 X179.711 Y202 E32.95471
G1 X179.443 Y201.835 E32.96518
G1 X179.25 Y201.712 E32.97279
G1 X178.655 Y201.304 E32.99679
G1 X177.855 Y200.714 E33.02985
G1 X177.559 Y200.487 E33.04226
G1 X177.409 Y200.368 E33.04862
G1 X177.153 Y200.158 E33.05964
G1 X175.819 Y199.03 E33.11774
G1 X175.391 Y198.661 E33.13654
G1 X172.428 Y196.146 E33.2658
G1 X171.253 Y195.165 E33.31671
G1 X168.366 Y192.798 E33.44088
G1 X167.112 Y191.789 E33.49442
G1 X164.29 Y189.559 E33.61404
G1 X162.917 Y188.494 E33.67184
G1 X160.376 Y186.562 E33.77801
G1 X158.82 Y185.403 E33.84254
G1 X156.327 Y183.583 E33.9452
G1 X154.727 Y182.439 E34.01062
G1 X152.27 Y180.718 E34.11039
G1 X150.673 Y179.625 E34.17476
G1 X148.165 Y177.944 E34.27518
G1 X146.611 Y176.926 E34.33697
G1 X144.196 Y175.379 E34.43236
G1 X142.601 Y174.381 E34.49494
G1 X140.202 Y172.914 E34.58846
G1 X138.456 Y171.872 E34.65609
G1 X136.014 Y170.45 E34.75008
G1 X134.324 Y169.491 E34.81471
G1 X132 Y168.202 E34.9031
G1 X130.204 Y167.23 E34.97102
G1 X127.858 Y165.993 E35.05923
G1 X126.025 Y165.052 E35.12776
G1 X123.607 Y163.841 E35.21771
G1 X121.915 Y163.016 E35.28032
G1 X119.402 Y161.822 E35.37285
G1 X117.558 Y160.968 E35.44044
G1 X115.043 Y159.835 E35.53219
G1 X113.297 Y159.07 E35.59559
G1 X110.65 Y157.939 E35.69133
G1 X108.99 Y157.249 E35.75112
G1 X106.137 Y156.092 E35.85352
G1 X104.543 Y155.466 E35.91048
G1 X101.68 Y154.367 E36.01248
G1 X100.046 Y153.756 E36.0705
G1 X96.94 Y152.627 E36.18042
G1 X95.537 Y152.13 E36.22992
G1 X92.216 Y150.984 E36.34677
G1 X90.713 Y150.478 E36.39952
G1 X87.392 Y149.391 E36.51574
G1 X86.099 Y148.978 E36.56089
G1 X82.377 Y147.819 E36.69054
