;FLAVOR:Marlin
;TIME:1612
;Filament used: 0.56231m
;Layer height: 0.2
;MINX:108.077
;MINY:112.901
;MINZ:0.2
;MAXX:126.923
;MAXY:122.099
;MAXZ:54
;Generated with Cura_SteamEngine 4.8.0
M140 S50
M105
M190 S50
M104 S200
M105
M109 S200
M82 ;absolute extrusion mode
; Ender 3 Custom Start G-code
G92 E0 ; Reset Extruder
G28 ; Home all axes
G1 Z2.0 F3000 ; Move Z Axis up little to prevent scratching of Heat Bed
G1 X0.1 Y20 Z0.3 F5000.0 ; Move to start position
G1 X0.1 Y200.0 Z0.3 F1500.0 E15 ; Draw the first line
G1 X0.4 Y200.0 Z0.3 F5000.0 ; Move to side a little
G1 X0.4 Y20 Z0.3 F1500.0 E30 ; Draw the second line
G92 E0 ; Reset Extruder
G1 Z2.0 F3000 ; Move Z Axis up little to prevent scratching of Heat Bed
G1 X5 Y20 Z0.3 F5000.0 ; Move over to prevent blob squish
G92 E0
G92 E0
G1 F2700 E-5
;LAYER_COUNT:270
;LAYER:0
M107
;MESH:Bottom_column.stl
G0 F6000 X126.523 Y121.489 Z0.2
;TYPE:WALL-INNER
G1 F2700 E0
G1 F1200 X126.052 Y121.699 E0.01715
G1 X108.947 Y121.699 E0.58607
G1 X108.477 Y121.489 E0.60319
G1 X108.477 Y115.509 E0.80208
G1 X108.948 Y115.299 E0.81924
G1 X114.534 Y115.299 E1.00503
G1 X114.959 Y115.233 E1.01933
G1 X115.391 Y115.024 E1.03529
G1 X115.743 Y114.695 E1.05132
G1 X115.981 Y114.276 E1.06735
G1 X116.086 Y113.807 E1.08333
G1 X116.06 Y113.505 E1.09341
G1 X116.144 Y113.479 E1.09634
G1 X116.434 Y113.409 E1.10626
G1 X116.738 Y113.356 E1.11652
G1 X117.048 Y113.319 E1.12691
G1 X117.353 Y113.301 E1.13707
G1 X117.658 Y113.301 E1.14721
G1 X117.964 Y113.319 E1.15741
G1 X118.261 Y113.355 E1.16736
G1 X118.583 Y113.413 E1.17824
G1 X118.867 Y113.48 E1.18795
G1 X118.94 Y113.503 E1.19049
G1 X118.914 Y113.807 E1.20064
G1 X119.019 Y114.276 E1.21663
G1 X119.257 Y114.695 E1.23265
G1 X119.609 Y115.024 E1.24868
G1 X120.042 Y115.233 E1.26467
G1 X120.473 Y115.299 E1.27917
G1 X126.052 Y115.299 E1.46473
G1 X126.523 Y115.509 E1.48188
G1 X126.523 Y121.489 E1.68078
G0 F6000 X126.923 Y121.748
;TYPE:WALL-OUTER
G1 F1200 X126.137 Y122.099 E1.70941
G1 X108.862 Y122.099 E2.28398
G1 X108.077 Y121.748 E2.31258
G1 X108.077 Y115.25 E2.5287
G1 X108.863 Y114.899 E2.55733
G1 X114.503 Y114.899 E2.74492
G1 X114.838 Y114.847 E2.7562
G1 X115.162 Y114.69 E2.76817
G1 X115.426 Y114.444 E2.78017
G1 X115.604 Y114.131 E2.79215
G1 X115.682 Y113.78 E2.80411
G1 X115.652 Y113.423 E2.81602
G1 X115.585 Y113.24 E2.82251
G1 X115.723 Y113.189 E2.8274
G1 X116.034 Y113.094 E2.83821
G1 X116.35 Y113.018 E2.84902
G1 X116.676 Y112.961 E2.86003
G1 X117.011 Y112.921 E2.87125
G1 X117.346 Y112.901 E2.88241
G1 X117.664 Y112.901 E2.89299
G1 X118.006 Y112.921 E2.90439
G1 X118.323 Y112.96 E2.91501
G1 X118.661 Y113.02 E2.92643
G1 X118.97 Y113.094 E2.93699
G1 X119.287 Y113.192 E2.94803
G1 X119.416 Y113.24 E2.95261
G1 X119.348 Y113.423 E2.9591
G1 X119.318 Y113.78 E2.97102
G1 X119.396 Y114.131 E2.98298
G1 X119.574 Y114.444 E2.99495
G1 X119.838 Y114.69 E3.00695
G1 X120.162 Y114.847 E3.01893
G1 X120.503 Y114.899 E3.0304
G1 X126.137 Y114.899 E3.21779
G1 X126.923 Y115.25 E3.24642
G1 X126.923 Y121.748 E3.46254
G0 F6000 X126.133 Y121.235
;TYPE:SKIN
G1 F1200 X125.968 Y121.309 E3.46856
G1 X109.032 Y121.309 E4.03185
G1 X108.867 Y121.235 E4.03787
G1 X108.867 Y115.763 E4.21987
G1 X109.032 Y115.689 E4.22588
G1 X114.564 Y115.689 E4.40988
G1 X115.076 Y115.609 E4.42711
G1 X115.614 Y115.35 E4.44697
G1 X116.053 Y114.939 E4.46697
G1 X116.349 Y114.418 E4.4869
G1 X116.48 Y113.834 E4.50681
G1 X116.514 Y113.791 E4.50863
G1 X116.784 Y113.744 E4.51775
G1 X117.083 Y113.709 E4.52776
G1 X117.376 Y113.691 E4.53752
G1 X117.635 Y113.691 E4.54614
G1 X117.927 Y113.709 E4.55587
G1 X118.214 Y113.743 E4.56548
G1 X118.523 Y113.8 E4.57593
G1 X118.52 Y113.834 E4.57707
G1 X118.651 Y114.418 E4.59697
G1 X118.947 Y114.939 E4.6169
G1 X119.386 Y115.35 E4.63691
G1 X119.925 Y115.609 E4.6568
G1 X120.444 Y115.689 E4.67426
G1 X125.968 Y115.689 E4.85799
G1 X126.133 Y115.763 E4.864
G1 X126.133 Y121.235 E5.046
G0 F6000 X126.413 Y121.235
G0 X126.413 Y116.355
G0 X125.972 Y116.355
G1 F1200 X125.466 Y115.849 E5.0698
G0 F6000 X124.9 Y115.849
G1 F1200 X125.972 Y116.921 E5.12023
G0 F6000 X125.972 Y117.487
G1 F1200 X124.334 Y115.849 E5.19727
G0 F6000 X123.769 Y115.849
G1 F1200 X125.972 Y118.052 E5.3009
G0 F6000 X125.972 Y118.618
G1 F1200 X123.203 Y115.849 E5.43114
G0 F6000 X122.637 Y115.849
G1 F1200 X125.972 Y119.184 E5.58801
G0 F6000 X125.972 Y119.749
G1 F1200 X122.072 Y115.849 E5.77145
G0 F6000 X121.506 Y115.849
G1 F1200 X125.972 Y120.315 E5.98152
G0 F6000 X125.972 Y120.881
G1 F1200 X120.94 Y115.849 E6.21821
G0 F6000 X120.364 Y115.838
G1 F1200 X125.674 Y121.148 E6.46798
G0 F6000 X125.108 Y121.148
G1 F1200 X119.583 Y115.623 E6.72786
G0 F6000 X119.775 Y115.227
G0 X118.968 Y114.408
G0 X118.584 Y114.624
G1 F1200 X117.823 Y113.863 E6.76365
G0 F6000 X117.253 Y113.859
G1 F1200 X124.542 Y121.148 E7.1065
G0 F6000 X123.977 Y121.148
G1 F1200 X116.741 Y113.913 E7.44684
G0 F6000 X116.542 Y114.279
G1 F1200 X123.411 Y121.148 E7.76994
G0 F6000 X122.845 Y121.148
G1 F1200 X116.38 Y114.683 E8.07403
G0 F6000 X116.175 Y115.044
G1 F1200 X122.279 Y121.148 E8.36114
G0 F6000 X121.714 Y121.148
G1 F1200 X115.883 Y115.317 E8.63542
G0 F6000 X115.556 Y115.556
G1 F1200 X121.148 Y121.148 E8.89845
G0 F6000 X120.582 Y121.148
G1 F1200 X115.174 Y115.739 E9.15285
G0 F6000 X114.697 Y115.829
G1 F1200 X120.017 Y121.148 E9.40306
G0 F6000 X119.451 Y121.148
G1 F1200 X114.151 Y115.848 E9.65235
G0 F6000 X113.585 Y115.848
G1 F1200 X118.885 Y121.148 E9.90165
G0 F6000 X118.32 Y121.148
G1 F1200 X113.019 Y115.848 E10.15097
G0 F6000 X112.454 Y115.848
G1 F1200 X117.754 Y121.148 E10.40027
G0 F6000 X117.188 Y121.147
G1 F1200 X111.888 Y115.848 E10.64954
G0 F6000 X111.322 Y115.848
G1 F1200 X116.622 Y121.147 E10.89881
G0 F6000 X116.056 Y121.147
G1 F1200 X110.756 Y115.848 E11.14808
G0 F6000 X110.191 Y115.848
G1 F1200 X115.491 Y121.147 E11.39735
G0 F6000 X114.925 Y121.147
G1 F1200 X109.625 Y115.848 E11.64663
G0 F6000 X109.062 Y115.85
G1 F1200 X114.359 Y121.147 E11.89578
G0 F6000 X113.793 Y121.147
G1 F1200 X109.026 Y116.38 E12.12001
G0 F6000 X109.026 Y116.946
G1 F1200 X113.228 Y121.147 E12.31763
G0 F6000 X112.662 Y121.147
G1 F1200 X109.026 Y117.511 E12.48866
G0 F6000 X109.026 Y118.077
G1 F1200 X112.096 Y121.147 E12.63306
G0 F6000 X111.531 Y121.147
G1 F1200 X109.026 Y118.643 E12.75087
G0 F6000 X109.026 Y119.209
G1 F1200 X110.965 Y121.147 E12.84205
G0 F6000 X110.399 Y121.147
G1 F1200 X109.026 Y119.774 E12.90663
G0 F6000 X109.026 Y120.34
G1 F1200 X109.834 Y121.147 E12.94461
G0 F6000 X109.268 Y121.147
G1 F1200 X109.026 Y120.906 E12.95597
G0 F6000 X108.587 Y120.906
G0 X108.654 Y115.625
G0 X108.986 Y115.47
G0 X114.909 Y115.078
G0 X115.298 Y114.89
G0 X115.555 Y114.65
G0 X116.186 Y113.693
G0 X116.235 Y113.69
;TYPE:SKIN
G1 F1200 X116.311 Y113.765 E12.95775
G0 F6000 X116.273 Y113.885
;MESH:NONMESH
G0 F300 X116.273 Y113.885 Z0.4
G0 F6000 X116.187 Y113.866
G0 X117.364 Y113.472
G0 X118.554 Y113.581
G0 X119.99 Y115.398
G0 X126.014 Y115.47
G0 X126.346 Y115.625
G0 X126.319 Y121.458
G0 X126.299 Y121.41
;TIME_ELAPSED:28.516925
;LAYER:1
M106 S85
;TYPE:WALL-INNER
;MESH:Bottom_column.stl
G1 F1350 X125.652 Y121.699 E12.98131
G1 X109.347 Y121.699 E13.52362
G1 X108.701 Y121.41 E13.54716
G1 X108.701 Y115.588 E13.7408
G1 X109.348 Y115.299 E13.76437
G1 X114.547 Y115.298 E13.93729
G1 X114.96 Y115.233 E13.95119
G1 X115.391 Y115.024 E13.96712
G1 X115.743 Y114.695 E13.98315
G1 X115.981 Y114.276 E13.99918
G1 X116.086 Y113.807 E14.01516
G1 X116.06 Y113.504 E14.02528
G1 X116.125 Y113.484 E14.02754
G1 X116.45 Y113.406 E14.03866
G1 X116.748 Y113.354 E14.04872
G1 X117.055 Y113.318 E14.059
G1 X117.36 Y113.301 E14.06916
G1 X117.666 Y113.302 E14.07934
G1 X117.975 Y113.321 E14.08963
G1 X118.271 Y113.357 E14.09955
G1 X118.588 Y113.414 E14.11026
G1 X118.88 Y113.484 E14.12025
G1 X118.94 Y113.503 E14.12234
G1 X118.914 Y113.807 E14.13249
G1 X119.019 Y114.276 E14.14848
G1 X119.257 Y114.695 E14.1645
G1 X119.609 Y115.024 E14.18053
G1 X120.042 Y115.233 E14.19652
G1 X120.473 Y115.299 E14.21102
G1 X125.652 Y115.299 E14.38328
G1 X126.299 Y115.588 E14.40684
G1 X126.299 Y121.41 E14.60049
G0 F7500 X126.699 Y121.669
;TYPE:WALL-OUTER
G1 F1350 X125.737 Y122.099 E14.63553
G1 X109.262 Y122.099 E15.18349
G1 X108.301 Y121.669 E15.21851
G1 X108.301 Y115.329 E15.42938
G1 X109.263 Y114.899 E15.46443
G1 X114.516 Y114.898 E15.63914
G1 X114.839 Y114.847 E15.65002
G1 X115.162 Y114.69 E15.66196
G1 X115.426 Y114.444 E15.67396
G1 X115.604 Y114.131 E15.68594
G1 X115.682 Y113.78 E15.6979
G1 X115.652 Y113.424 E15.70978
G1 X115.585 Y113.24 E15.7163
G1 X115.733 Y113.186 E15.72154
G1 X116.022 Y113.097 E15.73159
G1 X116.37 Y113.014 E15.74349
G1 X116.685 Y112.959 E15.75413
G1 X117.021 Y112.92 E15.76538
G1 X117.355 Y112.901 E15.7765
G1 X117.675 Y112.902 E15.78715
G1 X118.016 Y112.923 E15.79851
G1 X118.333 Y112.962 E15.80913
G1 X118.671 Y113.022 E15.82055
G1 X118.98 Y113.097 E15.83113
G1 X119.307 Y113.198 E15.84251
G1 X119.416 Y113.239 E15.84638
G1 X119.348 Y113.423 E15.85291
G1 X119.318 Y113.78 E15.86482
G1 X119.396 Y114.131 E15.87678
G1 X119.574 Y114.444 E15.88876
G1 X119.838 Y114.69 E15.90076
G1 X120.162 Y114.847 E15.91274
G1 X120.503 Y114.899 E15.92421
G1 X125.737 Y114.899 E16.09829
G1 X126.699 Y115.329 E16.13334
G1 X126.699 Y121.669 E16.34421
G0 F7500 X125.909 Y121.156
;TYPE:SKIN
G1 F1350 X125.567 Y121.309 E16.35667
G1 X109.431 Y121.309 E16.89336
G1 X109.091 Y121.157 E16.90574
G1 X109.091 Y115.842 E17.08252
G1 X109.433 Y115.689 E17.09498
G1 X114.578 Y115.688 E17.26611
G1 X115.077 Y115.609 E17.28291
G1 X115.614 Y115.349 E17.30275
G1 X116.053 Y114.939 E17.32273
G1 X116.349 Y114.418 E17.34266
G1 X116.48 Y113.834 E17.36257
G1 X116.477 Y113.801 E17.36367
G1 X116.53 Y113.788 E17.36549
G1 X116.793 Y113.742 E17.37437
G1 X117.089 Y113.708 E17.38428
G1 X117.38 Y113.691 E17.39397
G1 X117.642 Y113.692 E17.40268
G1 X117.937 Y113.711 E17.41252
G1 X118.224 Y113.745 E17.42213
G1 X118.523 Y113.799 E17.43223
G1 X118.52 Y113.834 E17.4334
G1 X118.651 Y114.418 E17.45331
G1 X118.947 Y114.939 E17.47324
G1 X119.386 Y115.35 E17.49324
G1 X119.925 Y115.609 E17.51313
G1 X120.444 Y115.689 E17.5306
G1 X125.567 Y115.689 E17.70099
G1 X125.909 Y115.842 E17.71345
G1 X125.909 Y121.156 E17.89019
G0 F7500 X125.748 Y120.89
G1 F1350 X125.49 Y121.148 E17.90233
G0 F7500 X124.924 Y121.148
G1 F1350 X125.748 Y120.324 E17.94109
G0 F7500 X125.748 Y119.759
G1 F1350 X124.358 Y121.148 E18.00645
G0 F7500 X123.793 Y121.148
G1 F1350 X125.748 Y119.193 E18.0984
G0 F7500 X125.748 Y118.627
G1 F1350 X123.227 Y121.148 E18.21698
G0 F7500 X122.661 Y121.148
G1 F1350 X125.748 Y118.062 E18.36216
G0 F7500 X125.748 Y117.496
G1 F1350 X122.096 Y121.148 E18.53394
G0 F7500 X121.53 Y121.148
G1 F1350 X125.748 Y116.93 E18.73234
G0 F7500 X125.748 Y116.365
G1 F1350 X120.964 Y121.148 E18.95734
G0 F7500 X120.399 Y121.148
G1 F1350 X125.647 Y115.9 E19.20419
G0 F7500 X125.132 Y115.849
G1 F1350 X119.833 Y121.148 E19.45344
G0 F7500 X119.267 Y121.148
G1 F1350 X124.566 Y115.849 E19.70269
G0 F7500 X124.001 Y115.849
G1 F1350 X118.702 Y121.148 E19.95194
G0 F7500 X118.136 Y121.148
G1 F1350 X123.435 Y115.849 E20.20119
G0 F7500 X122.869 Y115.849
G1 F1350 X117.57 Y121.148 E20.45044
G0 F7500 X117.004 Y121.148
G1 F1350 X122.304 Y115.849 E20.69971
G0 F7500 X121.738 Y115.849
G1 F1350 X116.439 Y121.148 E20.94896
G0 F7500 X115.873 Y121.148
G1 F1350 X121.172 Y115.849 E21.19821
G0 F7500 X120.606 Y115.849
G1 F1350 X115.307 Y121.148 E21.44746
G0 F7500 X114.742 Y121.148
G1 F1350 X120.094 Y115.796 E21.6992
G0 F7500 X119.663 Y115.661
G1 F1350 X114.176 Y121.148 E21.95729
G0 F7500 X113.61 Y121.148
G1 F1350 X119.284 Y115.474 E22.22418
G0 F7500 X118.991 Y115.201
G1 F1350 X113.045 Y121.148 E22.50388
G0 F7500 X112.479 Y121.148
G1 F1350 X118.735 Y114.892 E22.79815
G0 F7500 X118.53 Y114.531
G1 F1350 X111.913 Y121.148 E23.10939
G0 F7500 X111.348 Y121.148
G1 F1350 X118.411 Y114.085 E23.44161
G0 F7500 X118.045 Y113.885
G1 F1350 X110.782 Y121.148 E23.78324
G0 F7500 X110.216 Y121.148
G1 F1350 X117.514 Y113.851 E24.12649
G0 F7500 X116.91 Y113.889
G1 F1350 X116.549 Y114.25 E24.14347
G0 F7500 X116.122 Y114.154
G0 X114.953 Y115.346
G0 X115.02 Y115.778
G1 F1350 X109.651 Y121.148 E24.39604
G0 F7500 X109.25 Y120.983
G1 F1350 X114.387 Y115.846 E24.63767
G0 F7500 X113.821 Y115.846
G1 F1350 X109.25 Y120.417 E24.85267
G0 F7500 X109.25 Y119.851
G1 F1350 X113.255 Y115.846 E25.04105
G0 F7500 X112.689 Y115.847
G1 F1350 X109.25 Y119.286 E25.20281
G0 F7500 X109.25 Y118.72
G1 F1350 X112.123 Y115.847 E25.33795
G0 F7500 X111.558 Y115.847
G1 F1350 X109.25 Y118.154 E25.44649
G0 F7500 X109.25 Y117.589
G1 F1350 X110.991 Y115.848 E25.52838
G0 F7500 X110.426 Y115.848
G1 F1350 X109.25 Y117.023 E25.58367
G0 F7500 X109.25 Y116.457
G1 F1350 X109.86 Y115.848 E25.61234
G0 F7500 X109.859 Y115.499
;MESH:NONMESH
G0 F300 X109.859 Y115.499 Z0.6
G0 F7500 X109.86 Y115.408
G0 X109.386 Y115.47
G0 X108.878 Y115.704
G0 X108.878 Y121.294
G0 X109.385 Y121.528
G0 X125.614 Y121.528
G0 X125.919 Y121.458
G0 X125.899 Y121.41
;TIME_ELAPSED:49.563497
;LAYER:2
M106 S170
;TYPE:WALL-INNER
;MESH:Bottom_column.stl
G1 F1500 X125.252 Y121.699 E25.63591
G1 X109.747 Y121.699 E26.15161
G1 X109.101 Y121.41 E26.17515
G1 X109.101 Y115.588 E26.36879
G1 X109.748 Y115.299 E26.39236
G1 X114.527 Y115.299 E26.55131
G1 X114.958 Y115.233 E26.56581
G1 X115.391 Y115.024 E26.5818
G1 X115.743 Y114.695 E26.59782
G1 X115.981 Y114.276 E26.61385
G1 X116.086 Y113.807 E26.62984
G1 X116.06 Y113.505 E26.63992
G1 X116.167 Y113.472 E26.64364
G1 X116.428 Y113.41 E26.65257
G1 X116.756 Y113.354 E26.66363
G1 X117.044 Y113.319 E26.67328
G1 X117.369 Y113.301 E26.68411
G1 X117.675 Y113.302 E26.69429
G1 X117.983 Y113.321 E26.70455
G1 X118.293 Y113.36 E26.71494
G1 X118.586 Y113.414 E26.72485
G1 X118.884 Y113.486 E26.73505
G1 X118.94 Y113.504 E26.737
G1 X118.914 Y113.807 E26.74712
G1 X119.019 Y114.276 E26.7631
G1 X119.257 Y114.695 E26.77913
G1 X119.609 Y115.024 E26.79516
G1 X120.042 Y115.233 E26.81115
G1 X120.473 Y115.299 E26.82565
G1 X125.252 Y115.299 E26.9846
G1 X125.899 Y115.588 E27.00817
G1 X125.899 Y121.41 E27.20181
G0 F9000 X126.299 Y121.669
;TYPE:WALL-OUTER
G1 F1500 X125.337 Y122.099 E27.23686
G1 X109.662 Y122.099 E27.75821
G1 X108.701 Y121.669 E27.79323
G1 X108.701 Y115.329 E28.0041
G1 X109.663 Y114.899 E28.03914
G1 X114.497 Y114.899 E28.19992
G1 X114.838 Y114.847 E28.21139
G1 X115.162 Y114.69 E28.22337
G1 X115.426 Y114.444 E28.23537
G1 X115.604 Y114.131 E28.24735
G1 X115.682 Y113.78 E28.25931
G1 X115.652 Y113.424 E28.27119
G1 X115.585 Y113.239 E28.27773
G1 X115.707 Y113.194 E28.28206
G1 X116.059 Y113.087 E28.2943
G1 X116.345 Y113.019 E28.30407
G1 X116.697 Y112.958 E28.31595
G1 X117.007 Y112.921 E28.32634
G1 X117.365 Y112.901 E28.33826
G1 X117.684 Y112.902 E28.34887
G1 X118.026 Y112.923 E28.36027
G1 X118.343 Y112.963 E28.3709
G1 X118.68 Y113.025 E28.38229
G1 X118.989 Y113.1 E28.39287
G1 X119.31 Y113.2 E28.40405
G1 X119.416 Y113.239 E28.40781
G1 X119.348 Y113.423 E28.41433
G1 X119.318 Y113.78 E28.42625
G1 X119.396 Y114.131 E28.43821
G1 X119.574 Y114.444 E28.45018
G1 X119.838 Y114.69 E28.46219
G1 X120.162 Y114.847 E28.47416
G1 X120.503 Y114.899 E28.48563
G1 X125.337 Y114.899 E28.64641
G1 X126.299 Y115.329 E28.68146
G1 X126.299 Y121.669 E28.89233
G0 F9000 X125.509 Y121.156
;TYPE:SKIN
G1 F1500 X125.167 Y121.309 E28.90479
G1 X109.831 Y121.309 E29.41487
G1 X109.491 Y121.157 E29.42726
G1 X109.491 Y115.842 E29.60403
G1 X109.833 Y115.689 E29.6165
G1 X114.556 Y115.689 E29.77358
G1 X115.075 Y115.609 E29.79105
G1 X115.614 Y115.35 E29.81094
G1 X116.053 Y114.939 E29.83094
G1 X116.349 Y114.418 E29.85087
G1 X116.48 Y113.834 E29.87078
G1 X116.518 Y113.79 E29.87271
G1 X116.803 Y113.742 E29.88232
G1 X117.082 Y113.709 E29.89167
G1 X117.389 Y113.691 E29.9019
G1 X117.651 Y113.692 E29.91061
G1 X117.951 Y113.711 E29.92061
G1 X118.233 Y113.746 E29.93006
G1 X118.523 Y113.8 E29.93987
G1 X118.52 Y113.834 E29.94101
G1 X118.651 Y114.418 E29.96091
G1 X118.947 Y114.939 E29.98084
G1 X119.386 Y115.35 E30.00084
G1 X119.925 Y115.609 E30.02073
G1 X120.444 Y115.689 E30.0382
G1 X125.167 Y115.689 E30.19529
G1 X125.509 Y115.842 E30.20775
G1 X125.509 Y121.156 E30.38449
G0 F9000 X125.789 Y121.156
