;FLAVOR:Marlin
;TIME:1484
;Filament used: 0.390586m
;Layer height: 0.12
;MINX:96.952
;MINY:96.951
;MINZ:0.144
;MAXX:137.699
;MAXY:138.055
;MAXZ:20.634
;Generated with Cura_SteamEngine 4.8.0
M140 S50
M105
M190 S50
M104 S200
M105
M109 S200
M82 ;absolute extrusion mode
; Ender 3 Custom Start G-code
G92 E0 ; Reset Extruder
G28 ; Home all axes
G1 Z2.0 F3000 ; Move Z Axis up little to prevent scratching of Heat Bed
G1 X0.1 Y20 Z0.3 F5000.0 ; Move to start position
G1 X0.1 Y200.0 Z0.3 F1500.0 E15 ; Draw the first line
G1 X0.4 Y200.0 Z0.3 F5000.0 ; Move to side a little
G1 X0.4 Y20 Z0.3 F1500.0 E30 ; Draw the second line
G92 E0 ; Reset Extruder
G1 Z2.0 F3000 ; Move Z Axis up little to prevent scratching of Heat Bed
G1 X5 Y20 Z0.3 F5000.0 ; Move over to prevent blob squish
G92 E0
G92 E0
G1 F2700 E-5
;LAYER_COUNT:166
;LAYER:-6
M107
G0 F9000 X103.514 Y103.92 Z0.144
;TYPE:SUPPORT-INTERFACE
G1 F2700 E0
G1 F1125 X104.47 Y102.998 E0.06361
G1 X104.705 Y102.79 E0.07864
G1 X105.723 Y101.965 E0.1414
G1 X105.834 Y101.881 E0.14807
G1 X106.044 Y101.726 E0.16057
G1 X106.171 Y101.637 E0.168
G1 X107.155 Y100.977 E0.22474
G1 X107.467 Y100.785 E0.24229
G1 X107.606 Y100.704 E0.24999
G1 X108.716 Y100.096 E0.31061
G1 X109.044 Y99.934 E0.32813
G1 X110.295 Y99.386 E0.39354
G1 X110.667 Y99.242 E0.41265
G1 X110.793 Y99.197 E0.41906
G1 X111.853 Y98.842 E0.4726
G1 X111.955 Y98.809 E0.47773
G1 X112.262 Y98.721 E0.49303
G1 X112.379 Y98.69 E0.49882
G1 X113.58 Y98.404 E0.55795
G1 X113.671 Y98.384 E0.56242
G1 X113.991 Y98.323 E0.57802
G1 X114.094 Y98.306 E0.58302
G1 X115.298 Y98.131 E0.64129
G1 X115.427 Y98.115 E0.64752
G1 X115.75 Y98.084 E0.66306
G1 X115.833 Y98.076 E0.66705
G1 X116.986 Y98.014 E0.72235
G1 X117.136 Y98.008 E0.72954
G1 X117.423 Y98.005 E0.74329
G1 X117.567 Y98.007 E0.75019
G1 X118.747 Y98.045 E0.80673
G1 X119.194 Y98.078 E0.8282
G1 X120.451 Y98.231 E0.88885
G1 X120.605 Y98.253 E0.8963
G1 X120.865 Y98.297 E0.90893
G1 X120.986 Y98.32 E0.91483
G1 X122.2 Y98.58 E0.97429
G1 X122.297 Y98.603 E0.97906
G1 X122.606 Y98.683 E0.99435
G1 X122.718 Y98.716 E0.99994
G1 X123.849 Y99.068 E1.05667
G1 X124.232 Y99.203 E1.07612
G1 X124.348 Y99.248 E1.08208
G1 X125.465 Y99.708 E1.13994
G1 X125.589 Y99.762 E1.14642
G1 X125.847 Y99.882 E1.16005
G1 X125.941 Y99.928 E1.16506
G1 X127.031 Y100.493 E1.22386
G1 X127.352 Y100.677 E1.24158
G1 X127.487 Y100.759 E1.24915
G1 X128.494 Y101.401 E1.30634
G1 X128.837 Y101.64 E1.32637
G1 X128.927 Y101.705 E1.33168
G1 X129.867 Y102.431 E1.38857
G1 X129.966 Y102.511 E1.39466
G1 X130.282 Y102.78 E1.41454
G1 X131.152 Y103.584 E1.47128
G1 X131.248 Y103.677 E1.47768
G1 X131.468 Y103.899 E1.49265
G1 X131.535 Y103.97 E1.49732
G1 X132.364 Y104.887 E1.55653
G1 X132.436 Y104.969 E1.56176
G1 X132.635 Y105.211 E1.57676
G1 X132.703 Y105.297 E1.58201
G1 X133.467 Y106.313 E1.6429
G1 X133.707 Y106.664 E1.66326
G1 X134.396 Y107.772 E1.72575
G1 X134.562 Y108.067 E1.74196
G1 X134.621 Y108.178 E1.74798
G1 X135.148 Y109.22 E1.80391
G1 X135.215 Y109.359 E1.8113
G1 X135.365 Y109.694 E1.82888
G1 X135.813 Y110.819 E1.88688
G1 X135.869 Y110.968 E1.8945
G1 X135.969 Y111.255 E1.90906
G1 X136.002 Y111.358 E1.91424
G1 X136.336 Y112.479 E1.97026
G1 X136.377 Y112.624 E1.97748
G1 X136.451 Y112.923 E1.99223
G1 X136.475 Y113.03 E1.99748
G1 X136.717 Y114.215 E2.05541
G1 X136.779 Y114.596 E2.0739
G1 X136.797 Y114.733 E2.08051
G1 X136.942 Y116.043 E2.14364
G1 X136.96 Y116.317 E2.15679
G1 X136.967 Y116.46 E2.16365
G1 X136.995 Y117.657 E2.22099
G1 X136.995 Y117.741 E2.22502
G1 X136.988 Y118.071 E2.24082
G1 X136.985 Y118.156 E2.2449
G1 X136.902 Y119.402 E2.30471
G1 X136.86 Y119.805 E2.32411
G1 X136.841 Y119.944 E2.33083
G1 X136.645 Y121.183 E2.39091
G1 X136.571 Y121.55 E2.40884
G1 X136.554 Y121.625 E2.41253
G1 X136.254 Y122.824 E2.47172
G1 X136.148 Y123.189 E2.48993
G1 X136.098 Y123.342 E2.49764
G1 X135.71 Y124.463 E2.55445
G1 X135.564 Y124.833 E2.5735
G1 X135.523 Y124.931 E2.57859
G1 X134.99 Y126.115 E2.64078
G1 X134.845 Y126.403 E2.65622
G1 X134.78 Y126.525 E2.66284
G1 X134.175 Y127.601 E2.72196
G1 X133.98 Y127.916 E2.73971
G1 X133.886 Y128.061 E2.74798
G1 X133.208 Y129.048 E2.80533
G1 X132.975 Y129.359 E2.82395
G1 X132.133 Y130.38 E2.88733
G1 X132.033 Y130.496 E2.89466
G1 X131.847 Y130.701 E2.90792
G1 X131.77 Y130.782 E2.91327
G1 X130.861 Y131.698 E2.97508
G1 X130.634 Y131.908 E2.98989
G1 X130.522 Y132.006 E2.99702
G1 X129.663 Y132.734 E3.05095
G1 X129.538 Y132.836 E3.05868
G1 X129.322 Y133.003 E3.07175
G1 X129.211 Y133.085 E3.07836
G1 X128.22 Y133.783 E3.13642
G1 X128.117 Y133.852 E3.14236
G1 X127.89 Y133.996 E3.15523
G1 X127.729 Y134.094 E3.16426
G1 X126.736 Y134.668 E3.21919
G1 X126.605 Y134.741 E3.22637
G1 X126.342 Y134.876 E3.24053
G1 X126.208 Y134.941 E3.24767
G1 X125.182 Y135.416 E3.30182
G1 X125.037 Y135.479 E3.30939
G1 X124.768 Y135.59 E3.32333
G1 X124.653 Y135.634 E3.32922
G1 X123.507 Y136.046 E3.38755
G1 X123.425 Y136.074 E3.3917
G1 X123.041 Y136.192 E3.41094
G1 X121.843 Y136.506 E3.47026
G1 X121.467 Y136.589 E3.4887
G1 X121.358 Y136.61 E3.49401
G1 X120.136 Y136.816 E3.55337
G1 X119.71 Y136.869 E3.57393
G1 X119.611 Y136.88 E3.5787
G1 X118.434 Y136.972 E3.63524
G1 X118.307 Y136.979 E3.64133
G1 X118.024 Y136.988 E3.65489
G1 X117.895 Y136.99 E3.66107
G1 X116.65 Y136.976 E3.72071
G1 X116.553 Y136.973 E3.72535
G1 X116.132 Y136.947 E3.74556
G1 X114.877 Y136.818 E3.80598
G1 X114.515 Y136.766 E3.8235
G1 X113.229 Y136.521 E3.8862
G1 X113.162 Y136.507 E3.88948
G1 X112.842 Y136.431 E3.90523
G1 X112.717 Y136.398 E3.91142
G1 X111.569 Y136.07 E3.9686
G1 X111.457 Y136.036 E3.97421
G1 X111.194 Y135.948 E3.98749
G1 X111.05 Y135.896 E3.99482
G1 X109.944 Y135.47 E4.05159
G1 X109.548 Y135.3 E4.07223
G1 X109.412 Y135.236 E4.07943
G1 X108.385 Y134.732 E4.13422
G1 X108.242 Y134.658 E4.14193
G1 X107.917 Y134.477 E4.15975
G1 X106.863 Y133.837 E4.21881
G1 X106.516 Y133.607 E4.23875
G1 X105.457 Y132.829 E4.30168
G1 X105.355 Y132.751 E4.30783
G1 X105.125 Y132.565 E4.322
G1 X105.024 Y132.479 E4.32835
G1 X104.143 Y131.698 E4.38474
G1 X103.831 Y131.4 E4.4054
G1 X103.747 Y131.314 E4.41116
G1 X102.949 Y130.47 E4.46679
G1 X102.864 Y130.377 E4.47283
G1 X102.596 Y130.065 E4.49253
G1 X101.774 Y129.023 E4.55609
G1 X101.508 Y128.647 E4.57815
G1 X100.867 Y127.666 E4.63428
G1 X100.801 Y127.561 E4.64022
G1 X100.643 Y127.293 E4.65512
G1 X100.592 Y127.202 E4.66011
G1 X100.033 Y126.156 E4.71692
G1 X99.859 Y125.796 E4.73607
G1 X99.801 Y125.669 E4.74275
G1 X99.295 Y124.475 E4.80486
G1 X99.137 Y124.043 E4.82689
G1 X98.758 Y122.864 E4.88621
G1 X98.733 Y122.779 E4.89045
G1 X98.652 Y122.481 E4.90524
G1 X98.626 Y122.377 E4.91038
G1 X98.375 Y121.267 E4.96488
G1 X98.343 Y121.113 E4.97241
G1 X98.287 Y120.809 E4.98722
G1 X98.107 Y119.487 E5.05112
G1 X98.096 Y119.392 E5.0557
G1 X98.062 Y119.012 E5.07397
G1 X98.008 Y117.999 E5.12256
G1 X98.003 Y117.737 E5.13511
G1 X98.016 Y116.849 E5.17764
G1 X98.031 Y116.504 E5.19418
G1 X98.043 Y116.327 E5.20268
G1 X98.144 Y115.184 E5.25764
G1 X98.156 Y115.077 E5.26279
G1 X98.213 Y114.66 E5.28295
G1 X98.432 Y113.448 E5.34194
G1 X98.461 Y113.309 E5.34874
G1 X98.525 Y113.025 E5.36268
G1 X98.547 Y112.938 E5.36698
G1 X98.875 Y111.746 E5.42619
G1 X98.899 Y111.661 E5.43042
G1 X98.991 Y111.38 E5.44459
G1 X99.033 Y111.259 E5.45072
G1 X99.445 Y110.151 E5.50734
G1 X99.488 Y110.041 E5.51299
G1 X99.598 Y109.783 E5.52643
G1 X99.657 Y109.651 E5.53335
G1 X100.179 Y108.557 E5.59141
G1 X100.239 Y108.436 E5.59788
G1 X100.418 Y108.105 E5.6159
G1 X101.035 Y107.065 E5.67382
G1 X101.117 Y106.934 E5.68122
G1 X101.257 Y106.721 E5.69343
G1 X101.359 Y106.573 E5.70203
G1 X102.01 Y105.668 E5.75543
G1 X102.098 Y105.55 E5.76248
G1 X102.291 Y105.304 E5.77745
G1 X103.168 Y104.287 E5.84177
G1 X103.227 Y104.22 E5.84605
G1 X103.514 Y103.92 E5.86593
G0 F9000 X104 Y103.451
G1 F1125 X104 Y131.561 E7.21225
G0 F9000 X105.6 Y132.934
G1 F1125 X105.6 Y102.064 E8.69076
G0 F9000 X107.2 Y100.949
G1 F1125 X107.2 Y134.041 E10.27568
G0 F9000 X108.8 Y134.935
G1 F1125 X108.8 Y100.054 E11.9463
G0 F9000 X110.4 Y99.345
G1 F1125 X110.4 Y135.645 E13.68487
G0 F9000 X112 Y136.193
G1 F1125 X112 Y98.796 E15.47598
G0 F9000 X113.6 Y98.399
G1 F1125 X113.6 Y136.591 E17.30517
G0 F9000 X115.2 Y136.851
G1 F1125 X115.2 Y98.145 E19.15898
G0 F9000 X116.8 Y98.024
G1 F1125 X116.8 Y136.977 E21.02462
G0 F9000 X118.4 Y136.974
G1 F1125 X118.4 Y98.034 E22.88964
G0 F9000 X120 Y98.177
G1 F1125 X120 Y136.833 E24.74105
G0 F9000 X121.6 Y136.56
G1 F1125 X121.6 Y98.452 E26.56622
G0 F9000 X123.2 Y98.867
G1 F1125 X123.2 Y136.144 E28.35158
G0 F9000 X124.8 Y135.577
G1 F1125 X124.8 Y99.435 E30.08259
G0 F9000 X126.4 Y100.166
G1 F1125 X126.4 Y134.847 E31.74362
G0 F9000 X128 Y133.927
G1 F1125 X128 Y101.087 E33.31648
G0 F9000 X129.6 Y102.225
G1 F1125 X129.6 Y132.786 E34.78019
G0 F9000 X131.2 Y131.357
G1 F1125 X131.2 Y103.631 E36.10811
G0 F9000 X132.8 Y105.426
G1 F1125 X132.8 Y129.572 E37.26458
G0 F9000 X134.4 Y127.201
G1 F1125 X134.4 Y107.78 E38.19474
G0 F9000 X136 Y111.352
G1 F1125 X136 Y123.626 E38.78259
G1 F2700 E33.78259
G0 F9000 X137.006 Y123.974
G0 X136.497 Y125.359
G0 X135.712 Y127.04
G0 X134.775 Y128.648
G0 X133.763 Y130.078
G0 X132.531 Y131.526
G0 X131.215 Y132.814
G0 X129.838 Y133.946
G0 X128.276 Y135.008
G0 X126.668 Y135.902
G0 X125.025 Y136.631
G0 X123.316 Y137.219
G0 X121.549 Y137.657
G0 X119.717 Y137.939
G0 X117.898 Y138.055
G0 X116.04 Y138.007
G0 X114.24 Y137.799
G0 X112.432 Y137.424
G0 X110.683 Y136.895
G0 X108.955 Y136.197
G0 X107.371 Y135.391
G0 X105.822 Y134.419
G0 X104.329 Y133.285
G0 X103.24 Y132.289
G0 X101.771 Y130.738
G0 X102.4 Y129.816
G1 F2700 E38.78259
G1 F1125 X102.4 Y105.177 E39.96267
G0 F9000 X100.8 Y107.461
G1 F1125 X100.8 Y127.559 E40.92525
G0 F9000 X99.2 Y124.215
G1 F1125 X99.2 Y110.809 E41.56733
G1 F2700 E36.56733
G0 F300 X99.2 Y110.809 Z0.324
G0 F9000 X98.033 Y110.895
G0 X97.387 Y113.24
G0 X97.086 Y115.072
G0 X96.952 Y116.813
G0 X97.003 Y119.114
G0 X97.333 Y121.488
G0 X97.741 Y123.181
G0 X98.323 Y124.912
G0 X98.944 Y126.319
G0 X99.894 Y128.118
G0 X101.002 Y127.872
;TIME_ELAPSED:55.500301
;LAYER:-5
;TYPE:SUPPORT
G1 F2700 E41.56733
G1 F1125 X107.125 Y133.995 E42.08574
G1 X107.917 Y134.476 E42.14122
G1 X108.242 Y134.657 E42.16349
G1 X108.384 Y134.731 E42.17308
G1 X109.412 Y135.235 E42.24162
G1 X109.547 Y135.299 E42.25056
G1 X109.943 Y135.468 E42.27634
G1 X110.056 Y135.512 E42.2836
G1 X99.498 Y124.954 E43.17751
G1 X99.295 Y124.474 E43.20871
G1 X99.137 Y124.042 E43.23625
G1 X98.758 Y122.863 E43.31039
G1 X98.732 Y122.778 E43.31571
G1 X98.73 Y122.772 E43.31609
G1 X112.21 Y136.251 E44.45735
G1 X112.717 Y136.396 E44.48892
G1 X112.842 Y136.429 E44.49666
G1 X113.161 Y136.506 E44.51631
G1 X113.229 Y136.519 E44.52045
G1 X114.048 Y136.675 E44.57037
G1 X98.31 Y120.937 E45.90285
G1 X98.287 Y120.808 E45.91069
G1 X98.107 Y119.486 E45.99057
G1 X98.096 Y119.391 E45.99629
G1 X98.087 Y119.3 E46.00177
G1 X115.686 Y136.9 E47.49186
G1 X116.131 Y136.946 E47.51864
G1 X116.552 Y136.972 E47.54389
G1 X116.649 Y136.975 E47.5497
G1 X117.181 Y136.98 E47.58155
G1 X98.004 Y117.803 E49.2052
G1 X98.002 Y117.736 E49.20922
G1 X98.016 Y116.847 E49.26245
G1 X98.031 Y116.503 E49.28306
G1 X98.036 Y116.42 E49.28804
G1 X118.575 Y136.96 E51.02704
G1 X119.61 Y136.879 E51.0892
G1 X119.709 Y136.868 E51.09516
G1 X119.876 Y136.847 E51.10524
G1 X98.15 Y115.121 E52.9447
G1 X98.156 Y115.075 E52.94748
G1 X98.212 Y114.658 E52.97267
G1 X98.348 Y113.905 E53.01848
G1 X121.096 Y136.652 E54.94443
G1 X121.357 Y136.608 E54.96028
G1 X121.467 Y136.588 E54.96697
G1 X121.842 Y136.505 E54.98996
G1 X122.255 Y136.397 E55.01552
G1 X98.6 Y112.742 E57.01831
G1 X98.874 Y111.745 E57.08021
G1 X98.898 Y111.66 E57.08549
G1 X98.906 Y111.634 E57.08712
G1 X123.363 Y136.091 E59.15781
G1 X123.424 Y136.073 E59.16162
G1 X123.506 Y136.045 E59.16681
G1 X124.406 Y135.72 E59.22409
G1 X99.279 Y110.592 E61.35155
G1 X99.444 Y110.15 E61.3798
G1 X99.487 Y110.04 E61.38687
G1 X99.598 Y109.781 E61.40374
G1 X99.657 Y109.65 E61.41234
G1 X99.687 Y109.586 E61.41657
G1 X125.409 Y135.309 E63.5944
G1 X126.207 Y134.94 E63.64704
G1 X126.342 Y134.875 E63.65601
G1 X126.373 Y134.858 E63.65813
G1 X100.143 Y108.628 E65.87893
G1 X100.178 Y108.556 E65.88372
G1 X100.238 Y108.435 E65.89181
G1 X100.418 Y108.104 E65.91436
G1 X100.646 Y107.717 E65.94125
G1 X127.28 Y134.351 E68.19626
G1 X127.728 Y134.092 E68.22724
G1 X127.89 Y133.995 E68.23855
G1 X128.117 Y133.851 E68.25464
G1 X128.163 Y133.819 E68.25799
G1 X101.179 Y106.836 E70.54259
G1 X101.256 Y106.72 E70.55093
G1 X101.359 Y106.572 E70.56172
G1 X101.764 Y106.007 E70.60334
G1 X128.993 Y133.236 E72.90872
G1 X129.211 Y133.084 E72.92464
G1 X129.322 Y133.001 E72.93293
G1 X129.537 Y132.835 E72.94919
G1 X129.662 Y132.733 E72.95885
G1 X129.793 Y132.622 E72.96913
G1 X102.375 Y105.204 E75.29052
G1 X103.03 Y104.444 E75.35059
G1 X130.558 Y131.972 E77.68128
G1 X130.634 Y131.907 E77.68727
G1 X130.861 Y131.697 E77.70578
G1 X131.277 Y131.277 E77.74118
G1 X103.72 Y103.72 E80.07433
G1 X104.441 Y103.026 E80.13424
G1 X131.975 Y130.56 E82.46545
G1 X132.032 Y130.496 E82.47058
G1 X132.132 Y130.379 E82.47979
G1 X132.619 Y129.79 E82.52555
G1 X105.209 Y102.381 E84.84622
G1 X105.722 Y101.964 E84.88579
G1 X105.833 Y101.88 E84.89413
G1 X106 Y101.757 E84.90655
G1 X133.241 Y128.998 E87.21294
G1 X133.817 Y128.16 E87.27382
G1 X106.843 Y101.186 E89.55762
G1 X107.154 Y100.976 E89.58008
G1 X107.466 Y100.785 E89.60198
G1 X107.605 Y100.704 E89.61162
G1 X107.715 Y100.644 E89.61912
G1 X134.353 Y127.282 E91.87446
G1 X134.779 Y126.524 E91.92652
G1 X134.844 Y126.403 E91.93474
G1 X134.859 Y126.374 E91.9367
G1 X108.629 Y100.143 E94.15754
G1 X108.715 Y100.095 E94.16344
G1 X109.042 Y99.933 E94.18528
G1 X109.593 Y99.693 E94.22127
G1 X135.307 Y125.408 E96.39842
G1 X135.521 Y124.93 E96.42978
G1 X135.562 Y124.833 E96.43608
G1 X135.709 Y124.463 E96.45992
G1 X135.727 Y124.413 E96.4631
G1 X110.587 Y99.273 E98.59161
G1 X110.666 Y99.242 E98.59669
G1 X110.792 Y99.197 E98.6047
G1 X111.64 Y98.912 E98.65826
G1 X136.09 Y123.362 E100.72836
G1 X136.096 Y123.342 E100.72961
G1 X136.147 Y123.188 E100.73932
G1 X136.253 Y122.823 E100.76207
G1 X136.396 Y122.254 E100.7972
G1 X112.745 Y98.603 E102.79965
G1 X113.579 Y98.403 E102.85099
G1 X113.67 Y98.384 E102.85656
G1 X113.897 Y98.34 E102.8704
G1 X136.657 Y121.101 E104.79745
G1 X136.84 Y119.944 E104.86758
G1 X136.849 Y119.878 E104.87157
G1 X115.126 Y98.156 E106.71074
G1 X115.297 Y98.131 E106.72108
G1 X115.425 Y98.114 E106.72881
G1 X115.749 Y98.084 E106.74829
G1 X115.832 Y98.075 E106.75329
G1 X116.428 Y98.043 E106.78902
G1 X136.956 Y118.571 E108.52706
G1 X136.984 Y118.155 E108.55202
G1 X136.987 Y118.07 E108.55711
G1 X136.994 Y117.741 E108.57681
G1 X136.994 Y117.656 E108.5819
G1 X136.983 Y117.184 E108.61017
G1 X117.813 Y98.014 E110.23322
G1 X118.746 Y98.045 E110.28911
G1 X119.193 Y98.077 E110.31594
G1 X119.305 Y98.091 E110.3227
G1 X136.902 Y115.689 E111.81262
G1 X136.796 Y114.733 E111.8702
G1 X136.777 Y114.595 E111.87854
G1 X136.716 Y114.214 E111.90164
G1 X136.684 Y114.057 E111.91123
G1 X120.938 Y98.311 E113.24439
G1 X120.985 Y98.319 E113.24725
G1 X122.199 Y98.58 E113.32159
G1 X122.296 Y98.602 E113.32754
G1 X122.605 Y98.682 E113.34665
G1 X122.716 Y98.716 E113.3536
G1 X122.777 Y98.735 E113.35743
G1 X136.256 Y112.215 E114.49869
G1 X136 Y111.358 E114.55223
G1 X135.968 Y111.254 E114.55875
G1 X135.868 Y110.968 E114.57689
G1 X135.812 Y110.819 E114.58642
G1 X135.507 Y110.051 E114.63589
G1 X124.954 Y99.498 E115.52937
G1 X125.464 Y99.708 E115.56239
G1 X125.588 Y99.762 E115.57049
G1 X125.846 Y99.881 E115.5875
G1 X125.939 Y99.928 E115.59374
G1 X127.03 Y100.492 E115.66727
G1 X127.351 Y100.676 E115.68942
G1 X127.486 Y100.759 E115.69891
G1 X127.88 Y101.01 E115.72687
G1 X128.493 Y101.401 E115.7704
G1 X128.836 Y101.639 E115.7954
G1 X128.926 Y101.705 E115.80208
G1 X129.866 Y102.43 E115.87315
G1 X129.965 Y102.511 E115.88081
G1 X130.28 Y102.78 E115.90561
G1 X131.151 Y103.584 E115.97657
G1 X131.247 Y103.677 E115.98457
G1 X131.467 Y103.898 E116.00324
G1 X131.534 Y103.97 E116.00913
G1 X132.363 Y104.886 E116.08309
G1 X132.435 Y104.968 E116.08963
G1 X132.634 Y105.211 E116.10843
G1 X132.702 Y105.297 E116.11499
