;FLAVOR:Marlin
;TIME:1666
;Filament used: 0.592343m
;Layer height: 0.12
;MINX:94.238
;MINY:94.238
;MINZ:0.144
;MAXX:140.76
;MAXY:140.762
;MAXZ:20.634
;Generated with Cura_SteamEngine 4.8.0
M140 S50
M105
M190 S50
M104 S200
M105
M109 S200
M82 ;absolute extrusion mode
; Ender 3 Custom Start G-code
G92 E0 ; Reset Extruder
G28 ; Home all axes
G1 Z2.0 F3000 ; Move Z Axis up little to prevent scratching of Heat Bed
G1 X0.1 Y20 Z0.3 F5000.0 ; Move to start position
G1 X0.1 Y200.0 Z0.3 F1500.0 E15 ; Draw the first line
G1 X0.4 Y200.0 Z0.3 F5000.0 ; Move to side a little
G1 X0.4 Y20 Z0.3 F1500.0 E30 ; Draw the second line
G92 E0 ; Reset Extruder
G1 Z2.0 F3000 ; Move Z Axis up little to prevent scratching of Heat Bed
G1 X5 Y20 Z0.3 F5000.0 ; Move over to prevent blob squish
G92 E0
G92 E0
G1 F2700 E-5
;LAYER_COUNT:166
;LAYER:-6
M107
G0 F9000 X101.609 Y101.999 Z0.144
;TYPE:SUPPORT-INTERFACE
G1 F2700 E0
G1 F1125 X102.006 Y101.602 E0.02689
G1 X102.253 Y101.365 E0.04329
G1 X102.71 Y100.945 E0.07301
G1 X102.924 Y100.757 E0.08666
G1 X103.325 Y100.417 E0.11184
G1 X103.551 Y100.232 E0.12582
G1 X103.996 Y99.882 E0.15294
G1 X104.215 Y99.715 E0.16613
G1 X104.686 Y99.374 E0.19398
G1 X104.956 Y99.185 E0.20976
G1 X105.444 Y98.86 E0.23785
G1 X105.701 Y98.697 E0.25242
G1 X106.191 Y98.398 E0.27991
G1 X106.412 Y98.268 E0.29219
G1 X106.943 Y97.973 E0.32129
G1 X107.18 Y97.846 E0.33417
G1 X107.759 Y97.553 E0.36525
G1 X108.001 Y97.436 E0.37812
G1 X108.51 Y97.204 E0.40491
G1 X108.811 Y97.074 E0.42061
G1 X109.278 Y96.88 E0.44483
G1 X109.541 Y96.777 E0.45836
G1 X110.149 Y96.554 E0.48938
G1 X110.403 Y96.466 E0.50225
G1 X110.939 Y96.293 E0.52923
G1 X111.215 Y96.21 E0.54303
G1 X111.786 Y96.049 E0.57145
G1 X112.083 Y95.973 E0.58613
G1 X112.663 Y95.834 E0.61469
G1 X112.939 Y95.775 E0.62821
G1 X113.49 Y95.667 E0.6551
G1 X113.777 Y95.616 E0.66907
G1 X114.324 Y95.53 E0.69559
G1 X114.628 Y95.489 E0.71028
G1 X115.238 Y95.417 E0.7397
G1 X115.51 Y95.391 E0.75278
G1 X116.09 Y95.346 E0.78065
G1 X116.317 Y95.333 E0.79154
G1 X116.938 Y95.309 E0.8213
G1 X117.261 Y95.303 E0.83677
G1 X117.851 Y95.304 E0.86503
G1 X118.139 Y95.311 E0.87883
G1 X118.717 Y95.334 E0.90653
G1 X119.002 Y95.352 E0.92021
G1 X119.612 Y95.402 E0.94952
G1 X119.869 Y95.428 E0.9619
G1 X120.412 Y95.493 E0.98809
G1 X120.719 Y95.536 E1.00294
G1 X121.247 Y95.622 E1.02856
G1 X121.628 Y95.689 E1.04708
G1 X122.144 Y95.793 E1.0723
G1 X122.419 Y95.853 E1.08578
G1 X122.961 Y95.983 E1.11247
G1 X123.262 Y96.062 E1.12738
G1 X123.881 Y96.237 E1.15818
G1 X124.174 Y96.329 E1.17289
G1 X124.665 Y96.49 E1.19764
G1 X124.967 Y96.596 E1.21297
G1 X125.474 Y96.783 E1.23885
G1 X125.781 Y96.904 E1.25466
G1 X126.274 Y97.109 E1.28023
G1 X126.566 Y97.237 E1.2955
G1 X127.083 Y97.476 E1.32278
G1 X127.323 Y97.592 E1.33554
G1 X127.857 Y97.865 E1.36427
G1 X128.12 Y98.005 E1.37854
G1 X128.653 Y98.306 E1.40786
G1 X128.936 Y98.474 E1.42362
G1 X129.367 Y98.74 E1.44788
G1 X129.598 Y98.888 E1.46102
G1 X130.089 Y99.217 E1.48932
G1 X130.325 Y99.382 E1.50311
G1 X130.834 Y99.751 E1.53323
G1 X131.014 Y99.887 E1.54403
G1 X131.551 Y100.315 E1.57692
G1 X131.735 Y100.467 E1.58835
G1 X132.135 Y100.809 E1.61356
G1 X132.365 Y101.014 E1.62831
G1 X132.813 Y101.428 E1.65753
G1 X133.001 Y101.609 E1.67003
G1 X133.398 Y102.006 E1.69692
G1 X133.635 Y102.253 E1.71331
G1 X134.051 Y102.705 E1.74273
G1 X134.243 Y102.924 E1.75668
G1 X134.583 Y103.325 E1.78186
G1 X134.768 Y103.551 E1.79585
G1 X135.118 Y103.996 E1.82297
G1 X135.284 Y104.215 E1.83613
G1 X135.685 Y104.769 E1.86888
G1 X135.815 Y104.956 E1.87979
G1 X136.145 Y105.452 E1.90832
G1 X136.303 Y105.701 E1.92245
G1 X136.6 Y106.187 E1.94973
G1 X136.732 Y106.412 E1.96222
G1 X136.983 Y106.862 E1.9869
G1 X137.15 Y107.172 E2.00376
G1 X137.446 Y107.756 E2.03512
G1 X137.557 Y107.986 E2.04735
G1 X137.796 Y108.51 E2.07494
G1 X137.926 Y108.811 E2.09064
G1 X138.12 Y109.278 E2.11486
G1 X138.223 Y109.541 E2.12839
G1 X138.434 Y110.114 E2.15763
G1 X138.528 Y110.387 E2.17146
G1 X138.707 Y110.939 E2.19926
G1 X138.781 Y111.183 E2.21147
G1 X138.949 Y111.777 E2.24103
G1 X139.022 Y112.059 E2.25498
G1 X139.164 Y112.654 E2.28428
G1 X139.225 Y112.939 E2.29824
G1 X139.332 Y113.483 E2.32479
G1 X139.383 Y113.769 E2.33871
G1 X139.469 Y114.317 E2.36528
G1 X139.509 Y114.604 E2.37915
G1 X139.579 Y115.197 E2.40775
G1 X139.607 Y115.486 E2.42166
G1 X139.654 Y116.09 E2.45068
G1 X139.666 Y116.299 E2.4607
G1 X139.691 Y116.917 E2.49033
G1 X139.697 Y117.207 E2.50422
G1 X139.697 Y117.803 E2.53276
G1 X139.689 Y118.139 E2.54886
G1 X139.667 Y118.715 E2.57647
G1 X139.648 Y119.002 E2.59024
G1 X139.602 Y119.572 E2.61763
G1 X139.573 Y119.859 E2.63145
G1 X139.508 Y120.405 E2.65778
G1 X139.468 Y120.693 E2.67171
G1 X139.378 Y121.247 E2.69859
G1 X139.311 Y121.628 E2.71712
G1 X139.207 Y122.144 E2.74233
G1 X139.149 Y122.411 E2.75541
G1 X139.02 Y122.949 E2.78191
G1 X138.947 Y123.23 E2.79582
G1 X138.765 Y123.872 E2.82778
G1 X138.682 Y124.143 E2.84135
G1 X138.51 Y124.666 E2.86772
G1 X138.405 Y124.967 E2.88299
G1 X138.218 Y125.473 E2.90883
G1 X138.113 Y125.738 E2.92248
G1 X137.891 Y126.274 E2.95026
G1 X137.767 Y126.557 E2.96506
G1 X137.534 Y127.062 E2.9917
G1 X137.404 Y127.33 E3.00597
G1 X137.136 Y127.857 E3.03428
G1 X136.993 Y128.123 E3.04875
G1 X136.694 Y128.653 E3.07789
G1 X136.57 Y128.863 E3.08957
G1 X136.273 Y129.348 E3.11681
G1 X136.1 Y129.618 E3.13217
G1 X135.783 Y130.089 E3.15936
G1 X135.618 Y130.325 E3.17315
G1 X135.243 Y130.842 E3.20374
G1 X135.113 Y131.014 E3.21407
G1 X134.685 Y131.551 E3.24696
G1 X134.533 Y131.735 E3.25839
G1 X134.191 Y132.135 E3.28359
G1 X133.986 Y132.365 E3.29835
G1 X133.572 Y132.814 E3.3276
G1 X133.403 Y132.989 E3.33925
G1 X132.994 Y133.398 E3.36695
G1 X132.778 Y133.606 E3.38132
G1 X132.29 Y134.055 E3.41308
G1 X132.076 Y134.243 E3.42672
G1 X131.674 Y134.584 E3.45197
G1 X131.449 Y134.768 E3.46589
G1 X131.004 Y135.118 E3.493
G1 X130.783 Y135.285 E3.50627
G1 X130.231 Y135.685 E3.53892
G1 X130.044 Y135.815 E3.54983
G1 X129.556 Y136.14 E3.57791
G1 X129.299 Y136.303 E3.59249
G1 X128.809 Y136.602 E3.61998
G1 X128.588 Y136.732 E3.63226
G1 X128.057 Y137.027 E3.66135
G1 X127.82 Y137.154 E3.67423
G1 X127.241 Y137.447 E3.70531
G1 X126.999 Y137.564 E3.71818
G1 X126.49 Y137.796 E3.74497
G1 X126.2 Y137.921 E3.7601
G1 X125.713 Y138.123 E3.78535
G1 X125.459 Y138.223 E3.79842
G1 X124.851 Y138.446 E3.82944
G1 X124.597 Y138.534 E3.84232
G1 X124.061 Y138.707 E3.86929
G1 X123.785 Y138.79 E3.8831
G1 X123.214 Y138.951 E3.91151
G1 X122.918 Y139.027 E3.92615
G1 X122.34 Y139.165 E3.95461
G1 X122.061 Y139.225 E3.96828
G1 X121.51 Y139.333 E3.99517
G1 X121.223 Y139.384 E4.00913
G1 X120.678 Y139.47 E4.03555
G1 X120.372 Y139.511 E4.05034
G1 X119.762 Y139.583 E4.07976
G1 X119.49 Y139.609 E4.09285
G1 X118.91 Y139.654 E4.12071
G1 X118.683 Y139.667 E4.1316
G1 X118.062 Y139.691 E4.16136
G1 X117.739 Y139.697 E4.17684
G1 X117.149 Y139.696 E4.20509
G1 X116.861 Y139.689 E4.21889
G1 X116.283 Y139.666 E4.2466
G1 X115.998 Y139.648 E4.26027
G1 X115.388 Y139.598 E4.28959
G1 X115.131 Y139.572 E4.30196
G1 X114.588 Y139.507 E4.32815
G1 X114.281 Y139.464 E4.343
G1 X113.753 Y139.378 E4.36862
G1 X113.372 Y139.311 E4.38715
G1 X112.856 Y139.207 E4.41236
G1 X112.591 Y139.149 E4.42535
G1 X112.028 Y139.014 E4.45308
G1 X111.738 Y138.938 E4.46744
G1 X111.117 Y138.762 E4.49835
G1 X110.826 Y138.671 E4.51296
G1 X110.303 Y138.499 E4.53932
G1 X110.033 Y138.404 E4.55303
G1 X109.517 Y138.214 E4.57937
G1 X109.221 Y138.097 E4.59461
G1 X108.726 Y137.891 E4.62029
G1 X108.434 Y137.763 E4.63556
G1 X107.917 Y137.524 E4.66284
G1 X107.664 Y137.401 E4.67631
G1 X107.143 Y137.135 E4.70433
G1 X106.871 Y136.989 E4.71912
G1 X106.338 Y136.688 E4.74843
G1 X106.064 Y136.525 E4.7637
G1 X105.633 Y136.26 E4.78794
G1 X105.399 Y136.11 E4.80125
G1 X104.908 Y135.781 E4.82956
G1 X104.672 Y135.616 E4.84335
G1 X104.157 Y135.243 E4.8738
G1 X103.935 Y135.072 E4.88722
G1 X103.445 Y134.682 E4.91722
G1 X103.255 Y134.525 E4.92902
G1 X102.859 Y134.186 E4.95399
G1 X102.624 Y133.976 E4.96908
G1 X102.174 Y133.56 E4.99844
G1 X101.999 Y133.391 E5.01009
G1 X101.595 Y132.987 E5.03745
G1 X101.362 Y132.744 E5.05358
G1 X100.94 Y132.284 E5.08347
G1 X100.738 Y132.055 E5.0981
G1 X100.381 Y131.632 E5.12461
G1 X100.228 Y131.444 E5.13622
G1 X99.859 Y130.975 E5.1648
G1 X99.716 Y130.785 E5.17619
G1 X99.312 Y130.227 E5.20918
G1 X99.171 Y130.023 E5.22106
G1 X98.855 Y129.548 E5.24838
G1 X98.696 Y129.298 E5.26258
G1 X98.398 Y128.809 E5.29
G1 X98.264 Y128.581 E5.30267
G1 X97.972 Y128.056 E5.33144
G1 X97.846 Y127.82 E5.34425
G1 X97.554 Y127.243 E5.37523
G1 X97.436 Y126.999 E5.38821
G1 X97.194 Y126.469 E5.41611
G1 X97.074 Y126.189 E5.4307
G1 X96.874 Y125.706 E5.45574
G1 X96.77 Y125.441 E5.46937
G1 X96.554 Y124.852 E5.49942
G1 X96.467 Y124.599 E5.51224
G1 X96.282 Y124.026 E5.54107
G1 X96.21 Y123.785 E5.55312
G1 X96.049 Y123.214 E5.58153
G1 X95.965 Y122.888 E5.59766
G1 X95.834 Y122.337 E5.62478
G1 X95.766 Y122.019 E5.64036
G1 X95.667 Y121.51 E5.66519
G1 X95.616 Y121.223 E5.67915
G1 X95.53 Y120.676 E5.70568
G1 X95.489 Y120.372 E5.72037
G1 X95.416 Y119.752 E5.75027
G1 X95.391 Y119.488 E5.76297
G1 X95.344 Y118.884 E5.79198
G1 X95.333 Y118.683 E5.80162
G1 X95.308 Y118.045 E5.8322
G1 X95.303 Y117.793 E5.84428
G1 X95.303 Y117.197 E5.87282
G1 X95.311 Y116.861 E5.88892
G1 X95.336 Y116.249 E5.91825
G1 X95.347 Y116.068 E5.92694
G1 X95.349 Y116.062 E5.92724
G1 X95.352 Y115.998 E5.93031
G1 X95.398 Y115.428 E5.9577
G1 X95.427 Y115.139 E5.97161
G1 X95.492 Y114.595 E5.99785
G1 X95.532 Y114.307 E6.01178
G1 X95.622 Y113.753 E6.03866
G1 X95.687 Y113.381 E6.05675
G1 X95.793 Y112.856 E6.0824
G1 X95.851 Y112.589 E6.09548
G1 X95.982 Y112.044 E6.12233
G1 X96.053 Y111.77 E6.13589
G1 X96.232 Y111.136 E6.16744
G1 X96.318 Y110.857 E6.18142
G1 X96.49 Y110.334 E6.20779
G1 X96.536 Y110.202 E6.21448
G1 X96.595 Y110.033 E6.22306
G1 X96.781 Y109.532 E6.24865
G1 X96.887 Y109.262 E6.26255
G1 X97.109 Y108.726 E6.29033
G1 X97.238 Y108.433 E6.30567
G1 X97.466 Y107.938 E6.33177
G1 X97.596 Y107.67 E6.34603
G1 X97.865 Y107.143 E6.37437
G1 X98.005 Y106.88 E6.38864
G1 X98.306 Y106.347 E6.41796
G1 X98.475 Y106.063 E6.43379
G1 X98.735 Y105.639 E6.45761
G1 X98.892 Y105.394 E6.47154
G1 X99.217 Y104.911 E6.49943
G1 X99.382 Y104.675 E6.51322
G1 X99.758 Y104.158 E6.54384
G1 X99.928 Y103.935 E6.55727
G1 X100.315 Y103.449 E6.58702
G1 X100.467 Y103.265 E6.59845
G1 X100.809 Y102.865 E6.62366
G1 X101.014 Y102.635 E6.63841
G1 X101.452 Y102.162 E6.66929
G1 X101.609 Y101.999 E6.68013
G0 F9000 X102.4 Y101.229
G1 F1125 X102.4 Y133.768 E8.23857
G0 F9000 X104 Y135.122
G1 F1125 X104 Y99.878 E9.92657
G0 F9000 X105.6 Y98.761
G1 F1125 X105.6 Y136.238 E11.72151
G0 F9000 X107.2 Y137.164
G1 F1125 X107.2 Y97.835 E13.60516
G0 F9000 X108.8 Y97.078
G1 F1125 X108.8 Y137.921 E15.56132
G0 F9000 X110.4 Y138.53
G1 F1125 X110.4 Y96.467 E17.57591
G0 F9000 X112 Y95.994
G1 F1125 X112 Y139.006 E19.63595
G0 F9000 X113.6 Y139.351
G1 F1125 X113.6 Y95.647 E21.72914
G0 F9000 X115.2 Y95.421
G1 F1125 X115.2 Y139.578 E23.84402
G0 F9000 X116.8 Y139.686
G1 F1125 X116.8 Y95.314 E25.9692
G0 F9000 X118.4 Y95.322
G1 F1125 X118.4 Y139.678 E28.09361
G0 F9000 X120 Y139.555
G1 F1125 X120 Y95.444 E30.20629
G0 F9000 X121.6 Y95.685
G1 F1125 X121.6 Y139.316 E32.29598
G0 F9000 X123.2 Y138.955
G1 F1125 X123.2 Y96.046 E34.35109
G0 F9000 X124.8 Y96.538
G1 F1125 X124.8 Y138.464 E36.35912
G0 F9000 X126.4 Y137.835
G1 F1125 X126.4 Y97.165 E38.30699
G0 F9000 X128 Y97.942
G1 F1125 X128 Y137.058 E40.18043
G0 F9000 X129.6 Y136.111
G1 F1125 X129.6 Y98.89 E41.96312
G0 F9000 X131.2 Y100.036
G1 F1125 X131.2 Y134.964 E43.63598
G0 F9000 X132.8 Y133.585
G1 F1125 X132.8 Y101.416 E45.1767
G0 F9000 X134.4 Y103.11
G1 F1125 X134.4 Y131.891 E46.55516
G0 F9000 X136 Y129.767
G1 F1125 X136 Y105.235 E47.73011
G0 F9000 X137.6 Y108.081
G1 F1125 X137.6 Y126.919 E48.63235
G1 F2700 E43.63235
G0 F9000 X138.773 Y126.914
G0 X139.613 Y124.679
G0 X140.186 Y122.653
G0 X139.2 Y122.177
G1 F2700 E48.63235
G1 F1125 X139.2 Y112.823 E49.08035
G1 F2700 E44.08035
G0 F9000 X140.204 Y112.424
G0 X139.539 Y110.054
G0 X138.523 Y107.538
G0 X137.487 Y105.596
G0 X136.107 Y103.537
G0 X134.332 Y101.441
G0 X132.422 Y99.654
G0 X130.616 Y98.288
G0 X128.354 Y96.923
G0 X126.098 Y95.884
G0 X123.491 Y95.021
G0 X121.438 Y94.573
G0 X118.767 Y94.271
G0 X116.867 Y94.246
G0 X115.047 Y94.367
G0 X112.423 Y94.797
G0 X110.016 Y95.474
G0 X107.503 Y96.494
G0 X105.596 Y97.513
G0 X103.551 Y98.883
G0 X101.732 Y100.413
G0 X100.013 Y102.149
G0 X100.8 Y102.875
G1 F2700 E49.08035
G1 F1125 X100.8 Y132.125 E50.48127
G0 F9000 X99.2 Y130.064
G1 F1125 X99.2 Y104.936 E51.68476
G0 F9000 X97.6 Y107.662
G1 F1125 X97.6 Y127.333 E52.6269
G1 F2700 E47.6269
G0 F9000 X96.468 Y127.444
G0 X95.652 Y125.419
G0 X95.023 Y123.497
G0 X96 Y123.023
G1 F2700 E52.6269
G1 F1125 X96 Y111.974 E53.15609
G1 F2700 E48.15609
G0 F300 X96 Y111.974 Z0.324
G0 F9000 X94.815 Y112.346
G0 X94.37 Y115.018
G0 X94.238 Y117.183
G0 X94.333 Y119.604
G0 X94.731 Y122.275
G0 X95.285 Y124.407
G0 X96.22 Y126.898
G0 X97.343 Y129.113
G0 X97.673 Y129.628
G0 X98.855 Y131.412
G0 X99.859 Y130.974
;TIME_ELAPSED:70.128141
;LAYER:-5
;TYPE:SUPPORT
G1 F2700 E53.15609
G1 F1125 X100.227 Y131.443 E53.19178
G1 X100.38 Y131.63 E53.20624
G1 X100.737 Y132.054 E53.23942
G1 X100.94 Y132.283 E53.25775
G1 X101.361 Y132.743 E53.29508
G1 X101.594 Y132.986 E53.31523
G1 X101.998 Y133.39 E53.34944
G1 X102.174 Y133.559 E53.36405
G1 X102.623 Y133.975 E53.40069
G1 X102.859 Y134.185 E53.4196
G1 X103.254 Y134.524 E53.45077
G1 X103.445 Y134.681 E53.46557
G1 X103.934 Y135.071 E53.50301
G1 X104.039 Y135.152 E53.51095
G1 X99.849 Y130.962 E53.86571
G1 X99.715 Y130.784 E53.87904
G1 X99.311 Y130.226 E53.92029
G1 X99.171 Y130.022 E53.9351
G1 X98.854 Y129.547 E53.96929
G1 X98.696 Y129.297 E53.98699
G1 X98.398 Y128.807 E54.02133
G1 X98.263 Y128.58 E54.03714
G1 X97.971 Y128.054 E54.07316
G1 X97.845 Y127.818 E54.08918
G1 X97.563 Y127.262 E54.1265
G1 X107.737 Y137.436 E54.9879
G1 X107.916 Y137.523 E54.99981
G1 X108.434 Y137.762 E55.03396
G1 X108.726 Y137.89 E55.05305
G1 X109.221 Y138.096 E55.08515
G1 X109.517 Y138.213 E55.1042
G1 X110.032 Y138.403 E55.13707
G1 X110.165 Y138.449 E55.14549
G1 X96.546 Y124.831 E56.29852
G1 X96.467 Y124.598 E56.31325
G1 X96.282 Y124.025 E56.3493
G1 X96.209 Y123.783 E56.36443
G1 X96.049 Y123.213 E56.39988
G1 X95.964 Y122.887 E56.42005
G1 X95.948 Y122.818 E56.42429
G1 X112.178 Y139.049 E57.79847
G1 X112.591 Y139.148 E57.82389
G1 X112.856 Y139.205 E57.84012
G1 X113.371 Y139.309 E57.87158
G1 X113.752 Y139.377 E57.89475
G1 X113.953 Y139.409 E57.90693
G1 X95.588 Y121.043 E59.46187
G1 X95.53 Y120.674 E59.48424
G1 X95.489 Y120.37 E59.5026
G1 X95.415 Y119.751 E59.53992
G1 X95.39 Y119.487 E59.5558
G1 X95.385 Y119.427 E59.5594
G1 X115.57 Y139.612 E61.2684
G1 X115.998 Y139.647 E61.29411
G1 X116.283 Y139.665 E61.3112
G1 X116.861 Y139.688 E61.34583
G1 X117.065 Y139.693 E61.35805
G1 X95.305 Y117.932 E63.20044
G1 X95.303 Y117.791 E63.20888
G1 X95.303 Y117.196 E63.2445
G1 X95.31 Y116.86 E63.26462
G1 X95.323 Y116.536 E63.28403
G1 X118.461 Y139.674 E65.24305
G1 X118.683 Y139.666 E65.25634
G1 X118.909 Y139.653 E65.2699
G1 X119.489 Y139.608 E65.30473
G1 X119.761 Y139.582 E65.32108
G1 X119.78 Y139.579 E65.32224
G1 X95.418 Y115.217 E67.38488
G1 X95.426 Y115.138 E67.38963
G1 X95.491 Y114.593 E67.42249
G1 X95.532 Y114.305 E67.43991
G1 X95.585 Y113.97 E67.46021
G1 X121.028 Y139.413 E69.61438
G1 X121.222 Y139.382 E69.62615
G1 X121.509 Y139.331 E69.6436
G1 X122.061 Y139.224 E69.67726
G1 X122.219 Y139.189 E69.68695
G1 X95.809 Y112.779 E71.92299
G1 X95.851 Y112.588 E71.9347
G1 X95.981 Y112.043 E71.96824
G1 X96.053 Y111.769 E71.9852
G1 X96.088 Y111.644 E71.99297
G1 X123.354 Y138.91 E74.30149
G1 X123.784 Y138.789 E74.32823
G1 X124.061 Y138.706 E74.34554
G1 X124.44 Y138.583 E74.3694
G1 X96.415 Y110.557 E76.74222
G1 X96.489 Y110.333 E76.75634
G1 X96.535 Y110.201 E76.76471
G1 X96.595 Y110.032 E76.77545
G1 X96.78 Y109.531 E76.80742
G1 X96.787 Y109.515 E76.80847
G1 X125.483 Y138.211 E79.23806
G1 X125.712 Y138.122 E79.25277
G1 X126.2 Y137.919 E79.28441
G1 X126.483 Y137.797 E79.30286
G1 X97.201 Y108.514 E81.78211
