;FLAVOR:Marlin
;TIME:20434
;Filament used: 15.8932m
;Layer height: 0.2
;MINX:13.113
;MINY:13.116
;MINZ:0.2
;MAXX:222.481
;MAXY:222.481
;MAXZ:23.6
;Generated with Cura_SteamEngine 4.8.0
M140 S60
M105
M190 S60
M104 S200
M105
M109 S200
M82 ;absolute extrusion mode
; Ender 3 Custom Start G-code
G92 E0 ; Reset Extruder
G28 ; Home all axes
G1 Z2.0 F3000 ; Move Z Axis up little to prevent scratching of Heat Bed
G1 X0.1 Y20 Z0.3 F5000.0 ; Move to start position
G1 X0.1 Y200.0 Z0.3 F1500.0 E15 ; Draw the first line
G1 X0.4 Y200.0 Z0.3 F5000.0 ; Move to side a little
G1 X0.4 Y20 Z0.3 F1500.0 E30 ; Draw the second line
G92 E0 ; Reset Extruder
G1 Z2.0 F3000 ; Move Z Axis up little to prevent scratching of Heat Bed
G1 X5 Y20 Z0.3 F5000.0 ; Move over to prevent blob squish
G92 E0
G92 E0
G1 F2700 E-5
;LAYER_COUNT:118
;LAYER:0
M107
G0 F6000 X28.16 Y28.453 Z0.2
;TYPE:SKIRT
G1 F2700 E0
G1 F1200 X28.834 Y27.801 E0.03119
G1 X29.56 Y27.208 E0.06237
G1 X30.335 Y26.679 E0.09358
G1 X31.151 Y26.218 E0.12475
G1 X31.775 Y25.924 E0.14769
G1 X32.006 Y25.824 E0.15606
G1 X32.882 Y25.489 E0.18726
G1 X33.783 Y25.229 E0.21845
G1 X34.703 Y25.047 E0.24964
G1 X35.259 Y24.976 E0.26828
G1 X35.406 Y24.961 E0.2732
G1 X36.357 Y24.905 E0.30488
G1 X37.254 Y24.893 E0.33472
G1 X83.264 Y24.892 E1.86502
G1 X85.872 Y24.855 E1.95177
G1 X88.394 Y24.748 E2.03573
G1 X90.873 Y24.572 E2.11839
G1 X93.399 Y24.321 E2.20282
G1 X95.899 Y24.001 E2.28664
G1 X98.365 Y23.614 E2.36967
G1 X100.851 Y23.152 E2.45377
G1 X103.302 Y22.625 E2.53715
G1 X105.757 Y22.023 E2.62122
G1 X108.197 Y21.351 E2.7054
G1 X110.575 Y20.623 E2.78812
G1 X112.978 Y19.812 E2.87247
G1 X115.348 Y18.938 E2.95649
G1 X117.681 Y18.002 E3.04009
G1 X119.973 Y17.005 E3.12323
G1 X122.287 Y15.919 E3.20824
G1 X124.527 Y14.792 E3.29164
G1 X125.08 Y14.497 E3.31249
G1 X125.507 Y14.279 E3.32844
G1 X126.362 Y13.894 E3.35962
G1 X127.247 Y13.584 E3.39081
G1 X128.155 Y13.349 E3.42201
G1 X129.08 Y13.193 E3.45321
G1 X130.014 Y13.116 E3.48438
G1 X131.248 Y13.137 E3.52543
G1 X131.508 Y13.156 E3.5341
G1 X132.439 Y13.264 E3.56527
G1 X133.358 Y13.452 E3.59647
G1 X134.258 Y13.716 E3.62767
G1 X135.132 Y14.057 E3.65887
G1 X135.778 Y14.366 E3.68269
G1 X135.905 Y14.432 E3.68745
G1 X136.514 Y14.773 E3.71066
G1 X136.708 Y14.89 E3.7182
G1 X137.49 Y15.409 E3.74941
G1 X138.224 Y15.991 E3.78057
G1 X138.689 Y16.418 E3.80157
G1 X139.35 Y17.06 E3.83221
G1 X141.093 Y18.801 E3.91415
G1 X141.718 Y19.442 E3.94393
G1 X142.147 Y19.909 E3.96502
G1 X142.424 Y20.234 E3.97922
G1 X142.58 Y20.424 E3.9874
G1 X143.321 Y21.441 E4.02925
G1 X143.381 Y21.534 E4.03293
G1 X143.647 Y21.967 E4.04984
G1 X143.779 Y22.194 E4.05857
G1 X144.326 Y23.265 E4.09857
G1 X144.373 Y23.371 E4.10243
G1 X144.611 Y23.954 E4.12337
G1 X144.704 Y24.201 E4.13215
G1 X145.048 Y25.278 E4.16975
G1 X145.068 Y25.354 E4.17237
G1 X145.211 Y25.968 E4.19333
G1 X145.257 Y26.195 E4.20104
G1 X145.399 Y27.08 E4.23085
G1 X145.424 Y27.29 E4.23788
G1 X145.493 Y28.163 E4.26701
G1 X145.497 Y28.266 E4.27044
G1 X145.502 Y28.963 E4.29362
G1 X145.496 Y29.207 E4.30174
G1 X145.409 Y30.339 E4.3395
G1 X145.377 Y30.588 E4.34785
G1 X145.277 Y31.22 E4.36913
G1 X145.072 Y32.301 E4.40573
G1 X144.951 Y32.892 E4.42579
G1 X144.511 Y35.403 E4.51058
G1 X144.153 Y37.857 E4.59306
G1 X143.856 Y40.385 E4.67772
G1 X143.633 Y42.89 E4.76137
G1 X143.482 Y45.405 E4.84517
G1 X143.401 Y47.903 E4.9283
G1 X143.392 Y50.422 E5.01208
G1 X143.454 Y52.95 E5.09619
G1 X143.587 Y55.468 E5.18005
G1 X143.791 Y57.98 E5.26388
G1 X144.065 Y60.469 E5.34716
G1 X144.41 Y62.964 E5.43094
G1 X144.827 Y65.453 E5.51487
G1 X145.313 Y67.926 E5.5987
G1 X145.863 Y70.351 E5.6814
G1 X146.495 Y72.818 E5.76611
G1 X147.202 Y75.285 E5.85146
G1 X147.576 Y76.493 E5.89352
G1 X148.874 Y80.573 E6.03593
G1 X149.959 Y83.779 E6.1485
G1 X152.776 Y91.629 E6.42589
G1 X154 Y94.856 E6.54068
G1 X157.085 Y102.559 E6.81667
G1 X158.423 Y105.729 E6.93111
G1 X161.794 Y113.327 E7.20758
G1 X163.243 Y116.44 E7.32178
G1 X166.878 Y123.891 E7.59752
G1 X168.439 Y126.949 E7.71172
G1 X172.342 Y134.262 E7.98742
G1 X174.042 Y137.31 E8.1035
G1 X175.224 Y139.342 E8.18169
G1 X176.565 Y141.572 E8.26824
G1 X177.92 Y143.691 E8.35189
G1 X179.334 Y145.769 E8.43549
G1 X180.818 Y147.822 E8.51974
G1 X182.336 Y149.801 E8.6027
G1 X183.936 Y151.77 E8.68709
G1 X185.953 Y154.098 E8.78953
G1 X217.031 Y188.786 E10.33858
G1 X217.504 Y189.328 E10.3625
G1 X217.903 Y189.813 E10.38339
G1 X218.31 Y190.337 E10.40546
G1 X218.485 Y190.568 E10.4151
G1 X218.977 Y191.237 E10.44272
G1 X219.5 Y192.015 E10.4739
G1 X219.809 Y192.556 E10.49462
G1 X220.196 Y193.279 E10.5219
G1 X220.354 Y193.587 E10.53341
G1 X220.664 Y194.211 E10.55659
G1 X221.045 Y195.068 E10.58778
G1 X221.239 Y195.597 E10.60652
G1 X221.451 Y196.227 E10.62863
G1 X221.545 Y196.52 E10.63886
G1 X221.788 Y197.315 E10.66651
G1 X222.021 Y198.211 E10.6973
G1 X222.032 Y198.262 E10.69904
G1 X222.152 Y198.916 E10.72115
G1 X222.261 Y199.628 E10.74511
G1 X222.298 Y199.892 E10.75398
G1 X222.392 Y200.624 E10.77852
G1 X222.472 Y201.558 E10.8097
G1 X222.481 Y202.192 E10.83079
G1 X222.469 Y202.981 E10.85704
G1 X222.46 Y203.274 E10.86679
G1 X222.43 Y203.991 E10.89066
G1 X222.318 Y205.163 E10.92981
G1 X222.249 Y205.584 E10.944
G1 X222.139 Y206.181 E10.96419
G1 X222.086 Y206.451 E10.97335
G1 X221.914 Y207.269 E11.00115
G1 X221.682 Y208.178 E11.03235
G1 X221.483 Y208.776 E11.05331
G1 X221.232 Y209.464 E11.07767
G1 X221.128 Y209.738 E11.08742
G1 X220.839 Y210.469 E11.11356
G1 X220.457 Y211.326 E11.14477
G1 X220.148 Y211.904 E11.16657
G1 X219.731 Y212.63 E11.19442
G1 X219.575 Y212.892 E11.20456
G1 X219.225 Y213.464 E11.22686
G1 X218.702 Y214.243 E11.25807
G1 X218.339 Y214.709 E11.27772
G1 X217.849 Y215.305 E11.30338
G1 X217.651 Y215.538 E11.31355
G1 X217.163 Y216.099 E11.33828
G1 X216.518 Y216.78 E11.36947
G1 X216.077 Y217.185 E11.38939
G1 X215.575 Y217.621 E11.4115
G1 X215.338 Y217.821 E11.42182
G1 X214.687 Y218.355 E11.44982
G1 X213.943 Y218.914 E11.48078
G1 X213.384 Y219.277 E11.50294
G1 X212.777 Y219.644 E11.52654
G1 X212.508 Y219.801 E11.5369
G1 X211.87 Y220.165 E11.56133
G1 X211.036 Y220.595 E11.59254
G1 X210.488 Y220.831 E11.61238
G1 X209.855 Y221.083 E11.63504
G1 X209.578 Y221.189 E11.64491
G1 X208.802 Y221.474 E11.6724
G1 X207.909 Y221.759 E11.70358
G1 X207.29 Y221.909 E11.72476
G1 X206.535 Y222.069 E11.75043
G1 X206.227 Y222.13 E11.76087
G1 X205.508 Y222.261 E11.78518
G1 X204.413 Y222.404 E11.82191
G1 X203.936 Y222.434 E11.83781
G1 X203.277 Y222.461 E11.85974
G1 X202.993 Y222.469 E11.86919
G1 X202.199 Y222.481 E11.89561
G1 X201.262 Y222.455 E11.92678
G1 X200.643 Y222.394 E11.94747
G1 X199.858 Y222.294 E11.97379
G1 X199.551 Y222.25 E11.98411
G1 X198.84 Y222.139 E12.00804
G1 X197.927 Y221.957 E12.039
G1 X197.289 Y221.782 E12.06101
G1 X196.678 Y221.595 E12.08226
G1 X196.418 Y221.513 E12.09133
G1 X195.623 Y221.248 E12.1192
G1 X194.519 Y220.812 E12.15868
G1 X194.142 Y220.632 E12.17257
G1 X193.605 Y220.364 E12.19253
G1 X193.344 Y220.23 E12.20229
G1 X192.584 Y219.825 E12.23094
G1 X191.776 Y219.349 E12.26213
G1 X191.234 Y218.974 E12.28405
G1 X190.608 Y218.513 E12.30991
G1 X190.37 Y218.333 E12.31983
G1 X189.745 Y217.846 E12.34618
G1 X189.264 Y217.448 E12.36695
G1 X188.695 Y216.95 E12.3921
G1 X154.086 Y185.944 E13.93759
G1 X152.139 Y184.25 E14.02342
G1 X150.2 Y182.654 E14.10695
G1 X148.204 Y181.106 E14.19096
G1 X146.202 Y179.641 E14.27348
G1 X144.1 Y178.193 E14.35837
G1 X142.014 Y176.841 E14.44105
G1 X139.302 Y175.201 E14.54646
G1 X137.359 Y174.07 E14.62124
G1 X134.268 Y172.347 E14.73894
G1 X126.926 Y168.427 E15.01576
G1 X123.89 Y166.878 E15.12912
G1 X116.465 Y163.255 E15.40391
G1 X113.303 Y161.783 E15.51991
G1 X105.72 Y158.42 E15.79582
G1 X102.547 Y157.078 E15.9104
G1 X94.875 Y154.008 E16.18525
G1 X91.629 Y152.776 E16.30072
G1 X83.796 Y149.965 E16.57752
G1 X80.576 Y148.875 E16.69058
G1 X76.566 Y147.599 E16.83055
G1 X74.081 Y146.847 E16.9169
G1 X71.644 Y146.183 E17.00091
G1 X69.16 Y145.581 E17.08592
G1 X66.725 Y145.067 E17.16869
G1 X64.263 Y144.616 E17.25194
G1 X61.761 Y144.231 E17.33614
G1 X59.276 Y143.922 E17.41943
G1 X56.793 Y143.682 E17.5024
G1 X54.258 Y143.51 E17.5869
G1 X51.712 Y143.41 E17.67165
G1 X49.222 Y143.382 E17.75447
G1 X46.728 Y143.425 E17.83744
G1 X44.186 Y143.54 E17.92207
G1 X41.689 Y143.725 E18.00535
G1 X39.167 Y143.983 E18.08967
G1 X36.694 Y144.307 E18.17262
G1 X34.144 Y144.715 E18.25852
G1 X32.492 Y145.02 E18.31439
G1 X31.252 Y145.261 E18.3564
G1 X30.529 Y145.377 E18.38076
G1 X30.172 Y145.422 E18.39273
G1 X29.237 Y145.499 E18.42393
G1 X28.488 Y145.504 E18.44884
G1 X28.381 Y145.501 E18.4524
G1 X27.94 Y145.479 E18.46709
G1 X27.691 Y145.462 E18.47539
G1 X26.472 Y145.311 E18.51624
G1 X26.34 Y145.287 E18.52071
G1 X25.791 Y145.172 E18.53936
G1 X25.557 Y145.117 E18.54736
G1 X24.38 Y144.77 E18.58817
G1 X24.265 Y144.729 E18.59223
G1 X23.716 Y144.517 E18.6118
G1 X23.472 Y144.415 E18.6206
G1 X22.333 Y143.86 E18.66274
G1 X22.251 Y143.814 E18.66587
G1 X21.847 Y143.576 E18.68146
G1 X21.619 Y143.435 E18.69038
G1 X20.626 Y142.742 E18.73066
G1 X20.534 Y142.67 E18.73454
G1 X20.055 Y142.273 E18.75523
G1 X19.809 Y142.057 E18.76612
G1 X19.377 Y141.657 E18.7857
G1 X18.89 Y141.179 E18.8084
G1 X16.943 Y139.233 E18.89996
G1 X16.43 Y138.706 E18.92442
G1 X15.805 Y138.006 E18.95563
G1 X15.209 Y137.209 E18.98873
G1 X15.055 Y136.982 E18.99785
G1 X14.562 Y136.184 E19.02905
G1 X14.139 Y135.347 E19.06024
G1 X13.789 Y134.477 E19.09143
G1 X13.514 Y133.58 E19.12264
G1 X13.285 Y132.471 E19.1603
G1 X13.238 Y132.164 E19.17063
G1 X13.135 Y131.231 E19.20185
G1 X13.113 Y130.294 E19.23303
G1 X13.17 Y129.358 E19.26422
G1 X13.307 Y128.43 E19.29542
G1 X13.523 Y127.517 E19.32662
G1 X13.862 Y126.505 E19.36212
G1 X13.945 Y126.292 E19.36972
G1 X14.458 Y125.167 E19.41085
G1 X14.559 Y124.976 E19.41803
G1 X15.747 Y122.643 E19.50511
G1 X16.835 Y120.352 E19.58946
G1 X17.836 Y118.078 E19.6721
G1 X18.816 Y115.676 E19.75839
G1 X19.671 Y113.383 E19.83978
G1 X20.492 Y110.986 E19.92405
G1 X21.237 Y108.59 E20.00751
G1 X21.92 Y106.157 E20.09156
G1 X22.531 Y103.713 E20.17535
G1 X23.073 Y101.257 E20.259
G1 X23.54 Y98.798 E20.34225
G1 X23.948 Y96.281 E20.42706
G1 X24.273 Y93.827 E20.50939
G1 X24.536 Y91.307 E20.59366
G1 X24.725 Y88.793 E20.67751
G1 X24.843 Y86.304 E20.76039
G1 X24.893 Y83.229 E20.86268
G1 X24.894 Y37.045 E22.39876
G1 X24.904 Y36.353 E22.42178
G1 X24.958 Y35.417 E22.45296
G1 X25.156 Y34.165 E22.49512
G1 X25.213 Y33.904 E22.50401
G1 X25.452 Y32.997 E22.53521
G1 X25.768 Y32.114 E22.5664
G1 X26.157 Y31.261 E22.59758
G1 X26.618 Y30.444 E22.62878
G1 X27.36 Y29.393 E22.67157
G1 X27.545 Y29.161 E22.68144
G1 X28.16 Y28.453 E22.71263
G0 F6000 X28.462 Y28.716
G1 F1200 X29.125 Y28.077 E22.74326
G1 X29.84 Y27.498 E22.77386
G1 X30.604 Y26.983 E22.8045
G1 X31.409 Y26.536 E22.83513
G1 X31.934 Y26.291 E22.8544
G1 X32.165 Y26.191 E22.86277
G1 X33.025 Y25.863 E22.89338
G1 X33.91 Y25.61 E22.924
G1 X34.814 Y25.435 E22.95462
G1 X35.3 Y25.374 E22.97092
G1 X35.447 Y25.359 E22.97583
G1 X36.364 Y25.305 E23.00638
G1 X37.254 Y25.293 E23.03599
G1 X83.27 Y25.292 E24.56649
G1 X85.895 Y25.255 E24.6538
G1 X88.403 Y25.148 E24.73729
G1 X90.904 Y24.971 E24.82069
G1 X93.456 Y24.717 E24.90598
G1 X95.941 Y24.399 E24.98931
G1 X98.429 Y24.009 E25.07307
G1 X100.936 Y23.543 E25.15788
G1 X103.41 Y23.011 E25.24205
G1 X105.862 Y22.41 E25.32602
G1 X108.274 Y21.745 E25.40923
G1 X110.715 Y20.998 E25.49414
G1 X113.14 Y20.18 E25.57926
G1 X115.457 Y19.325 E25.6614
G1 X117.854 Y18.363 E25.74731
G1 X120.153 Y17.363 E25.83069
G1 X122.429 Y16.295 E25.91431
G1 X124.716 Y15.144 E25.99947
G1 X125.268 Y14.85 E26.02027
G1 X125.686 Y14.637 E26.03588
G1 X126.526 Y14.259 E26.06651
G1 X127.395 Y13.956 E26.09712
G1 X128.288 Y13.73 E26.12776
G1 X129.197 Y13.582 E26.15839
G1 X130.115 Y13.513 E26.18901
G1 X131.219 Y13.536 E26.22574
G1 X131.479 Y13.555 E26.23441
G1 X132.393 Y13.662 E26.26502
G1 X133.295 Y13.848 E26.29565
G1 X134.177 Y14.111 E26.32626
G1 X135.033 Y14.45 E26.35688
G1 X135.594 Y14.721 E26.3776
G1 X135.721 Y14.787 E26.38236
G1 X136.307 Y15.116 E26.40472
G1 X136.501 Y15.233 E26.41225
G1 X137.268 Y15.742 E26.44287
G1 X137.988 Y16.316 E26.47349
G1 X138.411 Y16.705 E26.49261
G1 X139.067 Y17.343 E26.52304
G1 X140.914 Y19.189 E26.6099
G1 X141.432 Y19.721 E26.63459
G1 X141.845 Y20.171 E26.65491
G1 X142.114 Y20.488 E26.66874
G1 X142.27 Y20.678 E26.67691
G1 X142.985 Y21.657 E26.71723
G1 X143.045 Y21.75 E26.72092
G1 X143.301 Y22.169 E26.73725
G1 X143.433 Y22.396 E26.74598
G1 X143.96 Y23.427 E26.78449
G1 X144.007 Y23.533 E26.78835
G1 X144.237 Y24.095 E26.80854
G1 X144.33 Y24.342 E26.81732
G1 X144.661 Y25.379 E26.85353
G1 X144.681 Y25.455 E26.85614
G1 X144.819 Y26.048 E26.87639
G1 X144.865 Y26.275 E26.8841
G1 X145.002 Y27.127 E26.9128
G1 X145.027 Y27.337 E26.91983
G1 X145.093 Y28.179 E26.94792
G1 X145.097 Y28.282 E26.95135
G1 X145.102 Y28.954 E26.9737
G1 X145.096 Y29.198 E26.98182
G1 X145.013 Y30.288 E27.01818
G1 X144.981 Y30.537 E27.02653
G1 X144.884 Y31.146 E27.04704
G1 X144.681 Y32.221 E27.08343
G1 X144.553 Y32.848 E27.10471
G1 X144.121 Y35.313 E27.18795
G1 X143.754 Y37.823 E27.27232
G1 X143.459 Y40.336 E27.35647
G1 X143.234 Y42.867 E27.44099
G1 X143.084 Y45.368 E27.52432
G1 X143.001 Y47.924 E27.60938
G1 X142.992 Y50.431 E27.69276
G1 X143.055 Y52.981 E27.7776
G1 X143.187 Y55.488 E27.8611
G1 X143.39 Y57.986 E27.94446
G1 X143.67 Y60.531 E28.02961
G1 X144.018 Y63.048 E28.11413
G1 X144.428 Y65.497 E28.19671
G1 X144.923 Y68.013 E28.282
G1 X145.479 Y70.467 E28.36569
G1 X146.111 Y72.931 E28.4503
G1 X146.807 Y75.361 E28.53437
G1 X147.195 Y76.614 E28.578
G1 X148.483 Y80.663 E28.71931
G1 X149.606 Y83.981 E28.83582
G1 X152.393 Y91.748 E29.11028
G1 X153.641 Y95.036 E29.22725
G1 X156.694 Y102.66 E29.5004
G1 X158.077 Y105.937 E29.61871
G1 X161.404 Y113.435 E29.89154
G1 X162.89 Y116.627 E30.00865
G1 X166.509 Y124.047 E30.28322
G1 X168.077 Y127.119 E30.39794
G1 X172.02 Y134.506 E30.67644
G1 X173.694 Y137.507 E30.79074
G1 X174.899 Y139.578 E30.87043
G1 X176.208 Y141.756 E30.95495
G1 X177.595 Y143.925 E31.04058
G1 X179.007 Y145.999 E31.12403
G1 X180.48 Y148.037 E31.20766
G1 X182.042 Y150.073 E31.29301
G1 X183.62 Y152.016 E31.37626
G1 X185.665 Y154.376 E31.48013
G1 X216.729 Y189.049 E33.02849
G1 X217.202 Y189.591 E33.05242
G1 X217.587 Y190.059 E33.07257
G1 X217.994 Y190.583 E33.09464
G1 X218.162 Y190.805 E33.1039
G1 X218.654 Y191.474 E33.13152
G1 X219.167 Y192.239 E33.16216
G1 X219.457 Y192.745 E33.18155
G1 X219.842 Y193.464 E33.20868
G1 X219.996 Y193.765 E33.21993
G1 X220.306 Y194.389 E33.2431
G1 X220.679 Y195.23 E33.2737
G1 X220.859 Y195.724 E33.29119
G1 X221.071 Y196.354 E33.31329
G1 X221.162 Y196.637 E33.32318
G1 X221.405 Y197.432 E33.35083
G1 X221.63 Y198.295 E33.38049
G1 X221.641 Y198.346 E33.38223
G1 X221.757 Y198.977 E33.40357
G1 X221.866 Y199.689 E33.42753
G1 X221.902 Y199.943 E33.43606
G1 X221.996 Y200.675 E33.4606
G1 X222.073 Y201.592 E33.49121
G1 X222.081 Y202.186 E33.51097
G1 X222.069 Y202.975 E33.53721
G1 X222.061 Y203.257 E33.5466
G1 X222.031 Y203.974 E33.57047
G1 X221.923 Y205.103 E33.60819
G1 X221.856 Y205.512 E33.62197
G1 X221.746 Y206.109 E33.64216
G1 X221.694 Y206.369 E33.65098
G1 X221.522 Y207.187 E33.67878
G1 X221.294 Y208.079 E33.70941
G1 X221.107 Y208.639 E33.72904
G1 X220.856 Y209.327 E33.7534
G1 X220.756 Y209.591 E33.76279
G1 X220.467 Y210.322 E33.78894
G1 X220.091 Y211.163 E33.81958
G1 X219.801 Y211.705 E33.84002
G1 X219.384 Y212.431 E33.86787
G1 X219.234 Y212.683 E33.87762
G1 X218.884 Y213.255 E33.89992
G1 X218.369 Y214.019 E33.93057
G1 X218.03 Y214.455 E33.94894
G1 X217.54 Y215.051 E33.9746
G1 X217.35 Y215.276 E33.9844
G1 X216.862 Y215.837 E34.00913
G1 X216.228 Y216.505 E34.03976
G1 X215.815 Y216.883 E34.05838
G1 X215.313 Y217.319 E34.08049
G1 X215.085 Y217.512 E34.09043
G1 X214.434 Y218.046 E34.11843
G1 X213.716 Y218.585 E34.1483
G1 X213.176 Y218.935 E34.1697
G1 X212.574 Y219.299 E34.1931
G1 X212.31 Y219.454 E34.20328
G1 X211.672 Y219.818 E34.22771
G1 X210.853 Y220.239 E34.25834
G1 X210.34 Y220.459 E34.2769
G1 X209.707 Y220.711 E34.29956
G1 X209.44 Y220.813 E34.30907
G1 X208.664 Y221.098 E34.33657
G1 X207.787 Y221.378 E34.36719
