;FLAVOR:Marlin
;TIME:8932
;Filament used: 5.1518m
;Layer height: 0.2
;MINX:62.429
;MINY:73.908
;MINZ:0.2
;MAXX:172.554
;MAXY:160.014
;MAXZ:9.6
;Generated with Cura_SteamEngine 4.8.0
M140 S60
M105
M190 S60
M104 S200
M105
M109 S200
M82 ;absolute extrusion mode
; Ender 3 Custom Start G-code
G92 E0 ; Reset Extruder
G28 ; Home all axes
G1 Z2.0 F3000 ; Move Z Axis up little to prevent scratching of Heat Bed
G1 X0.1 Y20 Z0.3 F5000.0 ; Move to start position
G1 X0.1 Y200.0 Z0.3 F1500.0 E15 ; Draw the first line
G1 X0.4 Y200.0 Z0.3 F5000.0 ; Move to side a little
G1 X0.4 Y20 Z0.3 F1500.0 E30 ; Draw the second line
G92 E0 ; Reset Extruder
G1 Z2.0 F3000 ; Move Z Axis up little to prevent scratching of Heat Bed
G1 X5 Y20 Z0.3 F5000.0 ; Move over to prevent blob squish
G92 E0
G92 E0
G1 F2700 E-5
;LAYER_COUNT:48
;LAYER:0
M107
G0 F6000 X66.458 Y77.036 Z0.2
;TYPE:SKIRT
G1 F2700 E0
G1 F1200 X67.172 Y76.428 E0.03119
G1 X67.935 Y75.883 E0.06238
G1 X68.742 Y75.404 E0.09359
G1 X69.656 Y74.967 E0.12729
G1 X70.001 Y74.821 E0.13975
G1 X70.88 Y74.492 E0.17096
G1 X71.783 Y74.24 E0.20214
G1 X73.056 Y74.02 E0.24511
G1 X73.269 Y73.996 E0.25224
G1 X74.299 Y73.929 E0.28657
G1 X75.331 Y73.91 E0.3209
G1 X75.533 Y73.908 E0.32762
G1 X159.747 Y73.908 E3.12859
G1 X160.633 Y73.92 E3.15806
G1 X161.887 Y74.011 E3.19988
G1 X161.956 Y74.02 E3.20219
G1 X162.475 Y74.101 E3.21966
G1 X162.737 Y74.148 E3.22852
G1 X163.653 Y74.353 E3.25974
G1 X164.547 Y74.635 E3.29092
G1 X165.714 Y75.136 E3.33316
G1 X165.822 Y75.19 E3.33717
G1 X166.269 Y75.427 E3.354
G1 X166.473 Y75.541 E3.36177
G1 X167.271 Y76.033 E3.39295
G1 X168.025 Y76.591 E3.42415
G1 X168.728 Y77.211 E3.45533
G1 X169.171 Y77.661 E3.47633
G1 X169.428 Y77.938 E3.4889
G1 X170.036 Y78.652 E3.52009
G1 X170.581 Y79.416 E3.5513
G1 X171.059 Y80.223 E3.5825
G1 X171.508 Y81.166 E3.61724
G1 X171.664 Y81.538 E3.63065
G1 X171.99 Y82.418 E3.66187
G1 X172.239 Y83.322 E3.69305
G1 X172.451 Y84.566 E3.73503
G1 X172.475 Y84.78 E3.74219
G1 X172.529 Y85.432 E3.76395
G1 X172.545 Y85.898 E3.77946
G1 X172.554 Y86.653 E3.80457
G1 X172.554 Y142.471 E5.66108
G1 X172.543 Y143.184 E5.6848
G1 X172.455 Y144.413 E5.72578
G1 X172.445 Y144.491 E5.7284
G1 X172.361 Y145.035 E5.74671
G1 X172.312 Y145.308 E5.75593
G1 X172.25 Y145.624 E5.76664
G1 X172.187 Y145.925 E5.77687
G1 X171.679 Y148.525 E5.86498
G1 X171.334 Y150.572 E5.93403
G1 X171.302 Y150.769 E5.94066
G1 X171.112 Y151.687 E5.97184
G1 X170.845 Y152.586 E6.00303
G1 X170.502 Y153.459 E6.03423
G1 X170.086 Y154.3 E6.06544
G1 X169.6 Y155.102 E6.09663
G1 X169.047 Y155.86 E6.12784
G1 X168.432 Y156.567 E6.159
G1 X167.759 Y157.22 E6.19019
G1 X167.032 Y157.814 E6.22142
G1 X166.258 Y158.343 E6.2526
G1 X165.442 Y158.804 E6.28377
G1 X164.589 Y159.194 E6.31497
G1 X163.706 Y159.51 E6.34616
G1 X162.799 Y159.75 E6.37736
G1 X161.875 Y159.912 E6.40856
G1 X160.753 Y160.001 E6.446
G1 X160.433 Y160.01 E6.45665
G1 X160.124 Y160.014 E6.46693
G1 X75.064 Y160.013 E9.29603
G1 X74.365 Y160.002 E9.31928
G1 X73.429 Y159.947 E9.35047
G1 X72.5 Y159.813 E9.38169
G1 X71.587 Y159.6 E9.41287
G1 X70.695 Y159.31 E9.44407
G1 X69.831 Y158.945 E9.47526
G1 X69.001 Y158.508 E9.50646
G1 X68.212 Y158.002 E9.53764
G1 X67.468 Y157.43 E9.56885
G1 X66.776 Y156.797 E9.60004
G1 X66.14 Y156.108 E9.63123
G1 X65.566 Y155.367 E9.6624
G1 X65.056 Y154.579 E9.69362
G1 X64.616 Y153.751 E9.72481
G1 X64.247 Y152.889 E9.756
G1 X63.954 Y151.998 E9.78719
G1 X63.698 Y150.874 E9.82553
G1 X63.443 Y149.39 E9.87562
G1 X63.406 Y149.156 E9.8835
G1 X62.933 Y146.654 E9.96819
G1 X62.678 Y145.386 E10.0112
G1 X62.528 Y144.411 E10.04401
G1 X62.505 Y144.199 E10.05111
G1 X62.45 Y143.448 E10.07615
G1 X62.438 Y143.053 E10.0893
G1 X62.43 Y142.367 E10.11211
G1 X62.43 Y123.369 E10.74399
G1 X62.441 Y122.651 E10.76787
G1 X62.467 Y122.048 E10.78795
G1 X62.532 Y121.118 E10.81896
G1 X62.676 Y118.587 E10.90327
G1 X62.747 Y116.037 E10.98812
G1 X62.747 Y113.513 E11.07207
G1 X62.677 Y111.06 E11.15369
G1 X62.507 Y108.372 E11.24327
G1 X62.473 Y107.745 E11.26416
G1 X62.459 Y107.377 E11.2764
G1 X62.431 Y106.027 E11.32131
G1 X62.429 Y105.799 E11.3289
G1 X62.43 Y86.505 E11.97062
G1 X62.441 Y85.822 E11.99334
G1 X62.539 Y84.526 E12.03657
G1 X62.549 Y84.452 E12.03905
G1 X62.627 Y83.961 E12.05559
G1 X62.674 Y83.702 E12.06434
G1 X62.88 Y82.787 E12.09554
G1 X63.164 Y81.893 E12.12673
G1 X63.658 Y80.747 E12.16824
G1 X63.712 Y80.639 E12.17226
G1 X63.942 Y80.204 E12.18862
G1 X64.054 Y80.003 E12.19628
G1 X64.545 Y79.204 E12.22747
G1 X65.102 Y78.449 E12.25867
G1 X65.722 Y77.745 E12.28987
G1 X66.178 Y77.296 E12.31116
G1 X66.458 Y77.036 E12.32387
G0 F6000 X66.73 Y77.329
G1 F1200 X67.431 Y76.733 E12.35447
G1 X68.182 Y76.199 E12.38512
G1 X68.976 Y75.733 E12.41574
G1 X69.812 Y75.335 E12.44654
G1 X70.157 Y75.189 E12.459
G1 X71.02 Y74.867 E12.48963
G1 X71.907 Y74.622 E12.52024
G1 X73.101 Y74.418 E12.56053
G1 X73.314 Y74.394 E12.56766
G1 X74.306 Y74.329 E12.60072
G1 X75.533 Y74.308 E12.64154
G1 X159.747 Y74.308 E15.44251
G1 X160.627 Y74.32 E15.47178
G1 X161.835 Y74.408 E15.51206
G1 X161.904 Y74.417 E15.51438
G1 X162.405 Y74.495 E15.53124
G1 X162.667 Y74.542 E15.5401
G1 X163.565 Y74.743 E15.5707
G1 X164.442 Y75.022 E15.60131
G1 X165.535 Y75.494 E15.64091
G1 X165.643 Y75.548 E15.64493
G1 X166.074 Y75.776 E15.66114
G1 X166.278 Y75.89 E15.66892
G1 X167.061 Y76.373 E15.69951
G1 X167.8 Y76.923 E15.73015
G1 X168.488 Y77.535 E15.76078
G1 X168.878 Y77.933 E15.77931
G1 X169.135 Y78.21 E15.79188
G1 X169.731 Y78.912 E15.82251
G1 X170.264 Y79.662 E15.85311
G1 X170.73 Y80.456 E15.88373
G1 X171.139 Y81.321 E15.91556
G1 X171.295 Y81.693 E15.92897
G1 X171.614 Y82.556 E15.95958
G1 X171.857 Y83.444 E15.9902
G1 X172.054 Y84.611 E16.02956
G1 X172.078 Y84.825 E16.03672
G1 X172.13 Y85.454 E16.05772
G1 X172.145 Y85.903 E16.07266
G1 X172.154 Y86.653 E16.0976
G1 X172.154 Y142.465 E17.95392
G1 X172.143 Y143.178 E17.97764
G1 X172.058 Y144.362 E18.01712
G1 X172.048 Y144.44 E18.01973
G1 X171.967 Y144.965 E18.0374
G1 X171.918 Y145.238 E18.04663
G1 X171.859 Y145.542 E18.05693
G1 X171.795 Y145.845 E18.06723
G1 X171.285 Y148.46 E18.15584
G1 X170.907 Y150.705 E18.23156
G1 X170.72 Y151.606 E18.26217
G1 X170.455 Y152.488 E18.2928
G1 X170.115 Y153.343 E18.3234
G1 X169.703 Y154.166 E18.35401
G1 X169.22 Y154.95 E18.38464
G1 X168.671 Y155.689 E18.41526
G1 X168.06 Y156.378 E18.44589
G1 X167.391 Y157.011 E18.47652
G1 X166.67 Y157.584 E18.50715
G1 X165.903 Y158.092 E18.53775
G1 X165.093 Y158.531 E18.56839
G1 X164.249 Y158.898 E18.599
G1 X163.377 Y159.191 E18.6296
G1 X162.482 Y159.407 E18.66022
G1 X161.571 Y159.545 E18.69087
G1 X160.742 Y159.601 E18.7185
G1 X160.422 Y159.61 E18.72915
G1 X160.124 Y159.614 E18.73906
G1 X75.07 Y159.613 E21.56797
G1 X74.371 Y159.602 E21.59122
G1 X73.452 Y159.547 E21.62184
G1 X72.541 Y159.413 E21.65247
G1 X71.646 Y159.201 E21.68306
G1 X70.772 Y158.911 E21.71369
G1 X69.926 Y158.547 E21.74432
G1 X69.115 Y158.111 E21.77495
G1 X68.345 Y157.606 E21.80557
G1 X67.622 Y157.036 E21.83619
G1 X66.951 Y156.406 E21.86681
G1 X66.338 Y155.72 E21.89741
G1 X65.786 Y154.983 E21.92803
G1 X65.3 Y154.201 E21.95866
G1 X64.884 Y153.379 E21.9893
G1 X64.54 Y152.525 E22.01992
G1 X64.272 Y151.644 E22.05055
G1 X64.093 Y150.806 E22.07905
G1 X63.838 Y149.328 E22.12893
G1 X63.798 Y149.079 E22.13732
G1 X63.32 Y146.546 E22.22305
G1 X63.071 Y145.307 E22.26509
G1 X62.926 Y144.368 E22.29669
G1 X62.903 Y144.156 E22.30378
G1 X62.849 Y143.432 E22.32793
G1 X62.838 Y143.048 E22.34071
G1 X62.83 Y142.367 E22.36336
G1 X62.83 Y123.376 E22.995
G1 X62.841 Y122.658 E23.01889
G1 X62.866 Y122.076 E23.03826
G1 X62.93 Y121.167 E23.06857
G1 X63.076 Y118.587 E23.15452
G1 X63.147 Y116.048 E23.239
G1 X63.147 Y113.536 E23.32255
G1 X63.075 Y111.024 E23.40613
G1 X62.907 Y108.35 E23.49524
G1 X62.873 Y107.723 E23.51613
G1 X62.859 Y107.369 E23.52791
G1 X62.831 Y106.019 E23.57282
G1 X62.829 Y105.799 E23.58014
G1 X62.83 Y86.511 E24.22166
G1 X62.841 Y85.828 E24.24438
G1 X62.935 Y84.579 E24.28604
G1 X62.945 Y84.505 E24.28852
G1 X63.02 Y84.032 E24.30445
G1 X63.067 Y83.773 E24.31321
G1 X63.271 Y82.875 E24.34384
G1 X63.552 Y81.999 E24.37443
G1 X64.016 Y80.926 E24.41332
G1 X64.07 Y80.818 E24.41733
G1 X64.291 Y80.398 E24.43312
G1 X64.403 Y80.197 E24.44077
G1 X64.886 Y79.413 E24.4714
G1 X65.435 Y78.674 E24.50202
G1 X66.046 Y77.986 E24.53262
G1 X66.45 Y77.589 E24.55146
G1 X66.73 Y77.329 E24.56417
G0 F6000 X67.002 Y77.623
G1 F1200 X67.691 Y77.038 E24.59423
G1 X68.428 Y76.516 E24.62427
G1 X69.209 Y76.062 E24.65432
G1 X69.968 Y75.704 E24.68223
G1 X70.313 Y75.558 E24.69469
G1 X71.159 Y75.243 E24.72471
G1 X72.03 Y75.004 E24.75475
G1 X73.146 Y74.815 E24.7924
G1 X73.359 Y74.791 E24.79953
G1 X74.313 Y74.729 E24.83133
G1 X75.533 Y74.708 E24.87191
G1 X159.747 Y74.708 E27.67288
G1 X160.62 Y74.72 E27.70192
G1 X161.783 Y74.805 E27.7407
G1 X162.334 Y74.888 E27.75924
G1 X162.596 Y74.935 E27.76809
G1 X163.477 Y75.134 E27.79813
G1 X164.337 Y75.41 E27.82817
G1 X165.357 Y75.852 E27.86514
G1 X165.465 Y75.906 E27.86916
G1 X165.879 Y76.125 E27.88474
G1 X166.083 Y76.239 E27.89251
G1 X166.851 Y76.714 E27.92254
G1 X167.574 Y77.255 E27.95258
G1 X168.246 Y77.858 E27.98261
G1 X168.584 Y78.206 E27.99874
G1 X168.841 Y78.483 E28.01131
G1 X169.426 Y79.171 E28.04135
G1 X169.947 Y79.909 E28.07139
G1 X170.401 Y80.689 E28.10141
G1 X170.77 Y81.475 E28.13029
G1 X170.926 Y81.847 E28.14371
G1 X171.238 Y82.695 E28.17376
G1 X171.474 Y83.567 E28.20381
G1 X171.656 Y84.655 E28.2405
G1 X171.68 Y84.869 E28.24766
G1 X171.73 Y85.476 E28.26792
G1 X171.745 Y85.908 E28.28229
G1 X171.754 Y86.653 E28.30708
G1 X171.754 Y142.458 E30.16316
G1 X171.743 Y143.171 E30.18687
G1 X171.661 Y144.311 E30.22489
G1 X171.651 Y144.389 E30.2275
G1 X171.574 Y144.894 E30.2445
G1 X171.525 Y145.167 E30.25372
G1 X171.468 Y145.46 E30.26365
G1 X171.393 Y145.82 E30.27588
G1 X170.896 Y148.365 E30.36212
G1 X170.512 Y150.64 E30.43886
G1 X170.328 Y151.525 E30.46893
G1 X170.066 Y152.389 E30.49896
G1 X169.729 Y153.227 E30.529
G1 X169.319 Y154.032 E30.55904
G1 X168.84 Y154.797 E30.58906
G1 X168.295 Y155.517 E30.6191
G1 X167.688 Y156.186 E30.64914
G1 X167.025 Y156.798 E30.67915
G1 X166.309 Y157.35 E30.70922
G1 X165.548 Y157.836 E30.73926
G1 X164.747 Y158.253 E30.76929
G1 X163.912 Y158.597 E30.79933
G1 X163.05 Y158.866 E30.82936
G1 X162.168 Y159.058 E30.85938
G1 X161.272 Y159.171 E30.88942
G1 X160.731 Y159.201 E30.90744
G1 X160.411 Y159.21 E30.91809
G1 X160.124 Y159.214 E30.92764
G1 X75.077 Y159.213 E33.75631
G1 X74.378 Y159.202 E33.77956
G1 X73.476 Y159.148 E33.80962
G1 X72.583 Y159.014 E33.83965
G1 X71.705 Y158.802 E33.86969
G1 X70.849 Y158.513 E33.89974
G1 X70.023 Y158.149 E33.92976
G1 X69.231 Y157.714 E33.95982
G1 X68.482 Y157.21 E33.98984
G1 X67.779 Y156.643 E34.01988
G1 X67.13 Y156.015 E34.04992
G1 X66.539 Y155.332 E34.07996
G1 X66.011 Y154.6 E34.10998
G1 X65.549 Y153.823 E34.14005
G1 X65.158 Y153.009 E34.17008
G1 X64.84 Y152.164 E34.20011
G1 X64.599 Y151.294 E34.23014
G1 X64.487 Y150.738 E34.249
G1 X64.233 Y149.265 E34.29872
G1 X64.193 Y149.013 E34.3072
G1 X63.697 Y146.397 E34.39576
G1 X63.463 Y145.229 E34.43538
G1 X63.324 Y144.325 E34.4658
G1 X63.301 Y144.113 E34.47289
G1 X63.249 Y143.417 E34.49611
G1 X63.238 Y143.043 E34.50855
G1 X63.23 Y142.367 E34.53104
G1 X63.23 Y123.382 E35.16248
G1 X63.241 Y122.664 E35.18637
G1 X63.265 Y122.104 E35.20501
G1 X63.327 Y121.219 E35.23452
G1 X63.476 Y118.585 E35.32226
G1 X63.547 Y116.059 E35.40631
G1 X63.547 Y113.525 E35.49059
G1 X63.475 Y111.017 E35.57404
G1 X63.306 Y108.328 E35.66366
G1 X63.272 Y107.701 E35.68454
G1 X63.259 Y107.361 E35.69586
G1 X63.231 Y106.011 E35.74077
G1 X63.229 Y105.799 E35.74782
G1 X63.23 Y86.518 E36.38911
G1 X63.241 Y85.835 E36.41183
G1 X63.332 Y84.633 E36.45192
G1 X63.342 Y84.559 E36.4544
G1 X63.414 Y84.104 E36.46973
G1 X63.461 Y83.845 E36.47848
G1 X63.661 Y82.964 E36.50853
G1 X63.939 Y82.105 E36.53856
G1 X64.374 Y81.104 E36.57486
G1 X64.428 Y80.996 E36.57888
G1 X64.641 Y80.593 E36.59404
G1 X64.753 Y80.392 E36.60169
G1 X65.227 Y79.623 E36.63174
G1 X65.767 Y78.9 E36.66175
G1 X66.369 Y78.227 E36.69178
G1 X66.722 Y77.883 E36.70818
G1 X67.002 Y77.623 E36.72088
G1 F2700 E31.72088
;MESH:Rasberry_Pi-Ender3_Housing_2Rails_Bottom_cover.STL
G0 F6000 X72.805 Y143.398
G0 X72.983 Y143.839
G0 X74.944 Y146.744
G0 X74.944 Y147.823
G0 X159.854 Y148.414
;TYPE:WALL-INNER
G1 F2700 E36.72088
G1 F1200 X75.13 Y148.414 E39.53882
G1 X75.13 Y148.009 E39.55229
G1 X159.854 Y148.009 E42.37022
G1 X159.854 Y148.414 E42.38369
G0 F6000 X160.254 Y148.814
;TYPE:WALL-OUTER
G1 F1200 X74.73 Y148.814 E45.22823
G1 X74.73 Y147.609 E45.26831
G1 X160.254 Y147.609 E48.11285
G1 X160.254 Y148.814 E48.15293
G0 F6000 X159.567 Y148.253
;TYPE:SKIN
G1 F1200 X159.482 Y148.169 E48.1569
G0 F6000 X159.001 Y148.253
G1 F1200 X158.917 Y148.169 E48.16085
G0 F6000 X158.435 Y148.253
G1 F1200 X158.351 Y148.169 E48.1648
G0 F6000 X157.87 Y148.253
G1 F1200 X157.785 Y148.169 E48.16878
G0 F6000 X157.304 Y148.253
G1 F1200 X157.22 Y148.169 E48.17273
G0 F6000 X156.738 Y148.253
G1 F1200 X156.654 Y148.169 E48.17668
G0 F6000 X156.173 Y148.253
G1 F1200 X156.088 Y148.169 E48.18065
G0 F6000 X155.607 Y148.253
G1 F1200 X155.523 Y148.169 E48.1846
G0 F6000 X155.041 Y148.253
G1 F1200 X154.957 Y148.169 E48.18856
G0 F6000 X154.475 Y148.253
G1 F1200 X154.391 Y148.169 E48.19251
G0 F6000 X153.91 Y148.253
G1 F1200 X153.826 Y148.169 E48.19646
G0 F6000 X153.344 Y148.253
G1 F1200 X153.26 Y148.169 E48.20041
G0 F6000 X152.778 Y148.253
G1 F1200 X152.694 Y148.169 E48.20436
G0 F6000 X152.213 Y148.253
G1 F1200 X152.129 Y148.169 E48.20831
G0 F6000 X151.647 Y148.253
G1 F1200 X151.563 Y148.169 E48.21226
G0 F6000 X151.081 Y148.253
G1 F1200 X150.997 Y148.169 E48.21621
G0 F6000 X150.516 Y148.253
G1 F1200 X150.432 Y148.169 E48.22016
G0 F6000 X149.95 Y148.253
G1 F1200 X149.866 Y148.169 E48.22412
G0 F6000 X149.384 Y148.253
G1 F1200 X149.3 Y148.169 E48.22807
G0 F6000 X148.819 Y148.253
G1 F1200 X148.734 Y148.169 E48.23204
G0 F6000 X148.253 Y148.253
G1 F1200 X148.169 Y148.169 E48.23599
G0 F6000 X147.687 Y148.253
G1 F1200 X147.603 Y148.169 E48.23994
G0 F6000 X147.122 Y148.253
G1 F1200 X147.037 Y148.169 E48.24392
G0 F6000 X146.556 Y148.253
G1 F1200 X146.472 Y148.169 E48.24787
G0 F6000 X145.99 Y148.253
G1 F1200 X145.906 Y148.169 E48.25182
G0 F6000 X145.424 Y148.253
G1 F1200 X145.34 Y148.169 E48.25577
G0 F6000 X144.859 Y148.253
G1 F1200 X144.775 Y148.169 E48.25972
G0 F6000 X144.293 Y148.253
G1 F1200 X144.209 Y148.169 E48.26367
G0 F6000 X143.727 Y148.253
G1 F1200 X143.643 Y148.169 E48.26762
G0 F6000 X143.162 Y148.253
G1 F1200 X143.078 Y148.169 E48.27158
G0 F6000 X142.596 Y148.253
G1 F1200 X142.512 Y148.169 E48.27553
G0 F6000 X142.03 Y148.253
G1 F1200 X141.946 Y148.169 E48.27948
G0 F6000 X141.465 Y148.253
G1 F1200 X141.381 Y148.169 E48.28343
G0 F6000 X140.899 Y148.253
G1 F1200 X140.815 Y148.169 E48.28738
G0 F6000 X140.333 Y148.253
G1 F1200 X140.249 Y148.169 E48.29133
G0 F6000 X139.768 Y148.253
G1 F1200 X139.683 Y148.169 E48.29531
G0 F6000 X139.202 Y148.253
G1 F1200 X139.118 Y148.169 E48.29926
G0 F6000 X138.636 Y148.253
G1 F1200 X138.552 Y148.169 E48.30321
G0 F6000 X138.071 Y148.253
G1 F1200 X137.986 Y148.169 E48.30718
G0 F6000 X137.505 Y148.253
G1 F1200 X137.421 Y148.169 E48.31113
G0 F6000 X136.939 Y148.253
G1 F1200 X136.855 Y148.169 E48.31509
G0 F6000 X136.374 Y148.253
G1 F1200 X136.289 Y148.169 E48.31906
G0 F6000 X135.808 Y148.253
G1 F1200 X135.724 Y148.169 E48.32301
G0 F6000 X135.242 Y148.253
G1 F1200 X135.158 Y148.169 E48.32696
G0 F6000 X134.676 Y148.253
G1 F1200 X134.592 Y148.169 E48.33091
G0 F6000 X134.111 Y148.253
G1 F1200 X134.027 Y148.169 E48.33486
G0 F6000 X133.545 Y148.253
G1 F1200 X133.461 Y148.169 E48.33882
G0 F6000 X132.979 Y148.253
G1 F1200 X132.895 Y148.169 E48.34277
G0 F6000 X132.414 Y148.253
G1 F1200 X132.33 Y148.169 E48.34672
G0 F6000 X131.848 Y148.253
G1 F1200 X131.764 Y148.169 E48.35067
G0 F6000 X131.282 Y148.253
G1 F1200 X131.198 Y148.169 E48.35462
G0 F6000 X130.717 Y148.253
G1 F1200 X130.633 Y148.169 E48.35857
G0 F6000 X130.151 Y148.253
G1 F1200 X130.067 Y148.169 E48.36252
G0 F6000 X129.585 Y148.253
G1 F1200 X129.501 Y148.169 E48.36647
G0 F6000 X129.02 Y148.253
