;FLAVOR:Marlin
;TIME:709
;Filament used: 0.388644m
;Layer height: 0.2
;MINX:96.777
;MINY:84.1
;MINZ:0.2
;MAXX:131.123
;MAXY:150.9
;MAXZ:3.2
;Generated with Cura_SteamEngine 4.13.1
M140 S60
M105
M190 S60
M104 S200
M105
M109 S200
M82 ;absolute extrusion mode
; Ender 3 Custom Start G-code
G92 E0 ; Reset Extruder
G28 ; Home all axes
G1 Z2.0 F3000 ; Move Z Axis up little to prevent scratching of Heat Bed
G1 X0.1 Y20 Z0.3 F5000.0 ; Move to start position
G1 X0.1 Y200.0 Z0.3 F1500.0 E15 ; Draw the first line
G1 X0.4 Y200.0 Z0.3 F5000.0 ; Move to side a little
G1 X0.4 Y20 Z0.3 F1500.0 E30 ; Draw the second line
G92 E0 ; Reset Extruder
G1 Z2.0 F3000 ; Move Z Axis up little to prevent scratching of Heat Bed
G1 X5 Y20 Z0.3 F5000.0 ; Move over to prevent blob squish
G92 E0
G92 E0
G1 F2700 E-5
;LAYER_COUNT:16
;LAYER:0
M107
G0 F6000 X100.525 Y87.654 Z0.2
;TYPE:SKIRT
G1 F2700 E0
G1 F1200 X101.19 Y86.993 E0.03119
G1 X101.908 Y86.39 E0.06237
G1 X102.676 Y85.851 E0.09358
G1 X103.486 Y85.379 E0.12476
G1 X104.334 Y84.978 E0.15596
G1 X105.213 Y84.65 E0.18716
G1 X106.116 Y84.399 E0.21834
G1 X107.038 Y84.225 E0.24954
G1 X107.971 Y84.131 E0.28073
G1 X108.441 Y84.113 E0.29637
G1 X109.388 Y84.1 E0.32788
G1 X111.516 Y84.1 E0.39865
G1 X112.736 Y84.116 E0.43923
G1 X115.522 Y84.113 E0.5319
G1 X116.462 Y84.1 E0.56316
G1 X118.75 Y84.101 E0.63926
G1 X119.447 Y84.111 E0.66245
G1 X120.383 Y84.165 E0.69363
G1 X121.312 Y84.298 E0.72484
G1 X122.225 Y84.509 E0.75601
G1 X123.118 Y84.798 E0.78723
G1 X123.982 Y85.161 E0.8184
G1 X124.812 Y85.597 E0.84958
G1 X125.603 Y86.102 E0.8808
G1 X126.347 Y86.673 E0.91199
G1 X127.04 Y87.305 E0.94318
G1 X127.677 Y87.994 E0.97439
G1 X128.253 Y88.734 E1.00558
G1 X128.763 Y89.521 E1.03677
G1 X129.205 Y90.348 E1.06796
G1 X129.574 Y91.21 E1.09915
G1 X129.869 Y92.1 E1.13033
G1 X130.087 Y93.012 E1.16152
G1 X130.171 Y93.502 E1.17806
G1 X130.222 Y93.849 E1.18972
G1 X130.622 Y96.38 E1.27495
G1 X130.803 Y97.356 E1.30796
G1 X130.954 Y98.233 E1.33756
G1 X131.074 Y99.163 E1.36875
G1 X131.109 Y99.754 E1.38844
G1 X131.119 Y100.073 E1.39906
G1 X131.123 Y100.58 E1.41592
G1 X131.113 Y101.26 E1.43854
G1 X131.104 Y101.572 E1.44892
G1 X131.075 Y102.209 E1.47013
G1 X130.98 Y103.875 E1.52563
G1 X130.908 Y106.386 E1.60918
G1 X130.899 Y107.749 E1.65452
G1 X130.9 Y126.222 E2.26893
G1 X130.937 Y128.816 E2.35522
G1 X131.052 Y131.496 E2.44444
G1 X131.096 Y132.252 E2.46962
G1 X131.109 Y132.555 E2.47971
G1 X131.119 Y132.887 E2.49076
G1 X131.123 Y133.38 E2.50716
G1 X131.113 Y134.06 E2.52978
G1 X131.104 Y134.357 E2.53966
G1 X131.082 Y134.876 E2.55694
G1 X130.972 Y136.832 E2.6221
G1 X130.898 Y139.431 E2.70857
G1 X130.888 Y140.06 E2.7295
G1 X130.833 Y140.996 E2.76068
G1 X130.699 Y141.925 E2.7919
G1 X130.487 Y142.838 E2.82307
G1 X130.197 Y143.73 E2.85427
G1 X129.832 Y144.594 E2.88547
G1 X129.395 Y145.424 E2.91667
G1 X128.889 Y146.214 E2.94787
G1 X128.318 Y146.958 E2.97906
G1 X127.685 Y147.65 E3.01025
G1 X126.996 Y148.286 E3.04144
G1 X126.255 Y148.861 E3.07264
G1 X125.468 Y149.37 E3.10381
G1 X124.64 Y149.811 E3.13501
G1 X123.778 Y150.18 E3.1662
G1 X122.887 Y150.474 E3.19741
G1 X121.974 Y150.691 E3.22862
G1 X121.047 Y150.829 E3.25979
G1 X120.171 Y150.886 E3.28899
G1 X119.781 Y150.896 E3.30196
G1 X119.496 Y150.9 E3.31144
G1 X115.705 Y150.899 E3.43753
G1 X113.521 Y150.891 E3.51017
G1 X112.449 Y150.9 E3.54583
G1 X108.566 Y150.899 E3.67498
G1 X107.868 Y150.89 E3.6982
G1 X106.932 Y150.838 E3.72938
G1 X106.003 Y150.706 E3.76058
G1 X105.089 Y150.496 E3.79178
G1 X104.196 Y150.209 E3.82297
G1 X103.331 Y149.846 E3.85417
G1 X102.5 Y149.412 E3.88536
G1 X101.709 Y148.908 E3.91655
G1 X100.964 Y148.338 E3.94775
G1 X100.27 Y147.707 E3.97895
G1 X99.633 Y147.02 E4.01011
G1 X99.056 Y146.28 E4.04132
G1 X98.544 Y145.494 E4.07252
G1 X98.101 Y144.667 E4.10372
G1 X97.73 Y143.806 E4.1349
G1 X97.434 Y142.916 E4.1661
G1 X97.215 Y142.004 E4.1973
G1 X97.074 Y141.077 E4.22848
G1 X97.014 Y140.204 E4.25759
G1 X96.987 Y139.247 E4.28943
G1 X96.948 Y137.391 E4.35117
G1 X96.852 Y135.349 E4.41917
G1 X96.804 Y134.526 E4.44659
G1 X96.79 Y134.211 E4.45707
G1 X96.781 Y133.905 E4.46726
G1 X96.777 Y133.42 E4.48339
G1 X96.787 Y132.739 E4.50604
G1 X96.796 Y132.426 E4.51645
G1 X96.825 Y131.791 E4.5376
G1 X96.92 Y130.125 E4.5931
G1 X96.992 Y127.614 E4.67665
G1 X97.001 Y126.251 E4.72198
G1 X97 Y107.749 E5.33736
G1 X96.963 Y105.184 E5.42268
G1 X96.848 Y102.504 E5.5119
G1 X96.804 Y101.748 E5.53709
G1 X96.791 Y101.445 E5.54718
G1 X96.781 Y101.113 E5.55822
G1 X96.777 Y100.605 E5.57512
G1 X96.788 Y99.922 E5.59784
G1 X96.843 Y98.986 E5.62903
G1 X96.97 Y98.099 E5.65883
G1 X97.052 Y97.657 E5.67378
G1 X97.496 Y95.069 E5.76111
G1 X97.731 Y93.49 E5.81421
G1 X97.909 Y92.569 E5.84541
G1 X98.164 Y91.667 E5.87659
G1 X98.496 Y90.789 E5.90781
G1 X98.901 Y89.943 E5.939
G1 X99.376 Y89.135 E5.97018
G1 X99.919 Y88.37 E6.00138
G1 X100.525 Y87.654 E6.03258
G0 F6000 X100.9 Y87.839
G1 F1200 X101.56 Y87.197 E6.0632
G1 X102.273 Y86.615 E6.09381
G1 X103.035 Y86.097 E6.12446
G1 X103.838 Y85.648 E6.15506
G1 X104.677 Y85.269 E6.18568
G1 X105.546 Y84.965 E6.2163
G1 X106.438 Y84.737 E6.24692
G1 X107.346 Y84.588 E6.27753
G1 X108.447 Y84.513 E6.31423
G1 X109.388 Y84.5 E6.34553
G1 X111.516 Y84.5 E6.41631
G1 X112.731 Y84.516 E6.45672
G1 X115.529 Y84.513 E6.54979
G1 X116.462 Y84.5 E6.58082
G1 X118.744 Y84.501 E6.65672
G1 X119.441 Y84.511 E6.6799
G1 X120.36 Y84.564 E6.71052
G1 X121.271 Y84.697 E6.74114
G1 X122.167 Y84.908 E6.77176
G1 X123.042 Y85.196 E6.8024
G1 X123.888 Y85.56 E6.83303
G1 X124.699 Y85.995 E6.86364
G1 X125.47 Y86.498 E6.89426
G1 X126.194 Y87.067 E6.92488
G1 X126.865 Y87.697 E6.9555
G1 X127.48 Y88.382 E6.98611
G1 X128.033 Y89.118 E7.01673
G1 X128.52 Y89.9 E7.04738
G1 X128.937 Y90.72 E7.07797
G1 X129.282 Y91.574 E7.10861
G1 X129.551 Y92.454 E7.13921
G1 X129.775 Y93.561 E7.17678
G1 X129.821 Y93.872 E7.18723
G1 X130.227 Y96.445 E7.27387
G1 X130.409 Y97.423 E7.30696
G1 X130.56 Y98.3 E7.33656
G1 X130.677 Y99.214 E7.3672
G1 X130.709 Y99.767 E7.38563
G1 X130.719 Y100.086 E7.39624
G1 X130.723 Y100.574 E7.41247
G1 X130.713 Y101.254 E7.43509
G1 X130.704 Y101.555 E7.44511
G1 X130.676 Y102.186 E7.46612
G1 X130.582 Y103.84 E7.52122
G1 X130.508 Y106.418 E7.607
G1 X130.499 Y107.746 E7.65117
G1 X130.5 Y126.228 E8.26588
G1 X130.537 Y128.839 E8.35273
G1 X130.653 Y131.537 E8.44255
G1 X130.696 Y132.275 E8.46714
G1 X130.709 Y132.567 E8.47686
G1 X130.719 Y132.899 E8.48791
G1 X130.723 Y133.374 E8.50371
G1 X130.713 Y134.054 E8.52633
G1 X130.705 Y134.341 E8.53588
G1 X130.682 Y134.854 E8.55296
G1 X130.572 Y136.8 E8.61778
G1 X130.498 Y139.412 E8.70469
G1 X130.488 Y140.054 E8.72605
G1 X130.434 Y140.973 E8.75667
G1 X130.3 Y141.884 E8.78729
G1 X130.087 Y142.78 E8.81793
G1 X129.798 Y143.654 E8.84854
G1 X129.434 Y144.499 E8.87915
G1 X128.998 Y145.31 E8.90977
G1 X128.494 Y146.08 E8.94038
G1 X127.924 Y146.804 E8.97103
G1 X127.294 Y147.475 E9.00164
G1 X126.608 Y148.089 E9.03226
G1 X125.871 Y148.641 E9.06289
G1 X125.089 Y149.127 E9.09351
G1 X124.268 Y149.543 E9.12412
G1 X123.414 Y149.887 E9.15474
G1 X122.533 Y150.155 E9.18537
G1 X121.632 Y150.346 E9.216
G1 X120.719 Y150.457 E9.24659
G1 X120.161 Y150.487 E9.26518
G1 X119.771 Y150.497 E9.27816
G1 X119.496 Y150.5 E9.2873
G1 X115.707 Y150.499 E9.41333
G1 X113.52 Y150.491 E9.48607
G1 X112.446 Y150.5 E9.52179
G1 X108.571 Y150.499 E9.65067
G1 X107.873 Y150.49 E9.67389
G1 X106.954 Y150.438 E9.7045
G1 X106.043 Y150.307 E9.73512
G1 X105.147 Y150.097 E9.76572
G1 X104.272 Y149.81 E9.79635
G1 X103.425 Y149.448 E9.82699
G1 X102.613 Y149.014 E9.85761
G1 X101.842 Y148.512 E9.88821
G1 X101.117 Y147.944 E9.91884
G1 X100.444 Y147.315 E9.94948
G1 X99.829 Y146.631 E9.98008
G1 X99.275 Y145.896 E10.01069
G1 X98.787 Y145.115 E10.04132
G1 X98.368 Y144.295 E10.07195
G1 X98.022 Y143.442 E10.10256
G1 X97.752 Y142.562 E10.13318
G1 X97.559 Y141.661 E10.16383
G1 X97.445 Y140.748 E10.19443
G1 X97.414 Y140.193 E10.21292
G1 X97.387 Y139.238 E10.24469
G1 X97.347 Y137.366 E10.30697
G1 X97.258 Y135.45 E10.37077
G1 X97.203 Y134.503 E10.40232
G1 X97.19 Y134.2 E10.4124
G1 X97.181 Y133.894 E10.42258
G1 X97.177 Y133.426 E10.43815
G1 X97.187 Y132.745 E10.4608
G1 X97.196 Y132.443 E10.47085
G1 X97.224 Y131.814 E10.49179
G1 X97.318 Y130.16 E10.54689
G1 X97.392 Y127.582 E10.63267
G1 X97.401 Y126.254 E10.67685
G1 X97.4 Y107.746 E11.29242
G1 X97.363 Y105.161 E11.37841
G1 X97.247 Y102.463 E11.46823
G1 X97.204 Y101.725 E11.49282
G1 X97.191 Y101.433 E11.50254
G1 X97.181 Y101.101 E11.51359
G1 X97.177 Y100.611 E11.52988
G1 X97.188 Y99.928 E11.5526
G1 X97.243 Y99.009 E11.58322
G1 X97.364 Y98.172 E11.61135
G1 X97.445 Y97.732 E11.62623
G1 X97.889 Y95.145 E11.71353
G1 X98.127 Y93.549 E11.7672
G1 X98.302 Y92.645 E11.79783
G1 X98.555 Y91.76 E11.82844
G1 X98.884 Y90.9 E11.85907
G1 X99.286 Y90.072 E11.88968
G1 X99.758 Y89.282 E11.92029
G1 X100.298 Y88.535 E11.95095
G1 X100.9 Y87.839 E11.98156
G0 F6000 X101.274 Y88.026
G1 F1200 X101.929 Y87.405 E12.01158
G1 X102.637 Y86.844 E12.04162
G1 X103.392 Y86.348 E12.07167
G1 X104.188 Y85.921 E12.10171
G1 X105.018 Y85.566 E12.13173
G1 X105.877 Y85.285 E12.16179
G1 X106.756 Y85.082 E12.1918
G1 X107.651 Y84.957 E12.22186
G1 X108.453 Y84.913 E12.24857
G1 X109.388 Y84.9 E12.27967
G1 X111.516 Y84.9 E12.35045
G1 X112.726 Y84.916 E12.3907
G1 X115.536 Y84.913 E12.48416
G1 X116.462 Y84.9 E12.51496
G1 X118.738 Y84.901 E12.59066
G1 X119.435 Y84.911 E12.61385
G1 X120.337 Y84.964 E12.6439
G1 X121.23 Y85.096 E12.67392
G1 X122.108 Y85.307 E12.70396
G1 X122.964 Y85.595 E12.734
G1 X123.792 Y85.958 E12.76407
G1 X124.583 Y86.392 E12.79407
G1 X125.334 Y86.894 E12.82412
G1 X126.037 Y87.461 E12.85416
G1 X126.687 Y88.088 E12.8842
G1 X127.279 Y88.77 E12.91423
G1 X127.809 Y89.501 E12.94426
G1 X128.271 Y90.277 E12.9743
G1 X128.664 Y91.09 E13.00434
G1 X128.982 Y91.935 E13.03437
G1 X129.225 Y92.805 E13.06441
G1 X129.379 Y93.619 E13.09196
G1 X129.416 Y93.871 E13.10043
G1 X129.833 Y96.509 E13.18926
G1 X130.015 Y97.491 E13.22248
G1 X130.166 Y98.368 E13.25208
G1 X130.28 Y99.264 E13.28212
G1 X130.309 Y99.779 E13.29928
G1 X130.319 Y100.098 E13.30989
G1 X130.323 Y100.568 E13.32553
G1 X130.313 Y101.248 E13.34814
G1 X130.305 Y101.537 E13.35776
G1 X130.277 Y102.164 E13.37864
G1 X130.182 Y103.843 E13.43457
G1 X130.108 Y106.404 E13.51978
G1 X130.099 Y107.743 E13.56432
G1 X130.1 Y126.234 E14.17933
G1 X130.137 Y128.826 E14.26555
G1 X130.255 Y131.577 E14.35713
G1 X130.297 Y132.298 E14.38116
G1 X130.309 Y132.579 E14.39051
G1 X130.319 Y132.911 E14.40156
G1 X130.323 Y133.368 E14.41676
G1 X130.313 Y134.048 E14.43938
G1 X130.305 Y134.324 E14.44856
G1 X130.283 Y134.831 E14.46544
G1 X130.172 Y136.801 E14.53107
G1 X130.098 Y139.395 E14.61738
G1 X130.088 Y140.048 E14.6391
G1 X130.034 Y140.949 E14.66912
G1 X129.9 Y141.842 E14.69915
G1 X129.688 Y142.72 E14.7292
G1 X129.4 Y143.576 E14.75924
G1 X129.036 Y144.403 E14.78929
G1 X128.601 Y145.194 E14.81931
G1 X128.098 Y145.944 E14.84935
G1 X127.53 Y146.646 E14.87938
G1 X126.903 Y147.296 E14.90942
G1 X126.22 Y147.887 E14.93946
G1 X125.488 Y148.416 E14.9695
G1 X124.712 Y148.878 E14.99954
G1 X123.898 Y149.269 E15.02957
G1 X123.053 Y149.587 E15.0596
G1 X122.183 Y149.829 E15.08964
G1 X121.294 Y149.993 E15.1197
G1 X120.15 Y150.087 E15.15788
G1 X119.76 Y150.097 E15.17086
G1 X119.496 Y150.1 E15.17964
G1 X115.708 Y150.099 E15.30563
G1 X113.518 Y150.091 E15.37847
G1 X112.443 Y150.1 E15.41422
G1 X108.576 Y150.099 E15.54284
G1 X107.878 Y150.09 E15.56606
G1 X106.977 Y150.039 E15.59607
G1 X106.083 Y149.907 E15.62613
G1 X105.205 Y149.698 E15.65615
G1 X104.348 Y149.411 E15.68621
G1 X103.521 Y149.05 E15.71622
G1 X102.728 Y148.617 E15.74627
G1 X101.977 Y148.116 E15.7763
G1 X101.273 Y147.55 E15.80634
G1 X100.622 Y146.924 E15.83638
G1 X100.029 Y146.243 E15.86642
G1 X99.499 Y145.512 E15.89645
G1 X99.035 Y144.737 E15.92649
G1 X98.641 Y143.924 E15.95654
G1 X98.321 Y143.08 E15.98656
G1 X98.077 Y142.21 E16.01661
G1 X97.911 Y141.322 E16.04666
G1 X97.814 Y140.181 E16.08475
G1 X97.787 Y139.23 E16.11639
G1 X97.748 Y137.377 E16.17803
G1 X97.654 Y135.367 E16.24496
G1 X97.602 Y134.479 E16.27455
G1 X97.589 Y134.188 E16.28423
G1 X97.58 Y133.882 E16.29442
G1 X97.577 Y133.432 E16.30938
G1 X97.587 Y132.751 E16.33204
G1 X97.596 Y132.461 E16.34169
G1 X97.623 Y131.836 E16.36249
G1 X97.718 Y130.157 E16.41843
G1 X97.792 Y127.596 E16.50364
G1 X97.801 Y126.257 E16.54818
G1 X97.8 Y107.743 E17.16396
G1 X97.763 Y105.174 E17.24941
G1 X97.645 Y102.423 E17.34099
G1 X97.603 Y101.702 E17.36501
G1 X97.591 Y101.421 E17.37437
G1 X97.581 Y101.089 E17.38542
G1 X97.577 Y100.618 E17.40108
G1 X97.588 Y99.935 E17.4238
G1 X97.643 Y99.033 E17.45386
G1 X97.757 Y98.245 E17.48034
G1 X97.84 Y97.795 E17.49556
G1 X98.288 Y95.183 E17.5837
G1 X98.523 Y93.608 E17.63667
G1 X98.695 Y92.721 E17.66672
G1 X98.945 Y91.854 E17.69673
G1 X99.271 Y91.012 E17.72676
G1 X99.671 Y90.202 E17.75681
G1 X100.14 Y89.43 E17.78685
G1 X100.676 Y88.703 E17.81689
G1 X101.274 Y88.026 E17.84694
G1 F2700 E12.84694
;MESH:Connector_TOLERANT.stl(1)
G0 F6000 X107.397 Y99.446
G0 X108.81 Y100.29
G0 X112.2 Y139.3
;TYPE:WALL-INNER
G1 F2700 E17.84694
G1 F1200 X108.601 Y139.3 E17.96664
G1 X108.6 Y100.5 E19.25713
G1 X108.574 Y100.5 E19.258
G1 X108.632 Y99.675 E19.28551
G1 X109.13 Y95.7 E19.41875
G1 X111.646 Y95.7 E19.50243
G1 X112.244 Y100.5 E19.66331
G1 X112.199 Y100.5 E19.66481
G1 X112.2 Y139.3 E20.9553
G0 F6000 X112.6 Y139.7
;TYPE:WALL-OUTER
G1 F1200 X108.201 Y139.7 E21.10161
G1 X108.2 Y133.7 E21.30118
G1 X107.976 Y133.7 E21.30863
G1 X107.976 Y133.1 E21.32858
G1 X108.201 Y133.1 E21.33607
G1 X108.2 Y100.9 E22.40704
G1 X107.976 Y100.9 E22.41449
G1 X107.976 Y100.3 E22.43445
G1 X108.187 Y100.3 E22.44147
G1 X108.235 Y99.625 E22.46397
G1 X108.777 Y95.3 E22.60895
G1 X112.014 Y95.3 E22.71661
G1 X112.039 Y95.62 E22.72729
G1 X112.622 Y100.3 E22.88415
G1 X112.824 Y100.3 E22.89087
G1 X112.824 Y100.9 E22.91082
G1 X112.599 Y100.9 E22.91831
G1 X112.6 Y133.1 E23.98928
G1 X112.824 Y133.1 E23.99673
G1 X112.824 Y133.7 E24.01669
G1 X112.599 Y133.7 E24.02417
G1 X112.6 Y139.7 E24.22373
G0 F6000 X112.33 Y139.43
G0 X112.09 Y138.91
G0 X111.81 Y138.91
;TYPE:SKIN
G1 F1200 X108.991 Y138.91 E24.31749
G1 X108.99 Y100.156 E25.60646
G1 X109.023 Y99.689 E25.62203
G1 X109.474 Y96.09 E25.74267
G1 X111.302 Y96.09 E25.80347
G1 X111.809 Y100.162 E25.93995
G1 X111.81 Y138.91 E27.22871
G0 F6000 X112.09 Y138.91
G0 X109.333 Y139.19
G0 X109.333 Y138.749
G1 F1200 X109.15 Y138.566 E27.23732
G0 F6000 X109.15 Y138
G1 F1200 X109.899 Y138.749 E27.27255
G0 F6000 X110.464 Y138.749
G1 F1200 X109.15 Y137.434 E27.33438
G0 F6000 X109.15 Y136.869
G1 F1200 X111.03 Y138.749 E27.42281
G0 F6000 X111.596 Y138.749
G1 F1200 X109.15 Y136.303 E27.53786
G0 F6000 X109.15 Y135.737
G1 F1200 X111.65 Y138.237 E27.65545
G0 F6000 X111.65 Y137.671
G1 F1200 X109.15 Y135.171 E27.77305
G0 F6000 X109.15 Y134.606
G1 F1200 X111.65 Y137.105 E27.89062
G0 F6000 X111.65 Y136.54
G1 F1200 X109.15 Y134.04 E28.00821
G0 F6000 X109.15 Y133.474
G1 F1200 X111.65 Y135.974 E28.1258
G0 F6000 X111.65 Y135.408
G1 F1200 X109.15 Y132.909 E28.24337
G0 F6000 X109.15 Y132.343
G1 F1200 X111.65 Y134.843 E28.36096
G0 F6000 X111.65 Y134.277
G1 F1200 X109.15 Y131.777 E28.47855
G0 F6000 X109.15 Y131.212
G1 F1200 X111.65 Y133.711 E28.59612
G0 F6000 X111.65 Y133.146
G1 F1200 X109.15 Y130.646 E28.71371
G0 F6000 X109.15 Y130.08
G1 F1200 X111.65 Y132.58 E28.83131
G0 F6000 X111.65 Y132.014
G1 F1200 X109.15 Y129.515 E28.94888
G0 F6000 X109.15 Y128.949
G1 F1200 X111.65 Y131.449 E29.06647
G0 F6000 X111.65 Y130.883
G1 F1200 X109.15 Y128.383 E29.18406
G0 F6000 X109.15 Y127.818
G1 F1200 X111.65 Y130.317 E29.30163
G0 F6000 X111.65 Y129.751
G1 F1200 X109.15 Y127.252 E29.4192
G0 F6000 X109.15 Y126.686
G1 F1200 X111.65 Y129.186 E29.53679
G0 F6000 X111.65 Y128.62
G1 F1200 X109.15 Y126.12 E29.65438
G0 F6000 X109.149 Y125.554
G1 F1200 X111.65 Y128.054 E29.772
G0 F6000 X111.65 Y127.489
G1 F1200 X109.149 Y124.988 E29.88964
G0 F6000 X109.149 Y124.423
G1 F1200 X111.65 Y126.923 E30.00725
G0 F6000 X111.65 Y126.357
G1 F1200 X109.149 Y123.857 E30.12487
G0 F6000 X109.149 Y123.291
G1 F1200 X111.65 Y125.792 E30.24251
G0 F6000 X111.65 Y125.226
