;FLAVOR:Marlin
;TIME:38908
;Filament used: 26.4324m
;Layer height: 0.2
;MINX:37.152
;MINY:36.609
;MINZ:0.2
;MAXX:197.848
;MAXY:197.43
;MAXZ:34.6
;Generated with Cura_SteamEngine 4.13.1
M140 S60
M105
M190 S60
M104 S200
M105
M109 S200
M82 ;absolute extrusion mode
; Ender 3 Custom Start G-code
G92 E0 ; Reset Extruder
G28 ; Home all axes
G1 Z2.0 F3000 ; Move Z Axis up little to prevent scratching of Heat Bed
G1 X0.1 Y20 Z0.3 F5000.0 ; Move to start position
G1 X0.1 Y200.0 Z0.3 F1500.0 E15 ; Draw the first line
G1 X0.4 Y200.0 Z0.3 F5000.0 ; Move to side a little
G1 X0.4 Y20 Z0.3 F1500.0 E30 ; Draw the second line
G92 E0 ; Reset Extruder
G1 Z2.0 F3000 ; Move Z Axis up little to prevent scratching of Heat Bed
G1 X5 Y20 Z0.3 F5000.0 ; Move over to prevent blob squish
G92 E0
G92 E0
G1 F2700 E-5
;LAYER_COUNT:173
;LAYER:0
M107
G0 F6000 X41.032 Y48.241 Z0.2
;TYPE:SKIRT
G1 F2700 E0
G1 F1200 X41.771 Y47.664 E0.03118
G1 X42.557 Y47.153 E0.06237
G1 X43.384 Y46.71 E0.09357
G1 X44.245 Y46.339 E0.12475
G1 X45.135 Y46.043 E0.15595
G1 X46.047 Y45.824 E0.18714
G1 X46.974 Y45.683 E0.21833
G1 X47.821 Y45.624 E0.24657
G1 X48.113 Y45.615 E0.25629
G1 X48.451 Y45.61 E0.26753
G1 X62.289 Y45.609 E0.72778
G1 X64.898 Y45.572 E0.81457
G1 X67.419 Y45.465 E0.89849
G1 X69.914 Y45.288 E0.98168
G1 X72.414 Y45.04 E1.06524
G1 X74.907 Y44.721 E1.14884
G1 X77.4 Y44.33 E1.23277
G1 X79.89 Y43.867 E1.317
G1 X82.354 Y43.337 E1.40083
G1 X84.756 Y42.748 E1.48309
G1 X87.212 Y42.072 E1.56781
G1 X89.622 Y41.334 E1.65165
G1 X91.99 Y40.536 E1.73476
G1 X94.359 Y39.661 E1.81875
G1 X98.032 Y38.159 E1.95074
G1 X98.366 Y38.025 E1.96271
G1 X99.014 Y37.788 E1.98566
G1 X99.532 Y37.617 E2.0038
G1 X99.829 Y37.524 E2.01415
G1 X100.14 Y37.431 E2.02495
G1 X100.743 Y37.269 E2.04571
G1 X101.247 Y37.149 E2.06295
G1 X101.561 Y37.079 E2.07365
G1 X101.913 Y37.006 E2.0856
G1 X102.547 Y36.894 E2.10702
G1 X103.064 Y36.818 E2.1244
G1 X103.386 Y36.775 E2.1352
G1 X103.728 Y36.735 E2.14665
G1 X104.359 Y36.68 E2.16772
G1 X104.868 Y36.65 E2.18468
G1 X105.211 Y36.635 E2.1961
G1 X106.008 Y36.613 E2.22262
G1 X106.312 Y36.609 E2.23273
G1 X128.381 Y36.609 E2.96675
G1 X129.524 Y36.624 E3.00477
G1 X129.999 Y36.641 E3.02057
G1 X130.556 Y36.673 E3.03913
G1 X131.196 Y36.729 E3.0605
G1 X131.729 Y36.791 E3.07835
G1 X132.046 Y36.832 E3.08898
G1 X132.375 Y36.88 E3.10004
G1 X132.994 Y36.989 E3.12094
G1 X133.497 Y37.092 E3.13802
G1 X133.871 Y37.175 E3.15076
G1 X134.219 Y37.259 E3.16267
G1 X134.772 Y37.408 E3.18172
G1 X135.27 Y37.556 E3.19899
G1 X135.586 Y37.655 E3.21001
G1 X135.919 Y37.765 E3.22167
G1 X136.514 Y37.981 E3.24273
G1 X136.992 Y38.17 E3.25982
G1 X139.766 Y39.318 E3.35967
G1 X142.098 Y40.208 E3.44269
G1 X144.46 Y41.033 E3.52591
G1 X146.85 Y41.792 E3.60931
G1 X149.29 Y42.492 E3.69374
G1 X151.746 Y43.123 E3.77808
G1 X154.202 Y43.681 E3.86185
G1 X156.64 Y44.16 E3.94449
G1 X159.162 Y44.583 E4.02954
G1 X161.611 Y44.923 E4.11178
G1 X164.123 Y45.2 E4.19583
G1 X166.669 Y45.408 E4.2808
G1 X169.114 Y45.538 E4.36223
G1 X172.74 Y45.609 E4.48286
G1 X186.299 Y45.61 E4.93383
G1 X186.997 Y45.62 E4.95705
G1 X187.933 Y45.674 E4.98823
G1 X188.861 Y45.806 E5.01941
G1 X189.775 Y46.018 E5.05061
G1 X190.667 Y46.307 E5.0818
G1 X191.532 Y46.67 E5.113
G1 X192.362 Y47.106 E5.14418
G1 X193.153 Y47.611 E5.1754
G1 X193.897 Y48.182 E5.20659
G1 X194.59 Y48.814 E5.23779
G1 X195.227 Y49.502 E5.26897
G1 X195.802 Y50.243 E5.30017
G1 X196.313 Y51.029 E5.33135
G1 X196.755 Y51.857 E5.36257
G1 X197.124 Y52.719 E5.39375
G1 X197.419 Y53.609 E5.42494
G1 X197.637 Y54.521 E5.45612
G1 X197.777 Y55.449 E5.48734
G1 X197.835 Y56.31 E5.51604
G1 X197.844 Y56.63 E5.52669
G1 X197.848 Y56.913 E5.5361
G1 X197.848 Y57.507 E5.55586
G1 X197.838 Y58.254 E5.58071
G1 X197.751 Y59.495 E5.62208
G1 X197.565 Y60.952 E5.67094
G1 X197.545 Y61.098 E5.67584
G1 X197.265 Y63.597 E5.75948
G1 X197.055 Y66.121 E5.84371
G1 X196.919 Y68.575 E5.92546
G1 X196.842 Y72.379 E6.05201
G1 X196.841 Y182.019 E9.69865
G1 X196.849 Y185.272 E9.80684
G1 X196.847 Y185.519 E9.81506
G1 X196.837 Y186.019 E9.83169
G1 X196.731 Y187.337 E9.87567
G1 X196.694 Y187.599 E9.88447
G1 X196.523 Y188.521 E9.91566
G1 X196.275 Y189.426 E9.94687
G1 X195.95 Y190.306 E9.97807
G1 X195.552 Y191.155 E10.00926
G1 X195.082 Y191.967 E10.04046
G1 X194.448 Y192.861 E10.07692
G1 X194.238 Y193.128 E10.08821
G1 X193.627 Y193.84 E10.11942
G1 X192.958 Y194.497 E10.15061
G1 X192.236 Y195.095 E10.18179
G1 X191.465 Y195.629 E10.21298
G1 X190.651 Y196.096 E10.24419
G1 X189.842 Y196.474 E10.27389
G1 X189.651 Y196.554 E10.28078
G1 X188.771 Y196.879 E10.31198
G1 X187.867 Y197.128 E10.34317
G1 X186.945 Y197.299 E10.37436
G1 X185.65 Y197.405 E10.41757
G1 X184.723 Y197.426 E10.44841
G1 X184.454 Y197.429 E10.45736
G1 X181.218 Y197.423 E10.56499
G1 X53.591 Y197.422 E14.80988
G1 X50.309 Y197.43 E14.91904
G1 X50.054 Y197.428 E14.92753
G1 X49.428 Y197.415 E14.94835
G1 X48.492 Y197.355 E14.97955
G1 X47.8 Y197.259 E15.00278
G1 X46.882 Y197.066 E15.03398
G1 X45.688 Y196.687 E15.07565
G1 X45.494 Y196.613 E15.08255
G1 X44.632 Y196.241 E15.11378
G1 X43.806 Y195.798 E15.14495
G1 X43.02 Y195.286 E15.17615
G1 X42.281 Y194.709 E15.20734
G1 X41.594 Y194.071 E15.23852
G1 X40.881 Y193.277 E15.27401
G1 X40.676 Y193.025 E15.28482
G1 X40.116 Y192.273 E15.316
G1 X39.621 Y191.475 E15.34724
G1 X39.197 Y190.639 E15.37841
G1 X38.845 Y189.77 E15.4096
G1 X38.569 Y188.873 E15.44081
G1 X38.459 Y188.414 E15.45651
G1 X38.41 Y188.188 E15.4642
G1 X38.25 Y187.264 E15.49539
G1 X38.165 Y186.19 E15.53123
G1 X38.156 Y185.893 E15.54111
G1 X38.151 Y185.539 E15.55288
G1 X38.158 Y181.801 E15.67721
G1 X38.159 Y72.253 E19.32079
G1 X38.122 Y69.67 E19.40671
G1 X38.015 Y67.148 E19.49067
G1 X37.838 Y64.654 E19.57383
G1 X37.59 Y62.154 E19.65739
G1 X37.25 Y59.494 E19.74658
G1 X37.165 Y58.401 E19.78304
G1 X37.156 Y58.074 E19.79392
G1 X37.152 Y57.795 E19.8032
G1 X37.152 Y57.173 E19.82389
G1 X37.161 Y56.477 E19.84704
G1 X37.213 Y55.54 E19.87825
G1 X37.345 Y54.612 E19.90943
G1 X37.555 Y53.698 E19.94062
G1 X37.842 Y52.805 E19.97182
G1 X38.205 Y51.94 E20.00302
G1 X38.64 Y51.109 E20.03422
G1 X39.143 Y50.318 E20.0654
G1 X39.713 Y49.573 E20.09659
G1 X40.344 Y48.879 E20.12779
G1 X41.032 Y48.241 E20.159
G0 F6000 X41.42 Y48.437
G1 F1200 X42.156 Y47.883 E20.18964
G1 X42.936 Y47.395 E20.22024
G1 X43.757 Y46.977 E20.25088
G1 X44.61 Y46.631 E20.2815
G1 X45.49 Y46.361 E20.31211
G1 X46.39 Y46.168 E20.34273
G1 X47.304 Y46.054 E20.37336
G1 X47.833 Y46.024 E20.39099
G1 X48.125 Y46.015 E20.4007
G1 X48.451 Y46.01 E20.41155
G1 X62.295 Y46.009 E20.872
G1 X64.921 Y45.972 E20.95935
G1 X67.429 Y45.865 E21.04284
G1 X69.949 Y45.687 E21.12687
G1 X72.464 Y45.438 E21.21093
G1 X74.953 Y45.119 E21.29439
G1 X77.505 Y44.718 E21.38031
G1 X79.936 Y44.266 E21.46255
G1 X82.428 Y43.73 E21.54733
G1 X84.885 Y43.128 E21.63147
G1 X87.33 Y42.455 E21.71581
G1 X89.73 Y41.72 E21.7993
G1 X92.151 Y40.903 E21.88428
G1 X94.481 Y40.043 E21.96689
G1 X98.181 Y38.53 E22.09984
G1 X98.515 Y38.396 E22.11181
G1 X99.139 Y38.168 E22.13391
G1 X99.657 Y37.997 E22.15205
G1 X99.943 Y37.907 E22.16202
G1 X100.254 Y37.814 E22.17282
G1 X100.836 Y37.658 E22.19286
G1 X101.34 Y37.538 E22.21009
G1 X101.643 Y37.471 E22.22041
G1 X101.995 Y37.398 E22.23237
G1 X102.605 Y37.29 E22.25297
G1 X103.122 Y37.214 E22.27035
G1 X103.433 Y37.173 E22.28079
G1 X103.775 Y37.133 E22.29224
G1 X104.382 Y37.079 E22.31251
G1 X104.891 Y37.049 E22.32947
G1 X105.223 Y37.035 E22.34052
G1 X106.02 Y37.013 E22.36704
G1 X106.312 Y37.009 E22.37675
G1 X128.381 Y37.009 E23.11077
G1 X129.518 Y37.024 E23.14859
G1 X129.976 Y37.04 E23.16383
G1 X130.533 Y37.072 E23.18239
G1 X131.15 Y37.126 E23.20299
G1 X131.683 Y37.188 E23.22083
G1 X131.988 Y37.228 E23.23107
G1 X132.317 Y37.276 E23.24212
G1 X132.913 Y37.38 E23.26225
G1 X133.416 Y37.483 E23.27932
G1 X133.777 Y37.564 E23.29163
G1 X134.125 Y37.648 E23.30354
G1 X134.658 Y37.791 E23.32189
G1 X135.156 Y37.939 E23.33917
G1 X135.461 Y38.035 E23.34981
G1 X135.794 Y38.145 E23.36147
G1 X136.367 Y38.353 E23.38174
G1 X136.845 Y38.542 E23.39884
G1 X139.576 Y39.673 E23.49715
G1 X141.972 Y40.587 E23.58245
G1 X144.344 Y41.415 E23.66601
G1 X146.757 Y42.182 E23.75022
G1 X149.194 Y42.881 E23.83455
G1 X151.629 Y43.506 E23.91816
G1 X154.14 Y44.077 E24.00381
G1 X156.562 Y44.553 E24.08591
G1 X159.077 Y44.975 E24.17072
G1 X161.583 Y45.323 E24.25487
G1 X164.082 Y45.598 E24.33849
G1 X166.614 Y45.805 E24.42299
G1 X169.115 Y45.939 E24.50629
G1 X172.732 Y46.009 E24.62662
G1 X186.293 Y46.01 E25.07766
G1 X186.991 Y46.02 E25.10087
G1 X187.91 Y46.073 E25.13149
G1 X188.821 Y46.206 E25.16211
G1 X189.717 Y46.417 E25.19273
G1 X190.591 Y46.705 E25.22334
G1 X191.438 Y47.068 E25.25398
G1 X192.249 Y47.503 E25.28459
G1 X193.019 Y48.007 E25.3152
G1 X193.743 Y48.576 E25.34583
G1 X194.415 Y49.206 E25.37647
G1 X195.03 Y49.891 E25.40708
G1 X195.583 Y50.627 E25.4377
G1 X196.07 Y51.408 E25.46832
G1 X196.487 Y52.229 E25.49894
G1 X196.832 Y53.083 E25.52958
G1 X197.101 Y53.963 E25.56018
G1 X197.293 Y54.864 E25.59082
G1 X197.406 Y55.777 E25.62142
G1 X197.435 Y56.321 E25.63954
G1 X197.444 Y56.641 E25.65019
G1 X197.448 Y56.914 E25.65927
G1 X197.448 Y57.502 E25.67883
G1 X197.438 Y58.249 E25.70367
G1 X197.354 Y59.444 E25.74352
G1 X197.169 Y60.897 E25.79224
G1 X197.145 Y61.07 E25.79804
G1 X196.867 Y63.556 E25.88124
G1 X196.658 Y66.067 E25.96505
G1 X196.519 Y68.573 E26.04853
G1 X196.442 Y72.371 E26.17488
G1 X196.441 Y182.019 E29.82178
G1 X196.449 Y185.273 E29.93001
G1 X196.447 Y185.511 E29.93793
G1 X196.437 Y186.011 E29.95456
G1 X196.335 Y187.281 E29.99694
G1 X196.298 Y187.543 E30.00574
G1 X196.13 Y188.448 E30.03635
G1 X195.884 Y189.336 E30.067
G1 X195.561 Y190.198 E30.09762
G1 X195.166 Y191.029 E30.12822
G1 X194.699 Y191.823 E30.15886
G1 X194.134 Y192.614 E30.19119
G1 X193.924 Y192.881 E30.20249
G1 X193.324 Y193.579 E30.2331
G1 X192.665 Y194.223 E30.26375
G1 X191.954 Y194.807 E30.29435
G1 X191.194 Y195.327 E30.32498
G1 X190.392 Y195.779 E30.3556
G1 X189.687 Y196.105 E30.38143
G1 X189.496 Y196.185 E30.38832
G1 X188.632 Y196.503 E30.41894
G1 X187.744 Y196.746 E30.44956
G1 X186.838 Y196.91 E30.48018
G1 X185.641 Y197.005 E30.52012
G1 X184.714 Y197.026 E30.55096
G1 X184.454 Y197.029 E30.55961
G1 X181.218 Y197.023 E30.66724
G1 X53.59 Y197.022 E34.91216
G1 X50.308 Y197.03 E35.02132
G1 X50.062 Y197.028 E35.02951
G1 X49.436 Y197.015 E35.05033
G1 X48.517 Y196.956 E35.08096
G1 X47.865 Y196.865 E35.10286
G1 X46.965 Y196.674 E35.13346
G1 X45.83 Y196.313 E35.17307
G1 X45.636 Y196.239 E35.17998
G1 X44.791 Y195.874 E35.21059
G1 X43.981 Y195.437 E35.2412
G1 X43.212 Y194.931 E35.27182
G1 X42.489 Y194.36 E35.30246
G1 X41.819 Y193.729 E35.33307
G1 X41.191 Y193.024 E35.36448
G1 X40.986 Y192.772 E35.37528
G1 X40.437 Y192.033 E35.4059
G1 X39.954 Y191.25 E35.4365
G1 X39.54 Y190.427 E35.46714
G1 X39.2 Y189.572 E35.49774
G1 X38.85 Y188.329 E35.54069
G1 X38.801 Y188.103 E35.54839
G1 X38.645 Y187.196 E35.579
G1 X38.565 Y186.178 E35.61296
G1 X38.556 Y185.881 E35.62284
G1 X38.551 Y185.54 E35.63418
G1 X38.558 Y181.802 E35.75851
G1 X38.559 Y72.253 E39.40213
G1 X38.522 Y69.648 E39.48878
G1 X38.415 Y67.139 E39.5723
G1 X38.237 Y64.619 E39.65633
G1 X37.988 Y62.104 E39.74039
G1 X37.647 Y59.444 E39.82958
G1 X37.565 Y58.39 E39.86474
G1 X37.556 Y58.063 E39.87562
G1 X37.552 Y57.794 E39.88457
G1 X37.552 Y57.178 E39.90506
G1 X37.561 Y56.482 E39.92821
G1 X37.613 Y55.563 E39.95883
G1 X37.744 Y54.652 E39.98944
G1 X37.954 Y53.755 E40.02008
G1 X38.241 Y52.88 E40.05071
G1 X38.603 Y52.034 E40.08131
G1 X39.037 Y51.222 E40.11194
G1 X39.54 Y50.451 E40.14255
G1 X40.107 Y49.726 E40.17317
G1 X40.736 Y49.053 E40.2038
G1 X41.42 Y48.437 E40.23442
G0 F6000 X41.809 Y48.638
G1 F1200 X42.539 Y48.107 E40.26444
G1 X43.314 Y47.644 E40.29447
G1 X44.127 Y47.25 E40.32452
G1 X44.972 Y46.93 E40.35457
G1 X45.841 Y46.686 E40.38459
G1 X46.729 Y46.52 E40.41464
G1 X47.846 Y46.424 E40.45193
G1 X48.138 Y46.415 E40.46164
G1 X48.451 Y46.41 E40.47206
G1 X62.301 Y46.409 E40.93271
G1 X64.908 Y46.372 E41.01943
G1 X67.473 Y46.263 E41.10482
G1 X69.98 Y46.085 E41.18841
G1 X72.521 Y45.834 E41.27333
G1 X75.029 Y45.513 E41.35743
G1 X77.534 Y45.119 E41.44177
G1 X80.021 Y44.657 E41.52591
G1 X82.535 Y44.116 E41.61144
G1 X84.981 Y43.517 E41.69519
G1 X87.425 Y42.844 E41.77951
G1 X89.86 Y42.099 E41.8642
G1 X92.27 Y41.286 E41.9488
G1 X94.627 Y40.416 E42.03236
G1 X98.33 Y38.901 E42.16543
G1 X98.664 Y38.767 E42.1774
G1 X99.265 Y38.548 E42.19868
G1 X99.783 Y38.377 E42.21682
G1 X100.058 Y38.291 E42.2264
G1 X100.369 Y38.198 E42.2372
G1 X100.928 Y38.047 E42.25646
G1 X101.432 Y37.927 E42.27369
G1 X101.724 Y37.863 E42.28363
G1 X102.076 Y37.79 E42.29559
G1 X102.664 Y37.685 E42.31546
G1 X103.181 Y37.609 E42.33284
G1 X103.479 Y37.57 E42.34283
G1 X103.821 Y37.53 E42.35428
G1 X104.406 Y37.479 E42.37382
G1 X104.915 Y37.449 E42.39077
G1 X105.234 Y37.435 E42.40139
G1 X106.031 Y37.413 E42.42791
G1 X106.312 Y37.409 E42.43726
G1 X128.381 Y37.409 E43.17128
G1 X129.513 Y37.424 E43.20893
G1 X129.953 Y37.44 E43.22358
G1 X130.51 Y37.472 E43.24213
G1 X131.104 Y37.523 E43.26196
G1 X131.637 Y37.585 E43.27981
G1 X131.931 Y37.624 E43.28967
G1 X132.26 Y37.672 E43.30073
G1 X132.833 Y37.772 E43.32008
G1 X133.336 Y37.875 E43.33715
G1 X133.683 Y37.953 E43.34898
G1 X134.031 Y38.037 E43.36089
G1 X134.544 Y38.175 E43.37856
G1 X135.042 Y38.323 E43.39584
G1 X135.335 Y38.415 E43.40605
G1 X135.668 Y38.525 E43.41772
G1 X136.22 Y38.725 E43.43724
G1 X136.698 Y38.914 E43.45434
G1 X139.46 Y40.057 E43.55376
G1 X141.823 Y40.959 E43.63789
G1 X144.208 Y41.791 E43.7219
G1 X146.631 Y42.561 E43.80646
G1 X149.09 Y43.267 E43.89155
G1 X151.555 Y43.9 E43.9762
G1 X154.039 Y44.465 E44.06093
G1 X156.49 Y44.946 E44.144
G1 X159.028 Y45.372 E44.2296
G1 X161.521 Y45.718 E44.31331
G1 X164.074 Y45.999 E44.39873
G1 X166.598 Y46.205 E44.48296
G1 X169.084 Y46.338 E44.56577
G1 X172.725 Y46.409 E44.68689
G1 X186.287 Y46.41 E45.13796
G1 X186.985 Y46.42 E45.16118
G1 X187.887 Y46.473 E45.19123
G1 X188.78 Y46.605 E45.22126
G1 X189.658 Y46.816 E45.25129
G1 X190.514 Y47.104 E45.28133
G1 X191.341 Y47.466 E45.31136
G1 X192.133 Y47.901 E45.34141
G1 X192.884 Y48.403 E45.37145
G1 X193.587 Y48.97 E45.40149
G1 X194.237 Y49.597 E45.43153
G1 X194.829 Y50.279 E45.46157
G1 X195.359 Y51.01 E45.4916
G1 X195.821 Y51.786 E45.52164
G1 X196.214 Y52.599 E45.55167
G1 X196.532 Y53.444 E45.5817
G1 X196.775 Y54.314 E45.61174
G1 X196.94 Y55.202 E45.64178
G1 X197.035 Y56.332 E45.6795
G1 X197.044 Y56.652 E45.69015
G1 X197.048 Y56.915 E45.6989
G1 X197.048 Y57.497 E45.71825
G1 X197.038 Y58.244 E45.7431
G1 X196.958 Y59.394 E45.78144
G1 X196.773 Y60.842 E45.83
G1 X196.749 Y61.011 E45.83567
G1 X196.47 Y63.514 E45.91944
G1 X196.256 Y66.08 E46.00508
G1 X196.12 Y68.543 E46.08713
G1 X196.042 Y72.363 E46.21421
G1 X196.041 Y182.019 E49.86138
G1 X196.049 Y185.274 E49.96964
G1 X196.047 Y185.503 E49.97726
G1 X196.037 Y186.003 E49.99389
G1 X195.939 Y187.225 E50.03467
G1 X195.902 Y187.487 E50.04347
G1 X195.736 Y188.375 E50.07351
G1 X195.492 Y189.245 E50.10357
G1 X195.173 Y190.089 E50.13358
G1 X194.78 Y190.902 E50.16361
G1 X194.316 Y191.678 E50.19368
G1 X193.819 Y192.367 E50.22194
G1 X193.609 Y192.634 E50.23324
G1 X193.02 Y193.318 E50.26326
G1 X192.373 Y193.948 E50.29329
G1 X191.672 Y194.518 E50.32334
G1 X190.924 Y195.023 E50.35336
G1 X190.134 Y195.461 E50.38341
G1 X189.533 Y195.736 E50.40539
G1 X189.342 Y195.816 E50.41228
G1 X188.494 Y196.128 E50.44233
G1 X187.622 Y196.363 E50.47237
G1 X186.733 Y196.521 E50.5024
G1 X185.632 Y196.605 E50.53912
G1 X184.705 Y196.626 E50.56996
G1 X184.455 Y196.629 E50.57828
G1 X181.219 Y196.623 E50.68591
G1 X53.589 Y196.622 E54.9309
G1 X50.307 Y196.63 E55.04006
G1 X50.07 Y196.628 E55.04794
G1 X49.444 Y196.615 E55.06877
G1 X48.543 Y196.556 E55.0988
G1 X47.931 Y196.47 E55.11936
G1 X47.048 Y196.282 E55.14938
G1 X45.973 Y195.939 E55.18691
G1 X45.779 Y195.865 E55.19382
G1 X44.95 Y195.506 E55.22387
G1 X44.156 Y195.076 E55.2539
G1 X43.404 Y194.576 E55.28393
G1 X42.698 Y194.012 E55.31399
G1 X42.046 Y193.388 E55.34401
G1 X41.501 Y192.772 E55.37136
G1 X41.296 Y192.52 E55.38217
G1 X40.758 Y191.795 E55.41219
G1 X40.286 Y191.025 E55.44223
G1 X39.884 Y190.216 E55.47228
