;FLAVOR:Marlin
;TIME:2648
;Filament used: 1.46658m
;Layer height: 0.2
;MINX:82.877
;MINY:84.1
;MINZ:0.2
;MAXX:152.223
;MAXY:157.723
;MAXZ:3.2
;Generated with Cura_SteamEngine 4.13.1
M140 S60
M105
M190 S60
M104 S200
M105
M109 S200
M82 ;absolute extrusion mode
; Ender 3 Custom Start G-code
G92 E0 ; Reset Extruder
G28 ; Home all axes
G1 Z2.0 F3000 ; Move Z Axis up little to prevent scratching of Heat Bed
G1 X0.1 Y20 Z0.3 F5000.0 ; Move to start position
G1 X0.1 Y200.0 Z0.3 F1500.0 E15 ; Draw the first line
G1 X0.4 Y200.0 Z0.3 F5000.0 ; Move to side a little
G1 X0.4 Y20 Z0.3 F1500.0 E30 ; Draw the second line
G92 E0 ; Reset Extruder
G1 Z2.0 F3000 ; Move Z Axis up little to prevent scratching of Heat Bed
G1 X5 Y20 Z0.3 F5000.0 ; Move over to prevent blob squish
G92 E0
G92 E0
G1 F2700 E-5
;LAYER_COUNT:16
;LAYER:0
M107
G0 F6000 X86.625 Y87.654 Z0.2
;TYPE:SKIRT
G1 F2700 E0
G1 F1200 X87.29 Y86.993 E0.03119
G1 X88.008 Y86.39 E0.06237
G1 X88.776 Y85.851 E0.09358
G1 X89.586 Y85.379 E0.12476
G1 X90.434 Y84.978 E0.15596
G1 X91.313 Y84.65 E0.18716
G1 X92.216 Y84.399 E0.21834
G1 X93.138 Y84.225 E0.24954
G1 X94.071 Y84.131 E0.28073
G1 X94.541 Y84.113 E0.29637
G1 X95.488 Y84.1 E0.32788
G1 X97.555 Y84.1 E0.39662
G1 X98.748 Y84.116 E0.43631
G1 X101.61 Y84.113 E0.5315
G1 X102.353 Y84.101 E0.55621
G1 X104.574 Y84.1 E0.63008
G1 X105.707 Y84.115 E0.66777
G1 X108.544 Y84.112 E0.76213
G1 X109.233 Y84.101 E0.78505
G1 X111.516 Y84.1 E0.86098
G1 X112.736 Y84.116 E0.90156
G1 X115.522 Y84.113 E0.99423
G1 X116.462 Y84.1 E1.02549
G1 X118.77 Y84.101 E1.10226
G1 X119.836 Y84.116 E1.13772
G1 X122.622 Y84.113 E1.23038
G1 X123.562 Y84.1 E1.26165
G1 X125.85 Y84.101 E1.33775
G1 X126.204 Y84.106 E1.34952
G1 X128.75 Y84.106 E1.4342
G1 X129.604 Y84.1 E1.46261
G1 X133.418 Y84.101 E1.58946
G1 X135.511 Y84.108 E1.65907
G1 X136.506 Y84.1 E1.69217
G1 X140.45 Y84.101 E1.82335
G1 X141.148 Y84.111 E1.84657
G1 X142.084 Y84.165 E1.87775
G1 X143.012 Y84.297 E1.90892
G1 X143.926 Y84.509 E1.94013
G1 X144.818 Y84.798 E1.97132
G1 X145.683 Y85.161 E2.00252
G1 X146.513 Y85.597 E2.0337
G1 X147.304 Y86.102 E2.06491
G1 X148.048 Y86.673 E2.09611
G1 X148.741 Y87.305 E2.1273
G1 X149.378 Y87.993 E2.15849
G1 X149.953 Y88.734 E2.18968
G1 X150.464 Y89.52 E2.22086
G1 X150.906 Y90.348 E2.25208
G1 X151.275 Y91.21 E2.28327
G1 X151.57 Y92.1 E2.31445
G1 X151.788 Y93.012 E2.34564
G1 X151.928 Y93.94 E2.37686
G1 X151.985 Y94.794 E2.40532
G1 X152.01 Y95.675 E2.43464
G1 X152.051 Y97.57 E2.49768
G1 X152.142 Y99.531 E2.56297
G1 X152.196 Y100.466 E2.59412
G1 X152.209 Y100.754 E2.60371
G1 X152.219 Y101.072 E2.61429
G1 X152.223 Y101.58 E2.63119
G1 X152.213 Y102.26 E2.65381
G1 X152.204 Y102.572 E2.66419
G1 X152.175 Y103.209 E2.6854
G1 X152.081 Y104.865 E2.74057
G1 X152.008 Y107.386 E2.82445
G1 X151.999 Y108.749 E2.86979
G1 X152 Y127.222 E3.4842
G1 X152.037 Y129.816 E3.57049
G1 X152.152 Y132.496 E3.65971
G1 X152.196 Y133.252 E3.68489
G1 X152.209 Y133.555 E3.69498
G1 X152.219 Y133.887 E3.70603
G1 X152.223 Y134.395 E3.72292
G1 X152.212 Y135.08 E3.74571
G1 X152.157 Y136.016 E3.7769
G1 X152.08 Y136.609 E3.79678
G1 X151.874 Y137.915 E3.84076
G1 X151.824 Y138.205 E3.85055
G1 X151.471 Y140.678 E3.93363
G1 X151.188 Y143.161 E4.01675
G1 X150.972 Y145.694 E4.10131
G1 X150.958 Y145.916 E4.1087
G1 X150.861 Y147.274 E4.15399
G1 X150.754 Y148.206 E4.18519
G1 X150.569 Y149.125 E4.21637
G1 X150.306 Y150.025 E4.24755
G1 X149.967 Y150.899 E4.27873
G1 X149.554 Y151.742 E4.30996
G1 X149.072 Y152.546 E4.34113
G1 X148.523 Y153.306 E4.37232
G1 X147.911 Y154.017 E4.40352
G1 X147.24 Y154.673 E4.43473
G1 X146.516 Y155.269 E4.46592
G1 X145.744 Y155.802 E4.49712
G1 X144.93 Y156.267 E4.5283
G1 X144.079 Y156.661 E4.55949
G1 X143.197 Y156.981 E4.5907
G1 X142.292 Y157.224 E4.62187
G1 X141.368 Y157.39 E4.65309
G1 X140.203 Y157.486 E4.69197
G1 X139.284 Y157.511 E4.72255
G1 X137.43 Y157.551 E4.78423
G1 X135.367 Y157.647 E4.85292
G1 X134.526 Y157.696 E4.88094
G1 X134.211 Y157.71 E4.89142
G1 X133.905 Y157.719 E4.9016
G1 X133.42 Y157.723 E4.91774
G1 X132.74 Y157.713 E4.94036
G1 X132.428 Y157.704 E4.95074
G1 X131.791 Y157.675 E4.97195
G1 X130.125 Y157.58 E5.02745
G1 X127.614 Y157.508 E5.111
G1 X126.252 Y157.499 E5.1563
G1 X107.779 Y157.5 E5.77071
G1 X105.184 Y157.537 E5.85703
G1 X102.504 Y157.652 E5.94625
G1 X101.748 Y157.696 E5.97144
G1 X101.445 Y157.709 E5.98153
G1 X101.113 Y157.719 E5.99257
G1 X100.605 Y157.723 E6.00947
G1 X99.922 Y157.712 E6.03219
G1 X98.986 Y157.657 E6.06337
G1 X98.099 Y157.53 E6.09318
G1 X97.657 Y157.448 E6.10813
G1 X95.053 Y157.002 E6.196
G1 X93.496 Y156.771 E6.24835
G1 X92.575 Y156.594 E6.27955
G1 X91.672 Y156.34 E6.31075
G1 X90.795 Y156.009 E6.34192
G1 X89.948 Y155.605 E6.37313
G1 X89.14 Y155.13 E6.40431
G1 X88.374 Y154.588 E6.43552
G1 X87.658 Y153.983 E6.4667
G1 X86.995 Y153.319 E6.49791
G1 X86.392 Y152.601 E6.52909
G1 X85.852 Y151.834 E6.56029
G1 X85.379 Y151.024 E6.59149
G1 X84.978 Y150.176 E6.62269
G1 X84.649 Y149.298 E6.65387
G1 X84.397 Y148.395 E6.68505
G1 X84.243 Y147.606 E6.71179
G1 X84.162 Y147.091 E6.72913
G1 X83.897 Y145.266 E6.79047
G1 X83.418 Y142.62 E6.8799
G1 X83.269 Y141.754 E6.90913
G1 X83.15 Y140.824 E6.94031
G1 X83.114 Y140.203 E6.961
G1 X83.089 Y139.284 E6.99158
G1 X83.049 Y137.43 E7.05326
G1 X82.952 Y135.349 E7.12255
G1 X82.904 Y134.526 E7.14997
G1 X82.89 Y134.211 E7.16046
G1 X82.881 Y133.905 E7.17064
G1 X82.877 Y133.42 E7.18677
G1 X82.887 Y132.739 E7.20942
G1 X82.896 Y132.432 E7.21964
G1 X82.926 Y131.757 E7.24211
G1 X83.02 Y130.115 E7.29681
G1 X83.092 Y127.614 E7.38003
G1 X83.101 Y126.251 E7.42536
G1 X83.1 Y107.778 E8.03978
G1 X83.063 Y105.184 E8.12606
G1 X82.948 Y102.504 E8.21528
G1 X82.904 Y101.748 E8.24047
G1 X82.891 Y101.445 E8.25056
G1 X82.881 Y101.113 E8.26161
G1 X82.877 Y100.605 E8.2785
G1 X82.888 Y99.922 E8.30122
G1 X82.943 Y98.986 E8.33241
G1 X83.07 Y98.099 E8.36221
G1 X83.152 Y97.657 E8.37716
G1 X83.596 Y95.069 E8.4645
G1 X83.831 Y93.49 E8.51759
G1 X84.009 Y92.569 E8.54879
G1 X84.264 Y91.667 E8.57997
G1 X84.596 Y90.789 E8.61119
G1 X85.001 Y89.943 E8.64238
G1 X85.476 Y89.135 E8.67356
G1 X86.019 Y88.37 E8.70476
G1 X86.625 Y87.654 E8.73596
G0 F6000 X87 Y87.839
G1 F1200 X87.66 Y87.197 E8.76658
G1 X88.373 Y86.615 E8.7972
G1 X89.135 Y86.097 E8.82784
G1 X89.938 Y85.648 E8.85844
G1 X90.777 Y85.269 E8.88906
G1 X91.646 Y84.965 E8.91968
G1 X92.538 Y84.737 E8.9503
G1 X93.446 Y84.588 E8.98091
G1 X94.547 Y84.513 E9.01761
G1 X95.488 Y84.5 E9.04891
G1 X97.555 Y84.5 E9.11766
G1 X98.744 Y84.516 E9.15721
G1 X101.616 Y84.513 E9.25273
G1 X102.359 Y84.501 E9.27745
G1 X104.574 Y84.5 E9.35112
G1 X105.701 Y84.515 E9.38861
G1 X108.551 Y84.512 E9.4834
G1 X109.41 Y84.5 E9.51197
G1 X111.664 Y84.501 E9.58694
G1 X112.731 Y84.516 E9.62243
G1 X115.529 Y84.513 E9.7155
G1 X116.462 Y84.5 E9.74653
G1 X118.764 Y84.501 E9.8231
G1 X119.831 Y84.516 E9.85859
G1 X122.629 Y84.513 E9.95165
G1 X123.562 Y84.5 E9.98268
G1 X125.845 Y84.501 E10.05862
G1 X126.199 Y84.506 E10.07039
G1 X128.753 Y84.506 E10.15534
G1 X129.604 Y84.5 E10.18364
G1 X133.417 Y84.501 E10.31046
G1 X135.513 Y84.508 E10.38018
G1 X136.509 Y84.5 E10.41331
G1 X140.444 Y84.501 E10.54418
G1 X141.142 Y84.511 E10.5674
G1 X142.061 Y84.564 E10.59802
G1 X142.972 Y84.697 E10.62864
G1 X143.868 Y84.908 E10.65926
G1 X144.742 Y85.196 E10.68986
G1 X145.589 Y85.559 E10.72051
G1 X146.4 Y85.994 E10.75112
G1 X147.17 Y86.498 E10.78173
G1 X147.894 Y87.067 E10.81236
G1 X148.566 Y87.697 E10.843
G1 X149.181 Y88.382 E10.87361
G1 X149.734 Y89.118 E10.90423
G1 X150.221 Y89.899 E10.93485
G1 X150.638 Y90.72 E10.96547
G1 X150.983 Y91.574 E10.99611
G1 X151.252 Y92.454 E11.02671
G1 X151.444 Y93.355 E11.05735
G1 X151.557 Y94.268 E11.08795
G1 X151.586 Y94.806 E11.10587
G1 X151.611 Y95.684 E11.13509
G1 X151.653 Y97.635 E11.19999
G1 X151.745 Y99.61 E11.26575
G1 X151.796 Y100.489 E11.29504
G1 X151.809 Y100.767 E11.30429
G1 X151.819 Y101.085 E11.31487
G1 X151.823 Y101.574 E11.33114
G1 X151.813 Y102.254 E11.35376
G1 X151.804 Y102.555 E11.36377
G1 X151.776 Y103.186 E11.38478
G1 X151.682 Y104.84 E11.43988
G1 X151.608 Y107.418 E11.52566
G1 X151.599 Y108.746 E11.56983
G1 X151.6 Y127.228 E12.18455
G1 X151.637 Y129.839 E12.2714
G1 X151.753 Y132.537 E12.36122
G1 X151.796 Y133.275 E12.3858
G1 X151.809 Y133.567 E12.39553
G1 X151.819 Y133.899 E12.40657
G1 X151.823 Y134.388 E12.42284
G1 X151.812 Y135.073 E12.44562
G1 X151.757 Y135.992 E12.47625
G1 X151.685 Y136.547 E12.49486
G1 X151.48 Y137.847 E12.53863
G1 X151.428 Y138.152 E12.54892
G1 X151.077 Y140.608 E12.63144
G1 X150.787 Y143.153 E12.71663
G1 X150.575 Y145.638 E12.79959
G1 X150.559 Y145.887 E12.80788
G1 X150.462 Y147.245 E12.85317
G1 X150.357 Y148.16 E12.8838
G1 X150.172 Y149.062 E12.91442
G1 X149.91 Y149.944 E12.94503
G1 X149.573 Y150.801 E12.97566
G1 X149.162 Y151.625 E13.00628
G1 X148.682 Y152.41 E13.03689
G1 X148.135 Y153.151 E13.06752
G1 X147.526 Y153.841 E13.09813
G1 X146.859 Y154.476 E13.12876
G1 X146.14 Y155.051 E13.15938
G1 X145.373 Y155.561 E13.19002
G1 X144.566 Y156.003 E13.22062
G1 X143.722 Y156.373 E13.25127
G1 X142.85 Y156.668 E13.28189
G1 X141.956 Y156.886 E13.31249
G1 X141.046 Y157.027 E13.34312
G1 X140.192 Y157.086 E13.37159
G1 X139.275 Y157.112 E13.4021
G1 X137.366 Y157.153 E13.46561
G1 X135.412 Y157.244 E13.53067
G1 X134.503 Y157.297 E13.56096
G1 X134.2 Y157.31 E13.57104
G1 X133.894 Y157.319 E13.58123
G1 X133.426 Y157.323 E13.59679
G1 X132.746 Y157.313 E13.61941
G1 X132.445 Y157.304 E13.62943
G1 X131.814 Y157.276 E13.65044
G1 X130.16 Y157.182 E13.70554
G1 X127.582 Y157.108 E13.79132
G1 X126.255 Y157.099 E13.83545
G1 X107.773 Y157.1 E14.45017
G1 X105.161 Y157.137 E14.53705
G1 X102.463 Y157.253 E14.62687
G1 X101.725 Y157.296 E14.65146
G1 X101.433 Y157.309 E14.66118
G1 X101.101 Y157.319 E14.67223
G1 X100.611 Y157.323 E14.68853
G1 X99.928 Y157.312 E14.71124
G1 X99.009 Y157.257 E14.74187
G1 X98.172 Y157.136 E14.76999
G1 X97.732 Y157.055 E14.78487
G1 X95.171 Y156.615 E14.8713
G1 X93.555 Y156.376 E14.92563
G1 X92.651 Y156.201 E14.95626
G1 X91.765 Y155.949 E14.9869
G1 X90.905 Y155.621 E15.01751
G1 X90.076 Y155.22 E15.04814
G1 X89.286 Y154.748 E15.07875
G1 X88.539 Y154.209 E15.10939
G1 X87.842 Y153.608 E15.14
G1 X87.2 Y152.948 E15.17062
G1 X86.617 Y152.235 E15.20125
G1 X86.099 Y151.475 E15.23184
G1 X85.648 Y150.672 E15.26248
G1 X85.269 Y149.833 E15.2931
G1 X84.964 Y148.964 E15.32373
G1 X84.735 Y148.073 E15.35433
G1 X84.638 Y147.543 E15.37225
G1 X84.558 Y147.034 E15.38938
G1 X84.29 Y145.189 E15.45139
G1 X83.812 Y142.552 E15.54053
G1 X83.663 Y141.686 E15.56975
G1 X83.547 Y140.773 E15.60037
G1 X83.514 Y140.192 E15.61972
G1 X83.488 Y139.275 E15.65023
G1 X83.447 Y137.366 E15.71374
G1 X83.358 Y135.45 E15.77754
G1 X83.303 Y134.503 E15.80909
G1 X83.29 Y134.2 E15.81917
G1 X83.281 Y133.894 E15.82936
G1 X83.277 Y133.426 E15.84492
G1 X83.287 Y132.745 E15.86757
G1 X83.296 Y132.449 E15.87742
G1 X83.325 Y131.78 E15.8997
G1 X83.419 Y130.135 E15.9545
G1 X83.492 Y127.582 E16.03945
G1 X83.501 Y126.254 E16.08362
G1 X83.5 Y107.772 E16.69833
G1 X83.463 Y105.161 E16.78518
G1 X83.347 Y102.463 E16.875
G1 X83.304 Y101.725 E16.89959
G1 X83.291 Y101.433 E16.90931
G1 X83.281 Y101.101 E16.92036
G1 X83.277 Y100.611 E16.93665
G1 X83.288 Y99.928 E16.95937
G1 X83.343 Y99.009 E16.98999
G1 X83.464 Y98.172 E17.01812
G1 X83.545 Y97.732 E17.033
G1 X83.989 Y95.145 E17.12031
G1 X84.227 Y93.549 E17.17398
G1 X84.402 Y92.645 E17.2046
G1 X84.655 Y91.76 E17.23522
G1 X84.984 Y90.9 E17.26584
G1 X85.386 Y90.072 E17.29645
G1 X85.858 Y89.282 E17.32706
G1 X86.398 Y88.535 E17.35772
G1 X87 Y87.839 E17.38833
G0 F6000 X87.374 Y88.026
G1 F1200 X88.029 Y87.405 E17.41835
G1 X88.737 Y86.844 E17.44839
G1 X89.492 Y86.348 E17.47844
G1 X90.288 Y85.921 E17.50848
G1 X91.118 Y85.566 E17.53851
G1 X91.977 Y85.285 E17.56857
G1 X92.856 Y85.082 E17.59857
G1 X93.751 Y84.957 E17.62863
G1 X94.553 Y84.913 E17.65534
G1 X95.488 Y84.9 E17.68644
G1 X97.555 Y84.9 E17.75519
G1 X98.738 Y84.916 E17.79454
G1 X101.623 Y84.913 E17.8905
G1 X102.532 Y84.9 E17.92073
G1 X104.719 Y84.901 E17.99347
G1 X105.695 Y84.915 E18.02594
G1 X108.558 Y84.912 E18.12116
G1 X109.41 Y84.9 E18.1495
G1 X111.659 Y84.901 E18.22431
G1 X112.726 Y84.916 E18.2598
G1 X115.536 Y84.913 E18.35326
G1 X116.462 Y84.9 E18.38406
G1 X118.759 Y84.901 E18.46046
G1 X119.826 Y84.916 E18.49595
G1 X122.636 Y84.913 E18.58941
G1 X123.562 Y84.9 E18.62021
G1 X125.839 Y84.901 E18.69595
G1 X126.193 Y84.906 E18.70772
G1 X128.756 Y84.906 E18.79297
G1 X129.604 Y84.9 E18.82117
G1 X133.416 Y84.901 E18.94796
G1 X135.515 Y84.908 E19.01778
G1 X136.512 Y84.9 E19.05094
G1 X140.438 Y84.901 E19.18152
G1 X141.136 Y84.911 E19.20473
G1 X142.038 Y84.964 E19.23479
G1 X142.931 Y85.096 E19.26481
G1 X143.809 Y85.307 E19.29484
G1 X144.665 Y85.595 E19.32488
G1 X145.492 Y85.957 E19.35491
G1 X146.284 Y86.392 E19.38496
G1 X147.035 Y86.894 E19.41501
G1 X147.738 Y87.461 E19.44505
G1 X148.388 Y88.088 E19.47508
G1 X148.98 Y88.77 E19.50512
G1 X149.51 Y89.501 E19.53515
G1 X149.972 Y90.277 E19.56519
G1 X150.365 Y91.09 E19.59523
G1 X150.683 Y91.935 E19.62525
G1 X150.926 Y92.805 E19.6553
G1 X151.091 Y93.693 E19.68534
G1 X151.186 Y94.817 E19.72286
G1 X151.211 Y95.692 E19.75197
G1 X151.252 Y97.624 E19.81624
G1 X151.347 Y99.651 E19.88374
G1 X151.397 Y100.512 E19.91242
G1 X151.409 Y100.779 E19.92131
G1 X151.419 Y101.097 E19.93189
G1 X151.423 Y101.568 E19.94756
G1 X151.413 Y102.248 E19.97018
G1 X151.405 Y102.537 E19.97979
G1 X151.377 Y103.164 E20.00067
G1 X151.282 Y104.843 E20.0566
G1 X151.208 Y107.404 E20.14182
G1 X151.199 Y108.743 E20.18635
G1 X151.2 Y127.234 E20.80137
G1 X151.237 Y129.826 E20.88759
G1 X151.355 Y132.577 E20.97917
G1 X151.397 Y133.298 E21.00319
G1 X151.409 Y133.579 E21.01254
G1 X151.419 Y133.911 E21.02359
G1 X151.423 Y134.382 E21.03926
G1 X151.412 Y135.067 E21.06204
G1 X151.357 Y135.968 E21.09207
G1 X151.29 Y136.485 E21.10941
G1 X151.109 Y137.638 E21.14822
G1 X151.036 Y138.064 E21.1626
G1 X150.683 Y140.538 E21.24572
G1 X150.39 Y143.113 E21.33192
G1 X150.173 Y145.648 E21.41654
G1 X150.16 Y145.859 E21.42357
G1 X150.063 Y147.217 E21.46885
G1 X149.959 Y148.114 E21.49889
G1 X149.776 Y148.998 E21.52891
G1 X149.515 Y149.863 E21.55896
G1 X149.179 Y150.701 E21.58899
G1 X148.77 Y151.506 E21.61902
G1 X148.292 Y152.272 E21.64906
G1 X147.747 Y152.993 E21.67912
G1 X147.141 Y153.662 E21.70914
G1 X146.478 Y154.276 E21.73919
G1 X145.764 Y154.828 E21.76921
G1 X145.003 Y155.315 E21.79926
G1 X144.203 Y155.733 E21.82928
G1 X143.368 Y156.078 E21.85933
G1 X142.507 Y156.348 E21.88934
G1 X141.624 Y156.541 E21.91941
G1 X140.728 Y156.655 E21.94945
G1 X140.18 Y156.686 E21.9677
G1 X139.267 Y156.712 E21.99808
G1 X137.377 Y156.752 E22.06096
G1 X135.367 Y156.846 E22.12788
G1 X134.479 Y156.898 E22.15747
G1 X134.188 Y156.911 E22.16716
G1 X133.882 Y156.92 E22.17734
G1 X133.432 Y156.923 E22.19231
G1 X132.752 Y156.913 E22.21493
G1 X132.463 Y156.905 E22.22454
G1 X131.836 Y156.877 E22.24542
G1 X130.157 Y156.782 E22.30135
G1 X127.596 Y156.708 E22.38656
G1 X126.258 Y156.699 E22.43107
G1 X107.767 Y156.7 E23.04608
G1 X105.174 Y156.737 E23.13233
G1 X102.423 Y156.855 E23.22392
G1 X101.702 Y156.897 E23.24794
G1 X101.421 Y156.909 E23.25729
G1 X101.089 Y156.919 E23.26834
G1 X100.618 Y156.923 E23.284
G1 X99.935 Y156.912 E23.30672
G1 X99.033 Y156.857 E23.33678
G1 X98.245 Y156.743 E23.36326
G1 X97.795 Y156.66 E23.37848
G1 X95.217 Y156.218 E23.46548
G1 X93.613 Y155.98 E23.51941
G1 X92.727 Y155.808 E23.54943
G1 X91.859 Y155.559 E23.57946
G1 X91.016 Y155.233 E23.60953
G1 X90.206 Y154.835 E23.63954
G1 X89.434 Y154.366 E23.66959
G1 X88.706 Y153.831 E23.69964
G1 X88.029 Y153.234 E23.72966
G1 X87.407 Y152.579 E23.7597
G1 X86.846 Y151.871 E23.78974
G1 X86.349 Y151.117 E23.81978
G1 X85.921 Y150.322 E23.84981
G1 X85.565 Y149.492 E23.87985
G1 X85.284 Y148.634 E23.90988
G1 X85.033 Y147.481 E23.94912
G1 X84.954 Y146.976 E23.96613
G1 X84.689 Y145.149 E24.02753
G1 X84.207 Y142.485 E24.11757
G1 X84.058 Y141.619 E24.1468
G1 X83.944 Y140.723 E24.17684
G1 X83.914 Y140.18 E24.19493
G1 X83.888 Y139.267 E24.22531
G1 X83.848 Y137.377 E24.28818
G1 X83.754 Y135.367 E24.35511
G1 X83.702 Y134.479 E24.38469
G1 X83.689 Y134.188 E24.39438
