;FLAVOR:Marlin
;TIME:1317
;Filament used: 0.709133m
;Layer height: 0.2
;MINX:100.19
;MINY:99.24
;MINZ:0.2
;MAXX:134.816
;MAXY:132.205
;MAXZ:19
;Generated with Cura_SteamEngine 4.8.0
M140 S50
M105
M190 S50
M104 S200
M105
M109 S200
M82 ;absolute extrusion mode
; Ender 3 Custom Start G-code
G92 E0 ; Reset Extruder
G28 ; Home all axes
G1 Z2.0 F3000 ; Move Z Axis up little to prevent scratching of Heat Bed
G1 X0.1 Y20 Z0.3 F5000.0 ; Move to start position
G1 X0.1 Y200.0 Z0.3 F1500.0 E15 ; Draw the first line
G1 X0.4 Y200.0 Z0.3 F5000.0 ; Move to side a little
G1 X0.4 Y20 Z0.3 F1500.0 E30 ; Draw the second line
G92 E0 ; Reset Extruder
G1 Z2.0 F3000 ; Move Z Axis up little to prevent scratching of Heat Bed
G1 X5 Y20 Z0.3 F5000.0 ; Move over to prevent blob squish
G92 E0
G92 E0
G1 F2700 E-5
;LAYER_COUNT:95
;LAYER:0
M107
G0 F6000 X109.563 Y102.566 Z0.2
;TYPE:SKIRT
G1 F2700 E0
G1 F1200 X110.246 Y101.922 E0.03122
G1 X110.98 Y101.339 E0.0624
G1 X111.762 Y100.821 E0.0936
G1 X112.585 Y100.371 E0.1248
G1 X113.443 Y99.993 E0.15598
G1 X114.33 Y99.689 E0.18717
G1 X115.24 Y99.462 E0.21836
G1 X116.166 Y99.314 E0.24955
G1 X117.14 Y99.243 E0.28203
G1 X117.248 Y99.24 E0.28562
G1 X118.185 Y99.254 E0.31679
G1 X119.118 Y99.348 E0.34798
G1 X120.04 Y99.521 E0.37918
G1 X120.944 Y99.772 E0.41039
G1 X121.823 Y100.099 E0.44158
G1 X122.671 Y100.499 E0.47276
G1 X123.482 Y100.971 E0.50397
G1 X124.25 Y101.509 E0.53516
G1 X124.969 Y102.111 E0.56635
G1 X125.634 Y102.773 E0.59756
G1 X126.491 Y103.825 E0.64269
G1 X126.628 Y104.016 E0.65051
G1 X127.027 Y104.611 E0.67434
G1 X127.217 Y104.916 E0.68629
G1 X127.389 Y105.202 E0.69739
G1 X132.985 Y114.824 E1.06761
G1 X133.405 Y115.57 E1.09608
G1 X133.83 Y116.406 E1.12727
G1 X134.181 Y117.276 E1.15847
G1 X134.457 Y118.172 E1.18966
G1 X134.656 Y119.089 E1.22087
G1 X134.776 Y120.019 E1.25206
G1 X134.816 Y120.956 E1.28325
G1 X134.776 Y121.893 E1.31444
G1 X134.657 Y122.823 E1.34563
G1 X134.459 Y123.74 E1.37683
G1 X134.183 Y124.636 E1.40801
G1 X133.832 Y125.506 E1.43921
G1 X133.534 Y126.114 E1.46173
G1 X133.412 Y126.344 E1.47039
G1 X132.937 Y127.153 E1.5016
G1 X132.396 Y127.918 E1.53276
G1 X131.791 Y128.635 E1.56396
G1 X131.127 Y129.298 E1.59517
G1 X130.409 Y129.901 E1.62636
G1 X129.643 Y130.442 E1.65755
G1 X128.833 Y130.915 E1.68875
G1 X127.986 Y131.317 E1.71993
G1 X127.107 Y131.646 E1.75114
G1 X126.204 Y131.899 E1.78234
G1 X125.283 Y132.074 E1.81352
G1 X123.89 Y132.187 E1.86
G1 X122.794 Y132.205 E1.89646
G1 X111.86 Y132.204 E2.26012
G1 X111.159 Y132.194 E2.28344
G1 X110.223 Y132.141 E2.31462
G1 X109.294 Y132.008 E2.34584
G1 X108.381 Y131.796 E2.37701
G1 X107.488 Y131.508 E2.40822
G1 X106.624 Y131.144 E2.4394
G1 X105.793 Y130.708 E2.47061
G1 X105.003 Y130.203 E2.5018
G1 X104.259 Y129.633 E2.53297
G1 X103.566 Y129.001 E2.56417
G1 X102.929 Y128.312 E2.59538
G1 X102.353 Y127.572 E2.62657
G1 X101.998 Y127.041 E2.64781
G1 X101.865 Y126.829 E2.65614
G1 X101.401 Y126.014 E2.68733
G1 X101.008 Y125.162 E2.71853
G1 X100.689 Y124.28 E2.74973
G1 X100.446 Y123.374 E2.78093
G1 X100.281 Y122.451 E2.81211
G1 X100.196 Y121.517 E2.84331
G1 X100.19 Y120.579 E2.87451
G1 X100.265 Y119.644 E2.9057
G1 X100.418 Y118.719 E2.93689
G1 X100.65 Y117.81 E2.96809
G1 X100.959 Y116.925 E2.99927
G1 X101.342 Y116.069 E3.03046
G1 X101.565 Y115.644 E3.04642
G1 X102.074 Y114.727 E3.08131
G1 X107.484 Y105.42 E3.43936
G1 X107.933 Y104.672 E3.46837
G1 X108.451 Y103.89 E3.49957
G1 X108.847 Y103.376 E3.52115
G1 X108.938 Y103.265 E3.52592
G1 X109.563 Y102.566 E3.55711
G0 F6000 X109.862 Y102.833
G1 F1200 X110.533 Y102.203 E3.58772
G1 X111.256 Y101.633 E3.61835
G1 X112.026 Y101.129 E3.64895
G1 X112.837 Y100.693 E3.67958
G1 X113.683 Y100.329 E3.71021
G1 X114.557 Y100.04 E3.74083
G1 X115.453 Y99.828 E3.77145
G1 X116.364 Y99.694 E3.80208
G1 X117.151 Y99.643 E3.82831
G1 X117.259 Y99.64 E3.8319
G1 X118.179 Y99.655 E3.86251
G1 X119.095 Y99.749 E3.89313
G1 X119.999 Y99.922 E3.92375
G1 X120.885 Y100.173 E3.95437
G1 X121.746 Y100.5 E3.98501
G1 X122.574 Y100.901 E4.01561
G1 X123.366 Y101.372 E4.04625
G1 X124.113 Y101.91 E4.07687
G1 X124.811 Y102.51 E4.10749
G1 X125.454 Y103.169 E4.13811
G1 X126.166 Y104.058 E4.17599
G1 X126.303 Y104.249 E4.18381
G1 X126.687 Y104.822 E4.20675
G1 X126.877 Y105.127 E4.2187
G1 X127.043 Y105.403 E4.22942
G1 X132.717 Y115.161 E4.60485
G1 X133.057 Y115.766 E4.62793
G1 X133.473 Y116.587 E4.65854
G1 X133.815 Y117.442 E4.68917
G1 X134.083 Y118.323 E4.7198
G1 X134.273 Y119.223 E4.75039
G1 X134.384 Y120.137 E4.78101
G1 X134.416 Y121.057 E4.81163
G1 X134.367 Y121.977 E4.84227
G1 X134.239 Y122.889 E4.87291
G1 X134.032 Y123.786 E4.90352
G1 X133.748 Y124.661 E4.93412
G1 X133.39 Y125.509 E4.96474
G1 X133.18 Y125.926 E4.98026
G1 X133.058 Y126.156 E4.98892
G1 X132.592 Y126.95 E5.01955
G1 X132.058 Y127.7 E5.05017
G1 X131.462 Y128.402 E5.0808
G1 X130.807 Y129.048 E5.11139
G1 X130.098 Y129.636 E5.14203
G1 X129.341 Y130.16 E5.17265
G1 X128.541 Y130.616 E5.20328
G1 X127.705 Y131.001 E5.23389
G1 X126.838 Y131.312 E5.26453
G1 X125.948 Y131.547 E5.29514
G1 X125.041 Y131.703 E5.32575
G1 X123.882 Y131.787 E5.3644
G1 X122.794 Y131.805 E5.40059
G1 X111.866 Y131.804 E5.76406
G1 X111.165 Y131.794 E5.78738
G1 X110.246 Y131.741 E5.818
G1 X109.335 Y131.608 E5.84862
G1 X108.439 Y131.397 E5.87923
G1 X107.564 Y131.109 E5.90987
G1 X106.718 Y130.746 E5.94049
G1 X105.907 Y130.311 E5.9711
G1 X105.136 Y129.807 E6.00174
G1 X104.412 Y129.238 E6.03236
G1 X103.74 Y128.609 E6.06298
G1 X103.125 Y127.924 E6.0936
G1 X102.337 Y126.828 E6.13849
G1 X102.204 Y126.616 E6.14682
G1 X101.749 Y125.816 E6.17743
G1 X101.365 Y124.979 E6.20806
G1 X101.055 Y124.112 E6.23868
G1 X100.822 Y123.221 E6.26931
G1 X100.667 Y122.314 E6.29992
G1 X100.591 Y121.396 E6.33055
G1 X100.595 Y120.476 E6.36115
G1 X100.679 Y119.559 E6.39178
G1 X100.842 Y118.653 E6.4224
G1 X101.083 Y117.764 E6.45303
G1 X101.401 Y116.9 E6.48365
G1 X101.915 Y115.839 E6.52287
G1 X102.528 Y114.738 E6.56478
G1 X107.829 Y105.621 E6.91554
G1 X108.275 Y104.879 E6.94434
G1 X108.784 Y104.111 E6.97498
G1 X109.157 Y103.63 E6.99523
G1 X109.248 Y103.519 E7
G1 X109.862 Y102.833 E7.03062
G0 F6000 X110.16 Y103.1
G1 F1200 X110.82 Y102.483 E7.06067
G1 X111.532 Y101.928 E7.0907
G1 X112.29 Y101.437 E7.12074
G1 X113.089 Y101.016 E7.15077
G1 X113.922 Y100.667 E7.18081
G1 X114.782 Y100.393 E7.21083
G1 X115.664 Y100.196 E7.24089
G1 X116.559 Y100.078 E7.27092
G1 X117.162 Y100.043 E7.29101
G1 X117.27 Y100.04 E7.2946
G1 X118.173 Y100.055 E7.32464
G1 X119.071 Y100.15 E7.35467
G1 X119.957 Y100.323 E7.3847
G1 X120.824 Y100.575 E7.41473
G1 X121.666 Y100.902 E7.44477
G1 X122.476 Y101.303 E7.47483
G1 X123.247 Y101.773 E7.50486
G1 X123.973 Y102.31 E7.5349
G1 X124.649 Y102.909 E7.56494
G1 X125.269 Y103.565 E7.59496
G1 X125.841 Y104.291 E7.6257
G1 X125.978 Y104.482 E7.63352
G1 X126.348 Y105.034 E7.65562
G1 X126.538 Y105.339 E7.66757
G1 X126.697 Y105.604 E7.67785
G1 X132.368 Y115.357 E8.05309
G1 X132.708 Y115.962 E8.07617
G1 X133.115 Y116.768 E8.1062
G1 X133.449 Y117.607 E8.13624
G1 X133.708 Y118.472 E8.16627
G1 X133.889 Y119.357 E8.19632
G1 X133.992 Y120.254 E8.22635
G1 X134.014 Y121.157 E8.25639
G1 X133.957 Y122.058 E8.28642
G1 X133.82 Y122.951 E8.31647
G1 X133.604 Y123.828 E8.34651
G1 X133.312 Y124.683 E8.37656
G1 X132.827 Y125.739 E8.41521
G1 X132.705 Y125.969 E8.42387
G1 X132.247 Y126.747 E8.45389
G1 X131.722 Y127.482 E8.48393
G1 X131.134 Y128.167 E8.51396
G1 X130.487 Y128.798 E8.54402
G1 X129.787 Y129.369 E8.57407
G1 X129.04 Y129.876 E8.60409
G1 X128.251 Y130.315 E8.63412
G1 X127.426 Y130.682 E8.66416
G1 X126.571 Y130.975 E8.69422
G1 X125.695 Y131.191 E8.72423
G1 X124.802 Y131.329 E8.75428
G1 X123.875 Y131.387 E8.78517
G1 X122.794 Y131.405 E8.82113
G1 X111.872 Y131.404 E9.1844
G1 X111.171 Y131.394 E9.20772
G1 X110.269 Y131.341 E9.23777
G1 X109.376 Y131.209 E9.26779
G1 X108.497 Y130.998 E9.29786
G1 X107.641 Y130.71 E9.3279
G1 X106.814 Y130.348 E9.35792
G1 X106.022 Y129.914 E9.38796
G1 X105.272 Y129.411 E9.418
G1 X104.569 Y128.844 E9.44804
G1 X103.919 Y128.218 E9.47805
G1 X103.326 Y127.536 E9.50811
G1 X102.676 Y126.616 E9.54558
G1 X102.543 Y126.404 E9.5539
G1 X102.097 Y125.618 E9.58396
G1 X101.723 Y124.796 E9.61399
G1 X101.422 Y123.945 E9.64402
G1 X101.199 Y123.07 E9.67405
G1 X101.053 Y122.178 E9.70411
G1 X100.987 Y121.278 E9.73413
G1 X101.001 Y120.375 E9.76416
G1 X101.095 Y119.476 E9.79423
G1 X101.268 Y118.59 E9.82425
G1 X101.518 Y117.722 E9.8543
G1 X101.845 Y116.88 E9.88434
G1 X102.265 Y116.033 E9.91578
G1 X102.874 Y114.939 E9.95743
G1 X108.175 Y105.822 E10.30819
G1 X108.618 Y105.085 E10.33679
G1 X109.118 Y104.333 E10.36683
G1 X109.466 Y103.883 E10.38575
G1 X109.557 Y103.772 E10.39052
G1 X110.16 Y103.1 E10.42055
G1 F2700 E5.42055
;MESH:D20_19mm.stl
G0 F6000 X116.57 Y110.356
G0 X117.5 Y110.897
G0 X120.284 Y115.862
G0 X120.436 Y116.178
G0 X120.386 Y116.899
;TYPE:WALL-INNER
G1 F2700 E10.42055
G1 F1200 X120.387 Y116.898 E10.4206
G1 X120.522 Y116.47 E10.43553
G1 X120.748 Y116.859 E10.44364
G1 X122.927 Y120.605 E10.58778
G1 X118.32 Y120.605 E10.74101
G1 X119.582 Y118.419 E10.82496
G1 X117.375 Y117.144 E10.90974
G1 X117.318 Y117.111 E10.91193
G1 X117.448 Y117.016 E10.91461
G1 X117.392 Y116.984
G1 X117.029 Y116.774 E10.92856
G1 X117.107 Y116.638 E10.93377
G1 X117.47 Y116.847 E10.93923
G1 X117.526 Y116.879 E10.94007
G1 X119.563 Y118.055 E11.0183
G1 X119.735 Y118.154 E11.0249
G1 X119.834 Y117.982 E11.02917
G1 X120.298 Y117.177 E11.06007
G1 X120.386 Y116.899 E11.06977
G0 F6000 X120.441 Y116.159
G0 X120.361 Y115.905
G0 X119.934 Y115.459
G1 F1200 X119.487 Y115.198 E11.08699
G1 X119.271 Y115.073 E11.09529
G1 X119.197 Y115.311 E11.10034
G1 X119.107 Y115.598 E11.11034
G1 X119.033 Y115.835 E11.1186
G1 X118.818 Y115.711 E11.12364
G1 X118.108 Y115.301 E11.15091
G1 X117.936 Y115.202 E11.15751
G1 X118.035 Y115.03 E11.16177
G1 X118.296 Y114.579 E11.17911
G1 X117.092 Y113.88 E11.22541
G1 X116.92 Y113.781 E11.23201
G1 X116.821 Y113.953 E11.23628
G1 X115.376 Y116.456 E11.3324
G1 X115.438 Y116.492 E11.33479
G1 X115.425 Y116.505
G1 X115.179 Y116.749 E11.34572
G1 X114.841 Y117.247 E11.36573
G1 X114.672 Y117.597 E11.37866
G1 X114.556 Y118.172 E11.39817
G1 X114.598 Y118.639 E11.41377
G1 X114.854 Y119.174 E11.43349
G1 X115.153 Y119.496 E11.44811
G1 X115.458 Y119.708 E11.46046
G1 X115.79 Y119.866 E11.47269
G1 X116.205 Y119.965 E11.48688
G1 X116.717 Y119.946 E11.50392
G1 X116.9 Y119.883 E11.51036
G1 X116.828 Y120.009 E11.51075
G1 X116.739 Y120.162 E11.51587
G1 X117.503 Y120.605 E11.54524
G1 X112.073 Y120.605 E11.72584
G1 X117.5 Y111.273 E12.08489
G1 X119.598 Y114.882 E12.22374
G1 X119.674 Y115.012 E12.22858
G1 X119.934 Y115.459 E12.23746
G0 F6000 X119.373 Y115.335
G0 X119.113 Y116.04
G0 X119.266 Y116.431
;TYPE:WALL-OUTER
G1 F1200 X117.39 Y115.348 E12.30951
G1 X117.75 Y114.725 E12.33344
G1 X117.066 Y114.328 E12.35974
G1 X115.922 Y116.311 E12.43589
G1 X116.605 Y116.708 E12.46216
G1 X116.961 Y116.092 E12.48583
G1 X119.588 Y117.608 E12.5867
G1 X119.93 Y117.015 E12.60947
G1 X120.223 Y116.09 E12.64175
G1 X119.503 Y115.671 E12.66945
G1 X119.266 Y116.431 E12.69593
G0 F6000 X119.113 Y116.04
G0 X119.373 Y115.335
G0 X120.499 Y115.984
G0 X120.151 Y117.11
G0 X119.671 Y117.919
G0 X117.465 Y117.383
G0 X116.953 Y117.105
G0 X116.536 Y118.143
;TYPE:WALL-INNER
G1 F1200 X116.474 Y118.256 E12.70022
G1 X116.432 Y118.281 E12.70184
G1 X116.41 Y118.295 E12.70271
G1 X116.204 Y118.178 E12.71059
G1 X116.254 Y117.99 E12.71574
G1 X116.334 Y117.876 E12.72028
G1 X116.44 Y117.768 E12.72531
G1 X116.511 Y117.697 E12.72865
G1 X116.7 Y117.56 E12.73642
G1 X116.674 Y117.723 E12.73704
G1 X116.641 Y117.925 E12.74154
G1 X116.635 Y117.96 E12.74183
G1 X116.603 Y118.02 E12.7431
G1 X116.536 Y118.143 E12.7469
G0 F6000 X117.554 Y119.152
G0 X117.686 Y118.918
G0 X117.592 Y118.68
;TYPE:WALL-OUTER
G1 F1200 X117.941 Y118.881 E12.76029
G1 X117.285 Y120.016 E12.80389
G1 X117.969 Y120.413 E12.8302
G1 X119.036 Y118.565 E12.90117
G1 X117.122 Y117.459 E12.9747
G1 X117.022 Y118.074 E12.99542
G1 X116.897 Y118.365 E13.00595
G1 X116.746 Y118.559 E13.01413
G1 X116.531 Y118.689 E13.02249
G1 X116.363 Y118.701 E13.02809
G1 X116.124 Y118.621 E13.03647
G1 X115.89 Y118.442 E13.04627
G1 X115.8 Y118.269 E13.05276
G1 X115.797 Y118.06 E13.05971
G1 X115.898 Y117.801 E13.06896
G1 X116.026 Y117.618 E13.07638
G1 X116.25 Y117.392 E13.08697
G1 X116.715 Y117.054 E13.10609
G1 X115.909 Y116.588 E13.13705
G1 X115.488 Y117.006 E13.15678
G1 X115.188 Y117.447 E13.17452
G1 X115.054 Y117.725 E13.18479
G1 X114.96 Y118.194 E13.2007
G1 X114.99 Y118.531 E13.21195
G1 X115.189 Y118.946 E13.22726
G1 X115.417 Y119.192 E13.23841
G1 X115.66 Y119.361 E13.24826
G1 X115.924 Y119.487 E13.25799
G1 X116.244 Y119.563 E13.26893
G1 X116.643 Y119.548 E13.28221
G1 X116.95 Y119.443 E13.293
G1 X117.215 Y119.253 E13.30384
G1 X117.524 Y118.868 E13.32026
G1 X117.592 Y118.68 E13.32691
G1 F2700 E8.32691
G0 F6000 X118.195 Y118.813
G0 X122.045 Y116.573
G0 X124.531 Y120.853
G0 X124.39 Y121.501
G0 X123.963 Y121.83
G0 X123.525 Y121.87
G0 X123.525 Y121.195
G0 X123.617 Y121.005
G1 F2700 E13.32691
G1 F1200 X111.397 Y121.005 E13.73335
G1 X111.385 Y120.992 E13.73394
G1 X117.497 Y110.483 E14.13829
G1 X117.532 Y110.532 E14.14029
G1 X123.618 Y120.998 E14.54297
G1 X123.617 Y121.005 E14.5432
G1 F2700 E9.5432
G0 F6000 X123.707 Y121.057
G0 X123.258 Y120.796
G0 X122.49 Y120.076
G0 X122.249 Y120.215
;TYPE:SKIN
G1 F2700 E14.5432
G1 F1200 X118.996 Y120.215 E14.6514
G1 X120.616 Y117.407 E14.75922
G1 X122.249 Y120.215 E14.86726
G0 F6000 X122.49 Y120.075
G0 X120.574 Y116.947
G0 X120.214 Y117.546
G0 X120.592 Y117.764
G1 F1200 X120.7 Y117.871 E14.87232
G0 F6000 X120.385 Y118.122
G1 F1200 X121.486 Y119.223 E14.9241
G0 F6000 X121.751 Y120.054
G1 F1200 X120.179 Y118.482 E14.99805
G0 F6000 X119.971 Y118.84
G1 F1200 X121.185 Y120.054 E15.05515
G0 F6000 X120.619 Y120.054
G1 F1200 X119.765 Y119.199 E15.09534
G0 F6000 X119.558 Y119.558
G1 F1200 X120.054 Y120.054 E15.11867
G0 F6000 X119.488 Y120.054
G1 F1200 X119.351 Y119.917 E15.12512
G0 F6000 X118.972 Y119.697
G0 X120.431 Y117.121
G0 X120.556 Y117.161
;TYPE:SKIN
G1 F1200 X120.49 Y117.096 E15.12666
G0 F6000 X120.444 Y117.081
G0 X122.535 Y120.152
G0 X122.459 Y120.196
G1 F1200 X122.564 Y120.302 E15.12914
G0 F6000 X122.424 Y120.445
G1 F1200 X122.356 Y120.376 E15.13075
G0 F6000 X122.356 Y120.495
G0 X122.595 Y120.414
G0 X120.574 Y116.947
G0 X120.151 Y117.11
G0 X120.499 Y115.984
G0 X119.373 Y115.335
G0 X119.221 Y115.761
G0 X118.666 Y115.495
G0 X118.806 Y115.254
;TYPE:SKIN
G1 F1200 X118.469 Y115.059 E15.1437
G1 X118.828 Y114.437 E15.16759
G1 X116.797 Y113.258 E15.24569
G1 X117.5 Y112.05 E15.29218
G1 X119.001 Y114.631 E15.39149
G1 X118.806 Y115.254 E15.4132
G0 F6000 X118.666 Y115.495
G0 X119.135 Y116.096
G0 X119.373 Y115.335
G0 X120.499 Y115.984
G0 X120.151 Y117.11
G0 X118.052 Y120.725
G0 X116.828 Y120.158
G0 X115.736 Y119.963
G0 X115.616 Y120.215
G1 F1200 X112.751 Y120.215 E15.50849
G1 X114.274 Y117.597 E15.60923
G1 X114.162 Y118.15 E15.62799
G1 X114.216 Y118.744 E15.64783
G1 X114.528 Y119.396 E15.67187
G1 X114.896 Y119.792 E15.68985
G1 X115.261 Y120.047 E15.70466
G1 X115.616 Y120.215 E15.71772
G0 F6000 X115.736 Y119.963
G0 X116.529 Y120.145
G0 X116.759 Y120.405
G0 X112.405 Y120.414
G0 X112.738 Y119.684
G0 X113.115 Y119.904
G1 F1200 X113.265 Y120.054 E15.72478
G0 F6000 X113.324 Y119.547
G1 F1200 X113.831 Y120.054 E15.74863
G0 F6000 X114.397 Y120.054
G1 F1200 X113.532 Y119.189 E15.78931
G0 F6000 X113.74 Y118.831
G1 F1200 X114.394 Y119.485 E15.82008
G0 F6000 X114.039 Y118.564
G1 F1200 X113.948 Y118.474 E15.82433
G0 F6000 X113.57 Y118.253
G0 X112.405 Y120.414
G0 X116.759 Y120.405
G0 X116.529 Y120.145
G0 X114.711 Y119.271
G0 X114.697 Y117.562
G0 X117.14 Y113.781
G0 X117.361 Y113.401
G1 F1200 X117.068 Y113.108 E15.83811
G0 F6000 X117.276 Y112.751
G1 F1200 X118.34 Y113.815 E15.88816
G0 F6000 X118.721 Y113.594
G0 X117.935 Y112.242
G0 X117.554 Y112.463
G1 F1200 X117.484 Y112.393 E15.89145
G0 F6000 X117.106 Y112.172
G0 X116.43 Y113.335
G0 X116.47 Y113.359
;TYPE:SKIN
G1 F1200 X116.792 Y113.681 E15.89903
G0 F6000 X116.688 Y113.86
G1 F1200 X116.366 Y113.538 E15.9066
G0 F6000 X116.262 Y113.716
